;1001
;Firmware: Marlin
;Printer name: Creality Ender 3 V2
;Print time: 7m:46s
;Extruder 1 material used: 207mm
;Extruder 1 material name: PVA 1.75mm
;Extruder 1 filament diameter: 1.75mm
;Extruder 1 nozzle diameter: 0.4mm
;Extruder 1 offset x: 0mm
;Extruder 1 offset y: 0mm
;Extruder 1 offset z: 0mm
;Extruder 1 max temp: 220
;Bed temp: 60
;Layer count: 38
;Width: 220mm
;Depth: 220mm
;Height: 250mm
;Count of bodies: 1
;Fusion version: 2.0.9719
;--------------------------------
;Selected Profile: PVA 1.75mm, 0.4mm Nozzle
;Selected Printer: Creality, Ender 3 V2
;--------------------------------
M140 S60
M190 S60
M104 S220 T0
M109 S220 T0
G1 F236
G21
G90
M82
G28 Z0
G1 Z0 F236
G28 X0 Y0
G92 E0
G0 X0 Y0 Z0
G92 E0
;--------------------------------
;Layer : 1 of 38
M107
;rapid-leaky
G0 X20 Y20.8 Z0.3
G1 F1800 E10
;bead-prime
G1 X200 F270 E45.921
G1 F1800 E35.921
;rapid-dry
G1 F236
G0 X120.15 Y99.85
G1 F1800 E45.921
;bead-skirt/brim
G1 Y120.15 F780 E46.934
G1 X99.85 E47.946
G1 Y99.85 E48.959
G1 X120.15 E49.972
;rapid-leaky
G1 F236
G0 X119.75 Y100.25
;bead-skirt/brim
G1 Y119.75 F780 E50.945
G1 X100.25 E51.918
G1 Y100.25 E52.891
G1 X119.75 E53.863
;rapid-leaky
G1 F236
G0 X119.35 Y100.65
;bead-skirt/brim
G1 Y119.35 F780 E54.796
G1 X100.65 E55.729
G1 Y100.65 E56.662
G1 X119.35 E57.595
;rapid-leaky
G1 F236
G0 X118.95 Y101.05
;bead-skirt/brim
G1 Y118.95 F780 E58.488
G1 X101.05 E59.381
G1 Y101.05 E60.274
G1 X118.95 E61.167
;rapid-leaky
G1 F236
G0 X118.55 Y101.45
;bead-skirt/brim
G1 Y118.55 F780 E62.021
G1 X101.45 E62.874
G1 Y101.45 E63.727
G1 X118.55 E64.58
;rapid-leaky
G1 F236
G0 X118.15 Y101.85
;bead-skirt/brim
G1 Y118.15 F780 E65.393
G1 X101.85 E66.206
G1 Y101.85 E67.02
G1 X118.15 E67.833
;rapid-leaky
G1 F236
G0 X117.75 Y102.25
;bead-skirt/brim
G1 Y117.75 F780 E68.606
G1 X102.25 E69.379
G1 Y102.25 E70.153
G1 X117.75 E70.926
;rapid-leaky
G1 F236
G0 X117.35 Y102.65
;bead-skirt/brim
G1 Y117.35 F780 E71.659
G1 X102.65 E72.393
G1 Y102.65 E73.126
G1 X117.35 E73.859
;rapid-leaky
G1 F236
G0 X116.95 Y103.05
;bead-skirt/brim
G1 Y116.95 F780 E74.553
G1 X103.05 E75.246
G1 Y103.05 E75.94
G1 X116.95 E76.633
;rapid-leaky
G1 F236
G0 X116.55 Y103.45
;bead-skirt/brim
G1 Y116.55 F780 E77.287
G1 X103.45 E77.94
G1 Y103.45 E78.594
G1 X116.55 E79.248
G1 F1800 E69.248
;rapid-dry
G1 F236
G0 X115.785 Y104.215
G1 F1800 E79.248
;bead-perimeter_inner
G1 Y115.785 F780 E79.825
G1 X104.215 E80.402
G1 Y104.215 E80.979
G1 X115.785 E81.557
;rapid-leaky
G1 F236
G0 X116.15 Y103.85
;bead-perimeter_outer
G1 Y116.15 F540 E82.17
G1 X103.85 E82.784
G1 Y103.85 E83.397
G1 X116.15 E84.011
;rapid-leaky
G1 F236
G0 X115.465 Y115.455
;bead-solid_infill
G1 X115.455 Y115.465 F1200 E84.012
G1 X114.889 E84.04
G1 X115.465 Y114.889 E84.081
G1 Y114.324 E84.109
G1 X114.324 Y115.465 E84.189
G1 X113.758 E84.218
G1 X115.465 Y113.758 E84.338
G1 Y113.192 E84.366
G1 X113.192 Y115.465 E84.527
G1 X112.627 E84.555
G1 X115.465 Y112.627 E84.755
G1 Y112.061 E84.783
G1 X112.061 Y115.465 E85.023
G1 X111.495 E85.052
G1 X115.465 Y111.495 E85.332
G1 Y110.93 E85.36
G1 X110.93 Y115.465 E85.68
G1 X110.364 E85.708
G1 X115.465 Y110.364 E86.068
G1 Y109.798 E86.096
G1 X109.798 Y115.465 E86.496
G1 X109.233 E86.524
G1 X115.465 Y109.233 E86.964
G1 Y108.667 E86.992
G1 X108.667 Y115.465 E87.472
G1 X108.101 E87.5
G1 X115.465 Y108.101 E88.02
G1 Y107.536 E88.048
G1 X107.536 Y115.465 E88.607
G1 X106.97 E88.636
G1 X115.465 Y106.97 E89.235
G1 Y106.404 E89.263
G1 X106.404 Y115.465 E89.903
G1 X105.839 E89.931
G1 X115.465 Y105.839 E90.61
G1 Y105.273 E90.638
G1 X105.273 Y115.465 E91.357
G1 X104.707 E91.386
G1 X115.465 Y104.707 E92.145
G1 Y104.535 E92.153
G1 X115.071 E92.173
G1 X104.535 Y115.071 E92.916
G1 Y114.506 E92.944
G1 X114.506 Y104.535 E93.648
G1 X113.94 E93.676
G1 X104.535 Y113.94 E94.34
G1 Y113.374 E94.368
G1 X113.374 Y104.535 E94.992
G1 X112.809 E95.02
G1 X104.535 Y112.809 E95.604
G1 Y112.243 E95.632
G1 X112.243 Y104.535 E96.176
G1 X111.677 E96.204
G1 X104.535 Y111.677 E96.708
G1 Y111.112 E96.736
G1 X111.112 Y104.535 E97.2
G1 X110.546 E97.228
G1 X104.535 Y110.546 E97.652
G1 Y109.98 E97.681
G1 X109.98 Y104.535 E98.065
G1 X109.415 E98.093
G1 X104.535 Y109.415 E98.437
G1 Y108.849 E98.466
G1 X108.849 Y104.535 E98.77
G1 X108.283 E98.798
G1 X104.535 Y108.283 E99.063
G1 Y107.718 E99.091
G1 X107.718 Y104.535 E99.315
G1 X107.152 E99.344
G1 X104.535 Y107.152 E99.528
G1 Y106.586 E99.556
G1 X106.586 Y104.535 E99.701
G1 X106.02 E99.729
G1 X104.535 Y106.02 E99.834
G1 Y105.455 E99.862
G1 X105.455 Y104.535 E99.927
G1 X104.889 E99.956
G1 X104.535 Y104.889 E99.98
G1 F1800 E89.98
;Layer : 2 of 38
M106 S255
;rapid-dry
G1 F236
G0 X104.215 Y104.215 Z0.5
G1 F1800 E99.98
;bead-perimeter_inner
G1 X115.785 F1560 E100.365
G1 Y115.785 E100.75
G1 X104.215 E101.135
G1 Y104.215 E101.52
;rapid-leaky
G1 F236
G0 X103.85 Y103.85
;bead-perimeter_outer
G1 X116.15 F1080 E101.929
G1 Y116.15 E102.338
G1 X103.85 E102.747
G1 Y103.85 E103.156
;rapid-leaky
G1 F236
G0 X115.455 Y104.535
;bead-solid_infill
G1 X115.465 Y104.545 F2400 E103.157
G1 Y105.111 E103.175
G1 X114.889 Y104.535 E103.203
G1 X114.324 E103.221
G1 X115.465 Y105.676 E103.275
G1 Y106.242 E103.294
G1 X113.758 Y104.535 E103.374
G1 X113.192 E103.393
G1 X115.465 Y106.808 E103.5
G1 Y107.373 E103.519
G1 X112.627 Y104.535 E103.652
G1 X112.061 E103.671
G1 X115.465 Y107.939 E103.831
G1 Y108.505 E103.85
G1 X111.495 Y104.535 E104.037
G1 X110.93 E104.055
G1 X115.465 Y109.07 E104.269
G1 Y109.636 E104.288
G1 X110.364 Y104.535 E104.528
G1 X109.798 E104.546
G1 X115.465 Y110.202 E104.813
G1 Y110.767 E104.832
G1 X109.233 Y104.535 E105.125
G1 X108.667 E105.144
G1 X115.465 Y111.333 E105.463
G1 Y111.899 E105.482
G1 X108.101 Y104.535 E105.829
G1 X107.536 E105.847
G1 X115.465 Y112.464 E106.22
G1 Y113.03 E106.239
G1 X106.97 Y104.535 E106.639
G1 X106.404 E106.658
G1 X115.465 Y113.596 E107.084
G1 Y114.162 E107.103
G1 X105.839 Y104.535 E107.555
G1 X105.273 E107.574
G1 X115.465 Y114.727 E108.054
G1 Y115.293 E108.072
G1 X104.707 Y104.535 E108.578
G1 X104.535 E108.584
G1 Y104.929 E108.597
G1 X115.071 Y115.465 E109.093
G1 X114.506 E109.112
G1 X104.535 Y105.494 E109.581
G1 Y106.06 E109.6
G1 X113.94 Y115.465 E110.042
G1 X113.374 E110.061
G1 X104.535 Y106.626 E110.476
G1 Y107.191 E110.495
G1 X112.809 Y115.465 E110.884
G1 X112.243 E110.903
G1 X104.535 Y107.757 E111.266
G1 Y108.323 E111.285
G1 X111.677 Y115.465 E111.621
G1 X111.112 E111.639
G1 X104.535 Y108.888 E111.949
G1 Y109.454 E111.968
G1 X110.546 Y115.465 E112.25
G1 X109.98 E112.269
G1 X104.535 Y110.02 E112.525
G1 Y110.585 E112.544
G1 X109.415 Y115.465 E112.774
G1 X108.849 E112.792
G1 X104.535 Y111.151 E112.995
G1 Y111.717 E113.014
G1 X108.283 Y115.465 E113.19
G1 X107.718 E113.209
G1 X104.535 Y112.282 E113.359
G1 Y112.848 E113.378
G1 X107.152 Y115.465 E113.501
G1 X106.586 E113.52
G1 X104.535 Y113.414 E113.616
G1 Y113.98 E113.635
G1 X106.02 Y115.465 E113.705
G1 X105.455 E113.724
G1 X104.535 Y114.545 E113.767
G1 Y115.111 E113.786
G1 X104.889 Y115.465 E113.802
G1 F1800 E103.802
;Layer : 3 of 38
;rapid-dry
G1 F236
G0 X104.215 Y115.785 Z0.7
G1 F1800 E113.802
;bead-perimeter_inner
G1 Y104.215 F1560 E114.187
G1 X115.785 E114.572
G1 Y115.785 E114.957
G1 X104.215 E115.342
;rapid-leaky
G1 F236
G0 X103.85 Y116.15
;bead-perimeter_outer
G1 Y103.85 F1080 E115.751
G1 X116.15 E116.16
G1 Y116.15 E116.569
G1 X103.85 E116.978
;rapid-leaky
G1 F236
G0 X104.535 Y104.889
;bead-solid_infill
G1 X104.889 Y104.535 F2400 E116.995
G1 X105.455 E117.014
G1 X104.535 Y105.455 E117.057
G1 Y106.02 E117.076
G1 X106.02 Y104.535 E117.146
G1 X106.586 E117.164
G1 X104.535 Y106.586 E117.261
G1 Y107.152 E117.28
G1 X107.152 Y104.535 E117.403
G1 X107.718 E117.422
G1 X104.535 Y107.718 E117.571
G1 Y108.283 E117.59
G1 X108.283 Y104.535 E117.766
G1 X108.849 E117.785
G1 X104.535 Y108.849 E117.988
G1 Y109.415 E118.007
G1 X109.415 Y104.535 E118.236
G1 X109.98 E118.255
G1 X104.535 Y109.98 E118.511
G1 Y110.546 E118.53
G1 X110.546 Y104.535 E118.813
G1 X111.112 E118.832
G1 X104.535 Y111.112 E119.141
G1 Y111.677 E119.16
G1 X111.677 Y104.535 E119.496
G1 X112.243 E119.515
G1 X104.535 Y112.243 E119.877
G1 Y112.809 E119.896
G1 X112.809 Y104.535 E120.285
G1 X113.374 E120.304
G1 X104.535 Y113.374 E120.72
G1 Y113.94 E120.739
G1 X113.94 Y104.535 E121.181
G1 X114.506 E121.2
G1 X104.535 Y114.506 E121.669
G1 Y115.071 E121.688
G1 X115.071 Y104.535 E122.183
G1 X115.465 E122.196
G1 Y104.707 E122.202
G1 X104.707 Y115.465 E122.708
G1 X105.273 E122.727
G1 X115.465 Y105.273 E123.206
G1 Y105.839 E123.225
G1 X105.839 Y115.465 E123.678
G1 X106.404 E123.697
G1 X115.465 Y106.404 E124.123
G1 Y106.97 E124.142
G1 X106.97 Y115.465 E124.541
G1 X107.536 E124.56
G1 X115.465 Y107.536 E124.933
G1 Y108.101 E124.952
G1 X108.101 Y115.465 E125.298
G1 X108.667 E125.317
G1 X115.465 Y108.667 E125.637
G1 Y109.233 E125.656
G1 X109.233 Y115.465 E125.949
G1 X109.798 E125.968
G1 X115.465 Y109.798 E126.234
G1 Y110.364 E126.253
G1 X110.364 Y115.465 E126.493
G1 X110.93 E126.512
G1 X115.465 Y110.93 E126.725
G1 Y111.495 E126.744
G1 X111.495 Y115.465 E126.931
G1 X112.061 E126.949
G1 X115.465 Y112.061 E127.11
G1 Y112.627 E127.128
G1 X112.627 Y115.465 E127.262
G1 X113.192 E127.281
G1 X115.465 Y113.192 E127.388
G1 Y113.758 E127.406
G1 X113.758 Y115.465 E127.487
G1 X114.324 E127.505
G1 X115.465 Y114.324 E127.559
G1 Y114.889 E127.578
G1 X114.889 Y115.465 E127.605
G1 X115.455 E127.624
G1 X115.465 Y115.455
G1 F1800 E117.624
;Layer : 4 of 38
;rapid-dry
G1 F236
G0 X115.785 Y115.785 Z0.9
G1 F1800 E127.624
;bead-perimeter_inner
G1 X104.215 F1560 E128.009
G1 Y104.215 E128.394
G1 X115.785 E128.779
G1 Y115.785 E129.164
;rapid-leaky
G1 F236
G0 X116.15 Y116.15
;bead-perimeter_outer
G1 X103.85 F1080 E129.573
G1 Y103.85 E129.982
G1 X116.15 E130.391
G1 Y116.15 E130.8
G1 F1800 E120.8
;rapid-dry
G1 F236
G0 X111.168 Y109.865
G1 F1800 E130.8
;bead-solid_infill
G1 X115.465 Y114.162 F2400 E131.002
G1 Y114.727 E131.021
G1 X111.114 Y110.377 E131.226
G1 X111.081 Y110.481 E131.229
G1 X110.957 Y110.695 E131.237
G1 X110.914 Y110.742 E131.24
G1 X115.465 Y115.293 E131.454
G1 Y115.465 E131.459
G1 X115.071 E131.472
G1 X110.614 Y111.008 E131.682
G1 X110.591 Y111.025 E131.683
G1 X110.366 Y111.125 E131.691
G1 X110.201 Y111.16 E131.697
G1 X114.506 Y115.465 E131.899
G1 X113.94 E131.918
G1 X109.573 Y111.098 E132.124
G1 F1800 E122.124
;rapid-dry
G1 F236
G0 X104.535 Y115.111
G1 F1800 E132.124
;bead-solid_infill
G1 X104.889 Y115.465 F2400 E132.14
G1 X105.455 E132.159
G1 X104.535 Y114.545 E132.202
G1 Y113.98 E132.221
G1 X106.02 Y115.465 E132.291
G1 X106.586 E132.31
G1 X104.535 Y113.414 E132.406
G1 Y112.848 E132.425
G1 X107.152 Y115.465 E132.548
G1 X107.718 E132.567
G1 X104.535 Y112.282 E132.717
G1 Y111.717 E132.736
G1 X108.283 Y115.465 E132.912
G1 X108.849 E132.931
G1 X104.535 Y111.151 E133.134
G1 Y110.585 E133.152
G1 X109.415 Y115.465 E133.382
G1 X109.98 E133.401
G1 X104.535 Y110.02 E133.657
G1 Y109.454 E133.676
G1 X110.546 Y115.465 E133.958
G1 X111.112 E133.977
G1 X104.535 Y108.888 E134.287
G1 Y108.323 E134.305
G1 X111.677 Y115.465 E134.641
G1 X112.243 E134.66
G1 X104.535 Y107.757 E135.023
G1 Y107.191 E135.041
G1 X112.809 Y115.465 E135.431
G1 X113.374 E135.449
G1 X104.535 Y106.626 E135.865
G1 Y106.06 E135.884
G1 X108.903 Y110.428 E136.09
G1 X108.841 Y110.233 E136.096
G1 X108.817 Y110 E136.104
G1 X108.839 Y109.798 E136.111
G1 X104.535 Y105.494 E136.313
G1 Y104.929 E136.332
G1 X108.995 Y109.388 E136.542
G1 X109.043 Y109.305 E136.545
G1 X109.209 Y109.121 E136.553
G1 X109.258 Y109.086 E136.555
G1 X104.707 Y104.535 E136.769
G1 X105.273 E136.788
G1 X109.619 Y108.882 E136.993
G1 X109.634 Y108.875
G1 X109.876 Y108.824 E137.001
G1 X110.124 E137.01
G1 X110.128 Y108.825
G1 X105.839 Y104.535 E137.212
G1 X106.404 E137.23
G1 X115.465 Y113.596 E137.657
G1 Y113.03 E137.675
G1 X106.97 Y104.535 E138.075
G1 X107.536 E138.094
G1 X115.465 Y112.464 E138.467
G1 Y111.899 E138.486
G1 X108.101 Y104.535 E138.832
G1 X108.667 E138.851
G1 X115.465 Y111.333 E139.171
G1 Y110.767 E139.189
G1 X109.233 Y104.535 E139.483
G1 X109.798 E139.501
G1 X115.465 Y110.202 E139.768
G1 Y109.636 E139.787
G1 X110.364 Y104.535 E140.027
G1 X110.93 E140.045
G1 X115.465 Y109.07 E140.259
G1 Y108.505 E140.278
G1 X111.495 Y104.535 E140.464
G1 X112.061 E140.483
G1 X115.465 Y107.939 E140.643
G1 Y107.373 E140.662
G1 X112.627 Y104.535 E140.796
G1 X113.192 E140.814
G1 X115.465 Y106.808 E140.921
G1 Y106.242 E140.94
G1 X113.758 Y104.535 E141.02
G1 X114.324 E141.039
G1 X115.465 Y105.676 E141.093
G1 Y105.111 E141.112
G1 X114.889 Y104.535 E141.139
G1 X115.455 E141.158
G1 X115.465 Y104.545
G1 F1800 E131.158
;Layer : 5 of 38
;rapid-leaky
G1 F236
G0 X115.785 Y104.215 Z1.1
G1 F1800 E141.158
;bead-perimeter_inner
G1 Y115.785 F1560 E141.543
G1 X104.215 E141.928
G1 Y104.215 E142.312
G1 X115.785 E142.697
;rapid-leaky
G1 F236
G0 X116.15 Y103.85
;bead-perimeter_outer
G1 Y116.15 F1080 E143.106
G1 X103.85 E143.516
G1 Y103.85 E143.925
G1 X116.15 E144.334
G1 F1800 E134.334
;rapid-dry
G1 F236
G0 X108.902 Y109.573
G1 F1800 E144.334
;bead-solid_infill
G1 X104.535 Y113.94 F2400 E144.539
G1 Y114.506 E144.558
G1 X108.838 Y110.202 E144.76
G1 X108.841 Y110.233 E144.761
G1 X108.92 Y110.483 E144.77
G1 X108.995 Y110.612 E144.775
G1 X104.535 Y115.071 E144.985
G1 Y115.465 E144.998
G1 X104.707 E145.004
G1 X109.258 Y110.914 E145.218
G1 X109.409 Y111.025 E145.224
G1 X109.619 Y111.118 E145.232
G1 X105.273 Y115.465 E145.436
G1 X105.839 E145.455
G1 X110.128 Y111.175 E145.657
G1 F1800 E135.657
;rapid-dry
G1 F236
G0 X115.455 Y115.465
G1 F1800 E145.657
;bead-solid_infill
G1 X115.465 Y115.455 F2400
G1 Y114.889 E145.676
G1 X114.889 Y115.465 E145.703
G1 X114.324 E145.722
G1 X115.465 Y114.324 E145.775
G1 Y113.758 E145.794
G1 X113.758 Y115.465 E145.875
G1 X113.192 E145.893
G1 X115.465 Y113.192 E146
G1 Y112.627 E146.019
G1 X112.627 Y115.465 E146.153
G1 X112.061 E146.171
G1 X115.465 Y112.061 E146.331
G1 Y111.495 E146.35
G1 X111.495 Y115.465 E146.537
G1 X110.93 E146.556
G1 X115.465 Y110.93 E146.769
G1 Y110.364 E146.788
G1 X110.364 Y115.465 E147.028
G1 X109.798 E147.047
G1 X115.465 Y109.798 E147.313
G1 Y109.233 E147.332
G1 X109.233 Y115.465 E147.625
G1 X108.667 E147.644
G1 X115.465 Y108.667 E147.964
G1 Y108.101 E147.983
G1 X108.101 Y115.465 E148.329
G1 X107.536 E148.348
G1 X115.465 Y107.536 E148.721
G1 Y106.97 E148.74
G1 X106.97 Y115.465 E149.139
G1 X106.404 E149.158
G1 X115.465 Y106.404 E149.584
G1 Y105.839 E149.603
G1 X111.168 Y110.135 E149.805
G1 X111.183 Y110 E149.81
G1 X111.157 Y109.754 E149.818
G1 X111.114 Y109.623 E149.822
G1 X115.465 Y105.273 E150.027
G1 Y104.707 E150.046
G1 X110.914 Y109.258 E150.26
G1 X110.791 Y109.121 E150.266
G1 X110.614 Y108.992 E150.273
G1 X115.071 Y104.535 E150.483
G1 X114.506 E150.502
G1 X110.201 Y108.84 E150.704
G1 X110.124 Y108.824 E150.707
G1 X109.876 E150.715
G1 X109.634 Y108.875 E150.723
G1 X109.573 Y108.902 E150.726
G1 X113.94 Y104.535 E150.931
G1 X113.374 E150.95
G1 X104.535 Y113.374 E151.366
G1 Y112.809 E151.384
G1 X112.809 Y104.535 E151.774
G1 X112.243 E151.792
G1 X104.535 Y112.243 E152.155
G1 Y111.677 E152.174
G1 X111.677 Y104.535 E152.51
G1 X111.112 E152.529
G1 X104.535 Y111.112 E152.838
G1 Y110.546 E152.857
G1 X110.546 Y104.535 E153.139
G1 X109.98 E153.158
G1 X104.535 Y109.98 E153.414
G1 Y109.415 E153.433
G1 X109.415 Y104.535 E153.663
G1 X108.849 E153.682
G1 X104.535 Y108.849 E153.884
G1 Y108.283 E153.903
G1 X108.283 Y104.535 E154.08
G1 X107.718 E154.098
G1 X104.535 Y107.718 E154.248
G1 Y107.152 E154.267
G1 X107.152 Y104.535 E154.39
G1 X106.586 E154.409
G1 X104.535 Y106.586 E154.505
G1 Y106.02 E154.524
G1 X106.02 Y104.535 E154.594
G1 X105.455 E154.613
G1 X104.535 Y105.455 E154.656
G1 Y104.889 E154.675
G1 X104.889 Y104.535 E154.692
G1 F1800 E144.692
;Layer : 6 of 38
;rapid-dry
G1 F236
G0 X104.215 Y104.215 Z1.3
G1 F1800 E154.692
;bead-perimeter_inner
G1 X115.785 F1560 E155.076
G1 Y115.785 E155.461
G1 X104.215 E155.846
G1 Y104.215 E156.231
;rapid-leaky
G1 F236
G0 X103.85 Y103.85
;bead-perimeter_outer
G1 X116.15 F1080 E156.64
G1 Y116.15 E157.049
G1 X103.85 E157.458
G1 Y103.85 E157.867
G1 F1800 E147.867
;rapid-dry
G1 F236
G0 X109.573 Y111.098
G1 F1800 E157.867
;bead-solid_infill
G1 X113.94 Y115.465 F2400 E158.073
G1 X114.506 E158.091
G1 X110.201 Y111.16 E158.294
G1 X110.366 Y111.125 E158.3
G1 X110.591 Y111.025 E158.308
G1 X110.614 Y111.008 E158.309
G1 X115.071 Y115.465 E158.518
G1 X115.465 E158.531
G1 Y115.293 E158.537
G1 X110.914 Y110.742 E158.751
G1 X110.957 Y110.695 E158.753
G1 X111.081 Y110.481 E158.762
G1 X111.114 Y110.377 E158.765
G1 X115.465 Y114.727 E158.97
G1 Y114.162 E158.989
G1 X111.168 Y109.865 E159.191
G1 F1800 E149.191
;rapid-dry
G1 F236
G0 X115.465 Y104.545
G1 F1800 E159.191
;bead-solid_infill
G1 X115.455 Y104.535 F2400
G1 X114.889 E159.21
G1 X115.465 Y105.111 E159.237
G1 Y105.676 E159.256
G1 X114.324 Y104.535 E159.31
G1 X113.758 E159.328
G1 X115.465 Y106.242 E159.409
G1 Y106.808 E159.428
G1 X113.192 Y104.535 E159.534
G1 X112.627 E159.553
G1 X115.465 Y107.373 E159.687
G1 Y107.939 E159.706
G1 X112.061 Y104.535 E159.866
G1 X111.495 E159.884
G1 X115.465 Y108.505 E160.071
G1 Y109.07 E160.09
G1 X110.93 Y104.535 E160.303
G1 X110.364 E160.322
G1 X115.465 Y109.636 E160.562
G1 Y110.202 E160.581
G1 X109.798 Y104.535 E160.847
G1 X109.233 E160.866
G1 X115.465 Y110.767 E161.159
G1 Y111.333 E161.178
G1 X108.667 Y104.535 E161.498
G1 X108.101 E161.517
G1 X115.465 Y111.899 E161.863
G1 Y112.464 E161.882
G1 X107.536 Y104.535 E162.255
G1 X106.97 E162.274
G1 X115.465 Y113.03 E162.673
G1 Y113.596 E162.692
G1 X106.404 Y104.535 E163.118
G1 X105.839 E163.137
G1 X110.128 Y108.825 E163.339
G1 X110.124 Y108.824
G1 X109.876 E163.347
G1 X109.634 Y108.875 E163.356
G1 X109.619 Y108.882
G1 X105.273 Y104.535 E163.561
G1 X104.707 E163.579
G1 X109.258 Y109.086 E163.793
G1 X109.209 Y109.121 E163.795
G1 X109.043 Y109.305 E163.804
G1 X108.995 Y109.388 E163.807
G1 X104.535 Y104.929 E164.017
G1 Y105.494 E164.035
G1 X108.839 Y109.798 E164.238
G1 X108.817 Y110 E164.245
G1 X108.841 Y110.233 E164.252
G1 X108.903 Y110.428 E164.259
G1 X104.535 Y106.06 E164.465
G1 Y106.626 E164.484
G1 X113.374 Y115.465 E164.899
G1 X112.809 E164.918
G1 X104.535 Y107.191 E165.307
G1 Y107.757 E165.326
G1 X112.243 Y115.465 E165.689
G1 X111.677 E165.707
G1 X104.535 Y108.323 E166.043
G1 Y108.888 E166.062
G1 X111.112 Y115.465 E166.372
G1 X110.546 E166.39
G1 X104.535 Y109.454 E166.673
G1 Y110.02 E166.692
G1 X109.98 Y115.465 E166.948
G1 X109.415 E166.967
G1 X104.535 Y110.585 E167.196
G1 Y111.151 E167.215
G1 X108.849 Y115.465 E167.418
G1 X108.283 E167.437
G1 X104.535 Y111.717 E167.613
G1 Y112.282 E167.632
G1 X107.718 Y115.465 E167.782
G1 X107.152 E167.801
G1 X104.535 Y112.848 E167.924
G1 Y113.414 E167.943
G1 X106.586 Y115.465 E168.039
G1 X106.02 E168.058
G1 X104.535 Y113.98 E168.128
G1 Y114.545 E168.146
G1 X105.455 Y115.465 E168.19
G1 X104.889 E168.209
G1 X104.535 Y115.111 E168.225
G1 F1800 E158.225
;Layer : 7 of 38
;rapid-dry
G1 F236
G0 X109.185 Y110.905 Z1.5
G1 F1800 E168.225
;bead-perimeter_inner
G1 X109.014 Y110.716 F300 E168.234
G1 X108.888 Y110.497 E168.242
G1 X108.807 Y110.24 E168.251
G1 X108.782 Y110 E168.259
G1 X108.809 Y109.747 E168.268
G1 X108.887 Y109.505 E168.276
G1 X109.014 Y109.284 E168.285
G1 X109.185 Y109.095 E168.293
G1 X109.391 Y108.945 E168.301
G1 X109.623 Y108.841 E168.31
G1 X109.872 Y108.789 E168.318
G1 X110.128 E168.327
G1 X110.377 Y108.841 E168.335
G1 X110.609 Y108.945 E168.344
G1 X110.815 Y109.095 E168.352
G1 X110.986 Y109.284 E168.361
G1 X111.113 Y109.505 E168.369
G1 X111.191 Y109.747 E168.378
G1 X111.218 Y110 E168.386
G1 X111.191 Y110.253 E168.395
G1 X111.113 Y110.495 E168.403
G1 X110.986 Y110.716 E168.412
G1 X110.815 Y110.905 E168.42
G1 X110.609 Y111.055 E168.428
G1 X110.377 Y111.159 E168.437
G1 X110.128 Y111.211 E168.445
G1 X109.872 E168.454
G1 X109.623 Y111.159 E168.462
G1 X109.391 Y111.055 E168.471
G1 X109.185 Y110.905 E168.479
;rapid-leaky
G1 F236
G0 X108.94 Y111.178
;bead-perimeter_outer
G1 X108.718 Y110.932 F300 E168.49
G1 X108.552 Y110.645 E168.501
G1 X108.448 Y110.315 E168.513
G1 X108.415 Y110 E168.523
G1 X108.45 Y109.671 E168.534
G1 X108.552 Y109.356 E168.545
G1 X108.718 Y109.068 E168.556
G1 X108.94 Y108.822 E168.567
G1 X109.208 Y108.627 E168.578
G1 X109.51 Y108.492 E168.589
G1 X109.834 Y108.424 E168.6
G1 X110.166 E168.612
G1 X110.49 Y108.492 E168.623
G1 X110.792 Y108.627 E168.634
G1 X111.06 Y108.822 E168.645
G1 X111.282 Y109.068 E168.656
G1 X111.448 Y109.356 E168.667
G1 X111.55 Y109.671 E168.678
G1 X111.585 Y110 E168.689
G1 X111.55 Y110.329 E168.7
G1 X111.448 Y110.644 E168.711
G1 X111.282 Y110.932 E168.722
G1 X111.06 Y111.178 E168.733
G1 X110.792 Y111.373 E168.744
G1 X110.49 Y111.508 E168.755
G1 X110.166 Y111.576 E168.766
G1 X109.834 E168.777
G1 X109.51 Y111.508 E168.788
G1 X109.208 Y111.373 E168.799
G1 X108.94 Y111.178 E168.81
;rapid-leaky
G1 F236
G0 X110.259 Y110.856
;bead-sparse_infill
G1 X110.852 Y110.263 F415 E168.838
G1 F1800 E158.838
;rapid-dry
G1 F236
G0 X111.471 Y107.01 Z1.8
G1 F1800 E168.838
;bead-support-structure
G1 X111.96 Y107.301 F484 E168.852
G1 X112.358 Y107.642 E168.865
G1 X112.699 Y108.04 E168.878
G1 X112.972 Y108.486 E168.891
G1 X113.173 Y108.97 E168.904
G1 X113.297 Y109.503 E168.918
G1 X113.335 Y110 E168.93
G1 X113.295 Y110.522 E168.943
G1 X113.173 Y111.031 E168.956
G1 X112.972 Y111.514 E168.969
G1 X112.699 Y111.96 E168.983
G1 X112.358 Y112.359 E168.996
G1 X111.939 Y112.712 E169.009
G1 X111.514 Y112.972 E169.022
G1 X111.031 Y113.173 E169.035
G1 X110.522 Y113.295 E169.048
G1 X110 Y113.335 E169.061
G1 X109.478 Y113.295 E169.074
G1 X108.969 Y113.173 E169.087
G1 X108.486 Y112.972 E169.1
G1 X108.04 Y112.699 E169.113
G1 X107.641 Y112.358 E169.126
G1 X107.288 Y111.939 E169.14
G1 X107.028 Y111.514 E169.152
G1 X106.827 Y111.031 E169.165
G1 X106.705 Y110.522 E169.178
G1 X106.665 Y110 E169.191
G1 X106.705 Y109.478 E169.205
G1 X106.827 Y108.969 E169.218
G1 X107.028 Y108.486 E169.231
G1 X107.301 Y108.04 E169.244
G1 X107.642 Y107.641 E169.257
G1 X108.061 Y107.288 E169.27
G1 X108.486 Y107.028 E169.283
G1 X108.969 Y106.827 E169.296
G1 X109.478 Y106.705 E169.309
G1 X110 Y106.665 E169.322
G1 X110.522 Y106.705 E169.335
G1 F1800 E159.335
G1 F236
G0 X110 Y106.665
G0 X109.725 Y106.686
G0 X110 Y106.665
G0 X110.522 Y106.705
;Layer : 8 of 38
;rapid-dry
G1 F236
G0 Z1.7
G1 F1800 E169.335
;bead-support-structure
G1 X110 Y106.665 F484 E169.348
G1 X109.478 Y106.705 E169.361
G1 X108.969 Y106.827 E169.374
G1 X108.486 Y107.028 E169.387
G1 X108.061 Y107.288 E169.4
G1 X107.642 Y107.641 E169.413
G1 X107.301 Y108.04 E169.426
G1 X107.028 Y108.486 E169.44
G1 X106.827 Y108.969 E169.453
G1 X106.705 Y109.478 E169.466
G1 X106.665 Y110 E169.479
G1 X106.705 Y110.522 E169.492
G1 X106.827 Y111.031 E169.505
G1 X107.028 Y111.514 E169.518
G1 X107.288 Y111.939 E169.53
G1 X107.641 Y112.358 E169.544
G1 X108.04 Y112.699 E169.557
G1 X108.486 Y112.972 E169.57
G1 X108.969 Y113.173 E169.583
G1 X109.478 Y113.295 E169.596
G1 X110 Y113.335 E169.609
G1 X110.522 Y113.295 E169.622
G1 X111.031 Y113.173 E169.635
G1 X111.514 Y112.972 E169.648
G1 X111.939 Y112.712 E169.661
G1 X112.358 Y112.359 E169.675
G1 X112.699 Y111.96 E169.688
G1 X112.972 Y111.514 E169.701
G1 X113.173 Y111.031 E169.714
G1 X113.295 Y110.522 E169.727
G1 X113.335 Y110 E169.74
G1 X113.297 Y109.503 E169.752
G1 X113.173 Y108.97 E169.766
G1 X112.972 Y108.486 E169.779
G1 X112.699 Y108.04 E169.792
G1 X112.358 Y107.642 E169.805
G1 X111.96 Y107.301 E169.818
G1 X111.471 Y107.01 E169.832
G1 F1800 E159.832
G1 F236
G0 X111.96 Y107.301
G0 X112.136 Y107.451
G0 X111.96 Y107.301
G0 X111.471 Y107.01
;rapid-dry
G1 F236
G0 X110.609 Y108.945
G1 F1800 E169.832
;bead-perimeter_inner
G1 X110.815 Y109.095 F300 E169.841
G1 X110.986 Y109.284 E169.849
G1 X111.113 Y109.505 E169.858
G1 X111.191 Y109.747 E169.866
G1 X111.218 Y110 E169.875
G1 X111.191 Y110.253 E169.883
G1 X111.113 Y110.495 E169.892
G1 X110.986 Y110.716 E169.9
G1 X110.815 Y110.905 E169.909
G1 X110.609 Y111.055 E169.917
G1 X110.377 Y111.159 E169.926
G1 X110.128 Y111.211 E169.934
G1 X109.872 E169.942
G1 X109.623 Y111.159 E169.951
G1 X109.391 Y111.055 E169.959
G1 X109.185 Y110.905 E169.968
G1 X109.014 Y110.716 E169.976
G1 X108.887 Y110.495 E169.985
G1 X108.809 Y110.254 E169.993
G1 X108.782 Y110 E170.002
G1 X108.809 Y109.747 E170.01
G1 X108.887 Y109.505 E170.019
G1 X109.014 Y109.284 E170.027
G1 X109.185 Y109.095 E170.036
G1 X109.391 Y108.945 E170.044
G1 X109.623 Y108.841 E170.053
G1 X109.872 Y108.789 E170.061
G1 X110.128 E170.07
G1 X110.377 Y108.841 E170.078
G1 X110.609 Y108.945 E170.086
;rapid-leaky
G1 F236
G0 X110.792 Y108.627
;bead-perimeter_outer
G1 X111.06 Y108.822 F300 E170.097
G1 X111.282 Y109.068 E170.108
G1 X111.448 Y109.356 E170.12
G1 X111.55 Y109.671 E170.131
G1 X111.585 Y110 E170.142
G1 X111.55 Y110.329 E170.153
G1 X111.448 Y110.644 E170.164
G1 X111.282 Y110.932 E170.175
G1 X111.06 Y111.178 E170.186
G1 X110.792 Y111.373 E170.197
G1 X110.49 Y111.508 E170.208
G1 X110.166 Y111.576 E170.219
G1 X109.834 E170.23
G1 X109.51 Y111.508 E170.241
G1 X109.208 Y111.373 E170.252
G1 X108.94 Y111.178 E170.263
G1 X108.718 Y110.932 E170.274
G1 X108.552 Y110.644 E170.285
G1 X108.45 Y110.33 E170.296
G1 X108.415 Y110 E170.307
G1 X108.45 Y109.671 E170.318
G1 X108.552 Y109.356 E170.329
G1 X108.718 Y109.068 E170.34
G1 X108.94 Y108.822 E170.351
G1 X109.208 Y108.627 E170.362
G1 X109.51 Y108.492 E170.373
G1 X109.834 Y108.424 E170.384
G1 X110.166 E170.395
G1 X110.49 Y108.492 E170.406
G1 X110.792 Y108.627 E170.417
;rapid-leaky
G1 F236
G0 X110.259 Y109.144
;bead-sparse_infill
G1 X110.852 Y109.737 F415 E170.445
G1 F1800 E160.445
;Layer : 9 of 38
;rapid-leaky
G1 F236
G0 X111.191 Y109.747 Z1.9
G1 F1800 E170.445
;bead-perimeter_inner
G1 X111.218 Y110 F300 E170.453
G1 X111.191 Y110.253 E170.462
G1 X111.113 Y110.495 E170.47
G1 X110.986 Y110.716 E170.479
G1 X110.815 Y110.905 E170.487
G1 X110.609 Y111.055 E170.496
G1 X110.377 Y111.159 E170.504
G1 X110.128 Y111.211 E170.513
G1 X109.872 E170.521
G1 X109.623 Y111.159 E170.53
G1 X109.391 Y111.055 E170.538
G1 X109.185 Y110.905 E170.547
G1 X109.014 Y110.716 E170.555
G1 X108.887 Y110.495 E170.564
G1 X108.808 Y110.248 E170.572
G1 X108.782 Y110 E170.58
G1 X108.809 Y109.747 E170.589
G1 X108.887 Y109.505 E170.597
G1 X109.014 Y109.284 E170.606
G1 X109.185 Y109.095 E170.614
G1 X109.391 Y108.945 E170.623
G1 X109.623 Y108.841 E170.631
G1 X109.872 Y108.789 E170.64
G1 X110.128 E170.648
G1 X110.377 Y108.841 E170.657
G1 X110.609 Y108.945 E170.665
G1 X110.815 Y109.095 E170.674
G1 X110.986 Y109.284 E170.682
G1 X111.113 Y109.505 E170.691
G1 X111.191 Y109.747 E170.699
;rapid-leaky
G1 F236
G0 X110.259 Y110.856
;bead-sparse_infill
G1 X110.852 Y110.263 F415 E170.727
;rapid-leaky
G1 F236
G0 X111.55 Y109.671
;bead-perimeter_outer
G1 X111.585 Y110 F300 E170.738
G1 X111.55 Y110.329 E170.749
G1 X111.448 Y110.644 E170.76
G1 X111.282 Y110.932 E170.771
G1 X111.06 Y111.178 E170.782
G1 X110.792 Y111.373 E170.793
G1 X110.49 Y111.508 E170.804
G1 X110.166 Y111.576 E170.815
G1 X109.834 E170.826
G1 X109.51 Y111.508 E170.837
G1 X109.208 Y111.373 E170.848
G1 X108.94 Y111.178 E170.859
G1 X108.718 Y110.932 E170.87
G1 X108.552 Y110.644 E170.881
G1 X108.449 Y110.329 E170.892
G1 X108.415 Y110 E170.903
G1 X108.45 Y109.671 E170.914
G1 X108.552 Y109.356 E170.925
G1 X108.718 Y109.068 E170.936
G1 X108.94 Y108.822 E170.947
G1 X109.208 Y108.627 E170.958
G1 X109.51 Y108.492 E170.969
G1 X109.834 Y108.424 E170.98
G1 X110.166 E170.991
G1 X110.49 Y108.492 E171.002
G1 X110.792 Y108.627 E171.013
G1 X111.06 Y108.822 E171.024
G1 X111.282 Y109.068 E171.035
G1 X111.448 Y109.356 E171.047
G1 X111.55 Y109.671 E171.058
G1 F1800 E161.058
;rapid-dry
G1 F236
G0 X111.471 Y107.01
G1 F1800 E171.058
;bead-support-structure
G1 X111.96 Y107.301 F484 E171.072
G1 X112.358 Y107.642 E171.085
G1 X112.699 Y108.04 E171.098
G1 X112.972 Y108.486 E171.111
G1 X113.173 Y108.97 E171.124
G1 X113.297 Y109.503 E171.138
G1 X113.335 Y110 E171.15
G1 X113.295 Y110.522 E171.163
G1 X113.173 Y111.031 E171.176
G1 X112.972 Y111.514 E171.189
G1 X112.699 Y111.96 E171.202
G1 X112.358 Y112.359 E171.215
G1 X111.939 Y112.712 E171.229
G1 X111.514 Y112.972 E171.241
G1 X111.031 Y113.173 E171.255
G1 X110.522 Y113.295 E171.268
G1 X110 Y113.335 E171.281
G1 X109.478 Y113.295 E171.294
G1 X108.969 Y113.173 E171.307
G1 X108.486 Y112.972 E171.32
G1 X108.04 Y112.699 E171.333
G1 X107.641 Y112.358 E171.346
G1 X107.288 Y111.939 E171.36
G1 X107.028 Y111.514 E171.372
G1 X106.827 Y111.031 E171.385
G1 X106.705 Y110.522 E171.398
G1 X106.665 Y110 E171.411
G1 X106.705 Y109.478 E171.424
G1 X106.827 Y108.969 E171.437
G1 X107.028 Y108.486 E171.45
G1 X107.301 Y108.04 E171.463
G1 X107.642 Y107.641 E171.476
G1 X108.061 Y107.288 E171.49
G1 X108.486 Y107.028 E171.503
G1 X108.969 Y106.827 E171.516
G1 X109.478 Y106.705 E171.529
G1 X110 Y106.665 E171.542
G1 X110.522 Y106.705 E171.555
G1 F1800 E161.555
G1 F236
G0 X110 Y106.665
G0 X109.725 Y106.686
G0 X110 Y106.665
G0 X110.522 Y106.705
;Layer : 10 of 38
;rapid-dry
G1 F236
G0 Z2.1
G1 F1800 E171.555
;bead-support-structure
G1 X110 Y106.665 F484 E171.568
G1 X109.478 Y106.705 E171.581
G1 X108.969 Y106.827 E171.594
G1 X108.486 Y107.028 E171.607
G1 X108.061 Y107.288 E171.619
G1 X107.642 Y107.641 E171.633
G1 X107.301 Y108.04 E171.646
G1 X107.028 Y108.486 E171.659
G1 X106.827 Y108.969 E171.672
G1 X106.705 Y109.478 E171.685
G1 X106.665 Y110 E171.698
G1 X106.705 Y110.522 E171.711
G1 X106.827 Y111.031 E171.725
G1 X107.028 Y111.514 E171.738
G1 X107.288 Y111.939 E171.75
G1 X107.641 Y112.358 E171.764
G1 X108.04 Y112.699 E171.777
G1 X108.486 Y112.972 E171.79
G1 X108.969 Y113.173 E171.803
G1 X109.478 Y113.295 E171.816
G1 X110 Y113.335 E171.829
G1 X110.522 Y113.295 E171.842
G1 X111.031 Y113.173 E171.855
G1 X111.514 Y112.972 E171.868
G1 X111.939 Y112.712 E171.881
G1 X112.358 Y112.359 E171.894
G1 X112.699 Y111.96 E171.907
G1 X112.972 Y111.514 E171.92
G1 X113.173 Y111.031 E171.933
G1 X113.295 Y110.522 E171.946
G1 X113.335 Y110 E171.96
G1 X113.297 Y109.503 E171.972
G1 X113.173 Y108.97 E171.986
G1 X112.972 Y108.486 E171.999
G1 X112.699 Y108.04 E172.012
G1 X112.358 Y107.642 E172.025
G1 X111.96 Y107.301 E172.038
G1 X111.471 Y107.01 E172.052
G1 F1800 E162.052
G1 F236
G0 X111.96 Y107.301
G0 X112.136 Y107.451
G0 X111.96 Y107.301
G0 X111.471 Y107.01
;rapid-dry
G1 F236
G0 X110.609 Y108.945
G1 F1800 E172.052
;bead-perimeter_inner
G1 X110.815 Y109.095 F300 E172.061
G1 X110.986 Y109.284 E172.069
G1 X111.113 Y109.505 E172.078
G1 X111.191 Y109.747 E172.086
G1 X111.218 Y110 E172.094
G1 X111.191 Y110.253 E172.103
G1 X111.113 Y110.495 E172.111
G1 X110.986 Y110.716 E172.12
G1 X110.815 Y110.905 E172.128
G1 X110.609 Y111.055 E172.137
G1 X110.377 Y111.159 E172.145
G1 X110.128 Y111.211 E172.154
G1 X109.872 E172.162
G1 X109.623 Y111.159 E172.171
G1 X109.391 Y111.055 E172.179
G1 X109.185 Y110.905 E172.188
G1 X109.014 Y110.716 E172.196
G1 X108.887 Y110.495 E172.205
G1 X108.809 Y110.253 E172.213
G1 X108.782 Y110 E172.221
G1 X108.809 Y109.747 E172.23
G1 X108.887 Y109.505 E172.238
G1 X109.014 Y109.284 E172.247
G1 X109.185 Y109.095 E172.255
G1 X109.391 Y108.945 E172.264
G1 X109.623 Y108.841 E172.272
G1 X109.872 Y108.789 E172.281
G1 X110.128 E172.289
G1 X110.377 Y108.841 E172.298
G1 X110.609 Y108.945 E172.306
;rapid-leaky
G1 F236
G0 X110.792 Y108.627
;bead-perimeter_outer
G1 X111.06 Y108.822 F300 E172.317
G1 X111.282 Y109.068 E172.328
G1 X111.448 Y109.356 E172.339
G1 X111.55 Y109.671 E172.35
G1 X111.585 Y110 E172.361
G1 X111.55 Y110.329 E172.372
G1 X111.448 Y110.644 E172.383
G1 X111.282 Y110.932 E172.394
G1 X111.06 Y111.178 E172.405
G1 X110.792 Y111.373 E172.416
G1 X110.49 Y111.508 E172.427
G1 X110.166 Y111.576 E172.438
G1 X109.834 E172.449
G1 X109.51 Y111.508 E172.46
G1 X109.208 Y111.373 E172.471
G1 X108.94 Y111.178 E172.482
G1 X108.718 Y110.932 E172.494
G1 X108.552 Y110.644 E172.505
G1 X108.45 Y110.329 E172.516
G1 X108.415 Y110 E172.527
G1 X108.45 Y109.671 E172.538
G1 X108.552 Y109.356 E172.549
G1 X108.718 Y109.068 E172.56
G1 X108.94 Y108.822 E172.571
G1 X109.208 Y108.627 E172.582
G1 X109.51 Y108.492 E172.593
G1 X109.834 Y108.424 E172.604
G1 X110.166 E172.615
G1 X110.49 Y108.492 E172.626
G1 X110.792 Y108.627 E172.637
;rapid-leaky
G1 F236
G0 X110.259 Y109.144
;bead-sparse_infill
G1 X110.852 Y109.737 F415 E172.665
G1 F1800 E162.665
;Layer : 11 of 38
;rapid-leaky
G1 F236
G0 X111.191 Y109.747 Z2.3
G1 F1800 E172.665
;bead-perimeter_inner
G1 X111.218 Y110 F300 E172.673
G1 X111.191 Y110.253 E172.682
G1 X111.113 Y110.495 E172.69
G1 X110.986 Y110.716 E172.699
G1 X110.815 Y110.905 E172.707
G1 X110.609 Y111.055 E172.715
G1 X110.377 Y111.159 E172.724
G1 X110.128 Y111.211 E172.732
G1 X109.872 E172.741
G1 X109.623 Y111.159 E172.749
G1 X109.391 Y111.055 E172.758
G1 X109.185 Y110.905 E172.766
G1 X109.014 Y110.716 E172.775
G1 X108.887 Y110.495 E172.783
G1 X108.809 Y110.254 E172.792
G1 X108.782 Y110 E172.8
G1 X108.809 Y109.747 E172.809
G1 X108.887 Y109.505 E172.817
G1 X109.014 Y109.284 E172.826
G1 X109.185 Y109.095 E172.834
G1 X109.391 Y108.945 E172.843
G1 X109.623 Y108.841 E172.851
G1 X109.872 Y108.789 E172.859
G1 X110.128 E172.868
G1 X110.377 Y108.841 E172.876
G1 X110.609 Y108.945 E172.885
G1 X110.815 Y109.095 E172.893
G1 X110.986 Y109.284 E172.902
G1 X111.113 Y109.505 E172.91
G1 X111.191 Y109.747 E172.919
;rapid-leaky
G1 F236
G0 X110.259 Y110.856
;bead-sparse_infill
G1 X110.852 Y110.263 F415 E172.947
;rapid-leaky
G1 F236
G0 X111.55 Y109.671
;bead-perimeter_outer
G1 X111.585 Y110 F300 E172.958
G1 X111.55 Y110.329 E172.969
G1 X111.448 Y110.644 E172.98
G1 X111.282 Y110.932 E172.991
G1 X111.06 Y111.178 E173.002
G1 X110.792 Y111.373 E173.013
G1 X110.49 Y111.508 E173.024
G1 X110.166 Y111.576 E173.035
G1 X109.834 E173.046
G1 X109.51 Y111.508 E173.057
G1 X109.208 Y111.373 E173.068
G1 X108.94 Y111.178 E173.079
G1 X108.718 Y110.932 E173.09
G1 X108.552 Y110.644 E173.101
G1 X108.45 Y110.33 E173.112
G1 X108.415 Y110 E173.123
G1 X108.45 Y109.671 E173.134
G1 X108.552 Y109.356 E173.145
G1 X108.718 Y109.068 E173.156
G1 X108.94 Y108.822 E173.167
G1 X109.208 Y108.627 E173.178
G1 X109.51 Y108.492 E173.189
G1 X109.834 Y108.424 E173.2
G1 X110.166 E173.211
G1 X110.49 Y108.492 E173.222
G1 X110.792 Y108.627 E173.233
G1 X111.06 Y108.822 E173.244
G1 X111.282 Y109.068 E173.255
G1 X111.448 Y109.356 E173.266
G1 X111.55 Y109.671 E173.277
G1 F1800 E163.277
;rapid-dry
G1 F236
G0 X111.471 Y107.01
G1 F1800 E173.277
;bead-support-structure
G1 X111.96 Y107.301 F484 E173.291
G1 X112.358 Y107.642 E173.305
G1 X112.699 Y108.04 E173.318
G1 X112.972 Y108.486 E173.331
G1 X113.173 Y108.97 E173.344
G1 X113.297 Y109.503 E173.357
G1 X113.335 Y110 E173.37
G1 X113.295 Y110.522 E173.383
G1 X113.173 Y111.031 E173.396
G1 X112.972 Y111.514 E173.409
G1 X112.699 Y111.96 E173.422
G1 X112.358 Y112.359 E173.435
G1 X111.939 Y112.712 E173.449
G1 X111.514 Y112.972 E173.461
G1 X111.031 Y113.173 E173.474
G1 X110.522 Y113.295 E173.487
G1 X110 Y113.335 E173.5
G1 X109.478 Y113.295 E173.513
G1 X108.969 Y113.173 E173.526
G1 X108.486 Y112.972 E173.54
G1 X108.04 Y112.699 E173.553
G1 X107.641 Y112.358 E173.566
G1 X107.288 Y111.939 E173.579
G1 X107.028 Y111.514 E173.592
G1 X106.827 Y111.031 E173.605
G1 X106.705 Y110.522 E173.618
G1 X106.665 Y110 E173.631
G1 X106.705 Y109.478 E173.644
G1 X106.827 Y108.969 E173.657
G1 X107.028 Y108.486 E173.67
G1 X107.301 Y108.04 E173.683
G1 X107.642 Y107.641 E173.696
G1 X108.061 Y107.288 E173.71
G1 X108.486 Y107.028 E173.722
G1 X108.969 Y106.827 E173.735
G1 X109.478 Y106.705 E173.748
G1 X110 Y106.665 E173.761
G1 X110.522 Y106.705 E173.775
G1 F1800 E163.775
G1 F236
G0 X110 Y106.665
G0 X109.725 Y106.686
G0 X110 Y106.665
G0 X110.522 Y106.705
;Layer : 12 of 38
;rapid-dry
G1 F236
G0 Z2.5
G1 F1800 E173.775
;bead-support-structure
G1 X110 Y106.665 F484 E173.788
G1 X109.478 Y106.705 E173.801
G1 X108.969 Y106.827 E173.814
G1 X108.486 Y107.028 E173.827
G1 X108.061 Y107.288 E173.839
G1 X107.642 Y107.641 E173.853
G1 X107.301 Y108.04 E173.866
G1 X107.028 Y108.486 E173.879
G1 X106.827 Y108.969 E173.892
G1 X106.705 Y109.478 E173.905
G1 X106.665 Y110 E173.918
G1 X106.705 Y110.522 E173.931
G1 X106.827 Y111.031 E173.944
G1 X107.028 Y111.514 E173.957
G1 X107.288 Y111.939 E173.97
G1 X107.641 Y112.358 E173.983
G1 X108.04 Y112.699 E173.997
G1 X108.486 Y112.972 E174.01
G1 X108.969 Y113.173 E174.023
G1 X109.478 Y113.295 E174.036
G1 X110 Y113.335 E174.049
G1 X110.522 Y113.295 E174.062
G1 X111.031 Y113.173 E174.075
G1 X111.514 Y112.972 E174.088
G1 X111.939 Y112.712 E174.1
G1 X112.358 Y112.359 E174.114
G1 X112.699 Y111.96 E174.127
G1 X112.972 Y111.514 E174.14
G1 X113.173 Y111.031 E174.153
G1 X113.295 Y110.522 E174.166
G1 X113.335 Y110 E174.179
G1 X113.297 Y109.503 E174.192
G1 X113.173 Y108.97 E174.205
G1 X112.972 Y108.486 E174.218
G1 X112.699 Y108.04 E174.231
G1 X112.358 Y107.642 E174.245
G1 X111.96 Y107.301 E174.258
G1 X111.471 Y107.01 E174.272
G1 F1800 E164.272
G1 F236
G0 X111.96 Y107.301
G0 X112.136 Y107.451
G0 X111.96 Y107.301
G0 X111.471 Y107.01
;rapid-dry
G1 F236
G0 X110.61 Y108.945
G1 F1800 E174.272
;bead-perimeter_inner
G1 X110.669 Y108.988 F300 E174.274
G1 X110.814 Y109.095 E174.28
G1 X110.986 Y109.284 E174.289
G1 X111.113 Y109.505 E174.297
G1 X111.191 Y109.747 E174.306
G1 X111.218 Y110 E174.314
G1 X111.191 Y110.253 E174.323
G1 X111.113 Y110.495 E174.331
G1 X110.986 Y110.716 E174.34
G1 X110.815 Y110.905 E174.348
G1 X110.609 Y111.055 E174.357
G1 X110.377 Y111.159 E174.365
G1 X110.128 Y111.211 E174.373
G1 X109.872 E174.382
G1 X109.623 Y111.159 E174.39
G1 X109.391 Y111.055 E174.399
G1 X109.185 Y110.905 E174.407
G1 X109.014 Y110.716 E174.416
G1 X108.887 Y110.495 E174.424
G1 X108.809 Y110.253 E174.433
G1 X108.782 Y110 E174.441
G1 X108.809 Y109.747 E174.45
G1 X108.887 Y109.505 E174.458
G1 X109.014 Y109.284 E174.467
G1 X109.185 Y109.095 E174.475
G1 X109.391 Y108.945 E174.484
G1 X109.623 Y108.841 E174.492
G1 X109.872 Y108.789 E174.5
G1 X110.128 E174.509
G1 X110.377 Y108.841 E174.517
G1 X110.61 Y108.945 E174.526
;rapid-leaky
G1 F236
G0 X110.793 Y108.627
;bead-perimeter_outer
G1 X110.883 Y108.693 F300 E174.53
G1 X111.06 Y108.822 E174.537
G1 X111.282 Y109.068 E174.548
G1 X111.448 Y109.356 E174.559
G1 X111.55 Y109.671 E174.57
G1 X111.585 Y110 E174.581
G1 X111.55 Y110.329 E174.592
G1 X111.448 Y110.644 E174.603
G1 X111.282 Y110.932 E174.614
G1 X111.06 Y111.178 E174.625
G1 X110.792 Y111.373 E174.636
G1 X110.49 Y111.508 E174.647
G1 X110.166 Y111.576 E174.658
G1 X109.834 E174.669
G1 X109.51 Y111.508 E174.68
G1 X109.208 Y111.373 E174.691
G1 X108.94 Y111.178 E174.702
G1 X108.718 Y110.932 E174.713
G1 X108.552 Y110.644 E174.724
G1 X108.45 Y110.329 E174.735
G1 X108.415 Y110 E174.746
G1 X108.45 Y109.671 E174.757
G1 X108.552 Y109.356 E174.768
G1 X108.718 Y109.068 E174.779
G1 X108.94 Y108.822 E174.79
G1 X109.208 Y108.627 E174.801
G1 X109.51 Y108.492 E174.812
G1 X109.834 Y108.424 E174.823
G1 X110.166 E174.834
G1 X110.49 Y108.492 E174.845
G1 X110.793 Y108.627 E174.857
;rapid-leaky
G1 F236
G0 X110.259 Y109.144
;bead-sparse_infill
G1 X110.852 Y109.737 F415 E174.884
G1 F1800 E164.884
;Layer : 13 of 38
;rapid-leaky
G1 F236
G0 X111.191 Y109.747 Z2.7
G1 F1800 E174.884
;bead-perimeter_inner
G1 X111.218 Y110 F300 E174.893
G1 X111.191 Y110.253 E174.901
G1 X111.113 Y110.495 E174.91
G1 X110.986 Y110.716 E174.918
G1 X110.815 Y110.905 E174.927
G1 X110.609 Y111.055 E174.935
G1 X110.377 Y111.159 E174.944
G1 X110.128 Y111.211 E174.952
G1 X109.872 E174.961
G1 X109.623 Y111.159 E174.969
G1 X109.391 Y111.055 E174.978
G1 X109.185 Y110.905 E174.986
G1 X109.014 Y110.716 E174.994
G1 X108.887 Y110.495 E175.003
G1 X108.809 Y110.254 E175.011
G1 X108.782 Y110 E175.02
G1 X108.809 Y109.747 E175.028
G1 X108.887 Y109.505 E175.037
G1 X109.014 Y109.284 E175.045
G1 X109.185 Y109.095 E175.054
G1 X109.391 Y108.945 E175.062
G1 X109.623 Y108.841 E175.071
G1 X109.872 Y108.789 E175.079
G1 X110.128 E175.088
G1 X110.377 Y108.841 E175.096
G1 X110.609 Y108.945 E175.105
G1 X110.687 Y109.002 E175.108
G1 X110.815 Y109.095 E175.113
G1 X110.986 Y109.284 E175.122
G1 X111.113 Y109.505 E175.13
G1 X111.191 Y109.747 E175.138
;rapid-leaky
G1 F236
G0 X110.259 Y110.856
;bead-sparse_infill
G1 X110.852 Y110.263 F415 E175.166
;rapid-leaky
G1 F236
G0 X111.55 Y109.671
;bead-perimeter_outer
G1 X111.585 Y110 F300 E175.177
G1 X111.55 Y110.329 E175.188
G1 X111.448 Y110.644 E175.199
G1 X111.282 Y110.932 E175.21
G1 X111.06 Y111.178 E175.221
G1 X110.792 Y111.373 E175.232
G1 X110.49 Y111.508 E175.243
G1 X110.166 Y111.576 E175.255
G1 X109.834 E175.266
G1 X109.51 Y111.508 E175.277
G1 X109.208 Y111.373 E175.288
G1 X108.94 Y111.178 E175.299
G1 X108.718 Y110.932 E175.31
G1 X108.552 Y110.644 E175.321
G1 X108.45 Y110.329 E175.332
G1 X108.415 Y110 E175.343
G1 X108.45 Y109.671 E175.354
G1 X108.552 Y109.356 E175.365
G1 X108.718 Y109.068 E175.376
G1 X108.94 Y108.822 E175.387
G1 X109.208 Y108.627 E175.398
G1 X109.51 Y108.492 E175.409
G1 X109.834 Y108.424 E175.42
G1 X110.166 E175.431
G1 X110.49 Y108.492 E175.442
G1 X110.793 Y108.627 E175.453
G1 X110.902 Y108.707 E175.457
G1 X111.06 Y108.822 E175.464
G1 X111.282 Y109.068 E175.475
G1 X111.448 Y109.356 E175.486
G1 X111.55 Y109.671 E175.497
G1 F1800 E165.497
;rapid-dry
G1 F236
G0 X111.471 Y107.01
G1 F1800 E175.497
;bead-support-structure
G1 X111.96 Y107.301 F484 E175.511
G1 X112.358 Y107.642 E175.524
G1 X112.699 Y108.04 E175.537
G1 X112.972 Y108.486 E175.55
G1 X113.173 Y108.97 E175.563
G1 X113.297 Y109.503 E175.577
G1 X113.335 Y110 E175.59
G1 X113.295 Y110.522 E175.603
G1 X113.173 Y111.031 E175.616
G1 X112.972 Y111.514 E175.629
G1 X112.699 Y111.96 E175.642
G1 X112.358 Y112.359 E175.655
G1 X111.939 Y112.712 E175.669
G1 X111.514 Y112.972 E175.681
G1 X111.031 Y113.173 E175.694
G1 X110.522 Y113.295 E175.707
G1 X110 Y113.335 E175.72
G1 X109.478 Y113.295 E175.733
G1 X108.969 Y113.173 E175.746
G1 X108.486 Y112.972 E175.759
G1 X108.04 Y112.699 E175.772
G1 X107.641 Y112.358 E175.785
G1 X107.288 Y111.939 E175.799
G1 X107.028 Y111.514 E175.811
G1 X106.827 Y111.031 E175.825
G1 X106.705 Y110.522 E175.838
G1 X106.665 Y110 E175.851
G1 X106.705 Y109.478 E175.864
G1 X106.827 Y108.969 E175.877
G1 X107.028 Y108.486 E175.89
G1 X107.301 Y108.04 E175.903
G1 X107.642 Y107.641 E175.916
G1 X108.061 Y107.288 E175.93
G1 X108.486 Y107.028 E175.942
G1 X108.969 Y106.827 E175.955
G1 X109.478 Y106.705 E175.968
G1 X110 Y106.665 E175.981
G1 X110.522 Y106.705 E175.994
G1 F1800 E165.994
G1 F236
G0 X110 Y106.665
G0 X109.725 Y106.686
G0 X110 Y106.665
G0 X110.522 Y106.705
;Layer : 14 of 38
;rapid-dry
G1 F236
G0 Z2.9
G1 F1800 E175.994
;bead-support-structure
G1 X110 Y106.665 F484 E176.007
G1 X109.478 Y106.705 E176.02
G1 X108.969 Y106.827 E176.033
G1 X108.486 Y107.028 E176.046
G1 X108.061 Y107.288 E176.059
G1 X107.642 Y107.641 E176.073
G1 X107.301 Y108.04 E176.086
G1 X107.028 Y108.486 E176.099
G1 X106.827 Y108.969 E176.112
G1 X106.705 Y109.478 E176.125
G1 X106.665 Y110 E176.138
G1 X106.705 Y110.522 E176.151
G1 X106.827 Y111.031 E176.164
G1 X107.028 Y111.514 E176.177
G1 X107.288 Y111.939 E176.189
G1 X107.641 Y112.358 E176.203
G1 X108.04 Y112.699 E176.216
G1 X108.486 Y112.972 E176.229
G1 X108.969 Y113.173 E176.242
G1 X109.478 Y113.295 E176.255
G1 X110 Y113.335 E176.268
G1 X110.522 Y113.295 E176.282
G1 X111.031 Y113.173 E176.295
G1 X111.514 Y112.972 E176.308
G1 X111.939 Y112.712 E176.32
G1 X112.358 Y112.359 E176.334
G1 X112.699 Y111.96 E176.347
G1 X112.972 Y111.514 E176.36
G1 X113.173 Y111.031 E176.373
G1 X113.295 Y110.522 E176.386
G1 X113.335 Y110 E176.399
G1 X113.297 Y109.503 E176.411
G1 X113.173 Y108.97 E176.425
G1 X112.972 Y108.486 E176.438
G1 X112.699 Y108.04 E176.451
G1 X112.358 Y107.642 E176.464
G1 X111.96 Y107.301 E176.477
G1 X111.471 Y107.01 E176.492
G1 F1800 E166.492
G1 F236
G0 X111.96 Y107.301
G0 X112.136 Y107.451
G0 X111.96 Y107.301
G0 X111.471 Y107.01
;rapid-dry
G1 F236
G0 X110.609 Y108.945
G1 F1800 E176.492
;bead-perimeter_inner
G1 X110.707 Y109.016 F300 E176.496
G1 X110.815 Y109.095 E176.5
G1 X110.986 Y109.284 E176.508
G1 X111.113 Y109.505 E176.517
G1 X111.191 Y109.747 E176.525
G1 X111.218 Y110 E176.534
G1 X111.191 Y110.253 E176.542
G1 X111.113 Y110.495 E176.551
G1 X110.986 Y110.716 E176.559
G1 X110.815 Y110.905 E176.568
G1 X110.609 Y111.055 E176.576
G1 X110.377 Y111.159 E176.585
G1 X110.128 Y111.211 E176.593
G1 X109.872 E176.602
G1 X109.623 Y111.159 E176.61
G1 X109.391 Y111.055 E176.619
G1 X109.185 Y110.905 E176.627
G1 X109.014 Y110.716 E176.636
G1 X108.887 Y110.495 E176.644
G1 X108.809 Y110.253 E176.652
G1 X108.782 Y110 E176.661
G1 X108.809 Y109.747 E176.669
G1 X108.887 Y109.505 E176.678
G1 X109.014 Y109.284 E176.686
G1 X109.185 Y109.095 E176.695
G1 X109.391 Y108.945 E176.703
G1 X109.623 Y108.841 E176.712
G1 X109.872 Y108.789 E176.72
G1 X110.128 E176.729
G1 X110.377 Y108.841 E176.737
G1 X110.609 Y108.945 E176.746
;rapid-leaky
G1 F236
G0 X110.792 Y108.627
;bead-perimeter_outer
G1 X110.921 Y108.721 F300 E176.751
G1 X111.06 Y108.822 E176.757
G1 X111.282 Y109.068 E176.768
G1 X111.448 Y109.356 E176.779
G1 X111.55 Y109.671 E176.79
G1 X111.585 Y110 E176.801
G1 X111.55 Y110.329 E176.812
G1 X111.448 Y110.644 E176.823
G1 X111.282 Y110.932 E176.834
G1 X111.06 Y111.178 E176.845
G1 X110.792 Y111.373 E176.856
G1 X110.49 Y111.508 E176.867
G1 X110.166 Y111.576 E176.878
G1 X109.834 E176.889
G1 X109.51 Y111.508 E176.9
G1 X109.208 Y111.373 E176.911
G1 X108.94 Y111.178 E176.922
G1 X108.718 Y110.932 E176.933
G1 X108.552 Y110.644 E176.944
G1 X108.45 Y110.329 E176.955
G1 X108.415 Y110 E176.966
G1 X108.45 Y109.671 E176.977
G1 X108.552 Y109.356 E176.988
G1 X108.718 Y109.068 E176.999
G1 X108.94 Y108.822 E177.01
G1 X109.208 Y108.627 E177.021
G1 X109.51 Y108.492 E177.032
G1 X109.834 Y108.424 E177.043
G1 X110.166 E177.054
G1 X110.49 Y108.492 E177.065
G1 X110.792 Y108.627 E177.076
;rapid-leaky
G1 F236
G0 X110.259 Y109.144
;bead-sparse_infill
G1 X110.852 Y109.737 F415 E177.104
G1 F1800 E167.104
;Layer : 15 of 38
;rapid-leaky
G1 F236
G0 X111.191 Y109.747 Z3.1
G1 F1800 E177.104
;bead-perimeter_inner
G1 X111.218 Y110 F300 E177.113
G1 X111.191 Y110.253 E177.121
G1 X111.113 Y110.495 E177.13
G1 X110.986 Y110.716 E177.138
G1 X110.815 Y110.905 E177.146
G1 X110.609 Y111.055 E177.155
G1 X110.377 Y111.159 E177.163
G1 X110.128 Y111.211 E177.172
G1 X109.872 E177.18
G1 X109.623 Y111.159 E177.189
G1 X109.391 Y111.055 E177.197
G1 X109.185 Y110.905 E177.206
G1 X109.014 Y110.716 E177.214
G1 X108.887 Y110.495 E177.223
G1 X108.809 Y110.253 E177.231
G1 X108.782 Y110 E177.24
G1 X108.809 Y109.747 E177.248
G1 X108.887 Y109.505 E177.257
G1 X109.014 Y109.284 E177.265
G1 X109.185 Y109.095 E177.273
G1 X109.391 Y108.945 E177.282
G1 X109.623 Y108.841 E177.29
G1 X109.872 Y108.789 E177.299
G1 X110.128 E177.307
G1 X110.377 Y108.841 E177.316
G1 X110.609 Y108.945 E177.324
G1 X110.815 Y109.095 E177.333
G1 X110.986 Y109.284 E177.341
G1 X111.113 Y109.505 E177.35
G1 X111.191 Y109.747 E177.358
;rapid-leaky
G1 F236
G0 X110.259 Y110.856
;bead-sparse_infill
G1 X110.852 Y110.263 F415 E177.386
;rapid-leaky
G1 F236
G0 X111.55 Y109.671
;bead-perimeter_outer
G1 X111.585 Y110 F300 E177.397
G1 X111.55 Y110.329 E177.408
G1 X111.448 Y110.644 E177.419
G1 X111.282 Y110.932 E177.43
G1 X111.06 Y111.178 E177.441
G1 X110.792 Y111.373 E177.452
G1 X110.49 Y111.508 E177.463
G1 X110.166 Y111.576 E177.474
G1 X109.834 E177.485
G1 X109.51 Y111.508 E177.496
G1 X109.208 Y111.373 E177.507
G1 X108.94 Y111.178 E177.518
G1 X108.718 Y110.932 E177.529
G1 X108.552 Y110.644 E177.54
G1 X108.45 Y110.329 E177.551
G1 X108.415 Y110 E177.562
G1 X108.45 Y109.671 E177.573
G1 X108.552 Y109.356 E177.584
G1 X108.718 Y109.068 E177.595
G1 X108.94 Y108.822 E177.606
G1 X109.208 Y108.627 E177.618
G1 X109.51 Y108.492 E177.629
G1 X109.834 Y108.424 E177.64
G1 X110.166 E177.651
G1 X110.49 Y108.492 E177.662
G1 X110.792 Y108.627 E177.673
G1 X111.06 Y108.822 E177.684
G1 X111.282 Y109.068 E177.695
G1 X111.448 Y109.356 E177.706
G1 X111.55 Y109.671 E177.717
G1 F1800 E167.717
;rapid-dry
G1 F236
G0 X111.471 Y107.01
G1 F1800 E177.717
;bead-support-structure
G1 X111.96 Y107.301 F484 E177.731
G1 X112.358 Y107.642 E177.744
G1 X112.699 Y108.04 E177.757
G1 X112.972 Y108.486 E177.77
G1 X113.173 Y108.97 E177.783
G1 X113.297 Y109.503 E177.797
G1 X113.335 Y110 E177.809
G1 X113.295 Y110.522 E177.822
G1 X113.173 Y111.031 E177.835
G1 X112.972 Y111.514 E177.848
G1 X112.699 Y111.96 E177.861
G1 X112.358 Y112.359 E177.875
G1 X111.939 Y112.712 E177.888
G1 X111.514 Y112.972 E177.901
G1 X111.031 Y113.173 E177.914
G1 X110.522 Y113.295 E177.927
G1 X110 Y113.335 E177.94
G1 X109.478 Y113.295 E177.953
G1 X108.969 Y113.173 E177.966
G1 X108.486 Y112.972 E177.979
G1 X108.04 Y112.699 E177.992
G1 X107.641 Y112.358 E178.005
G1 X107.288 Y111.939 E178.019
G1 X107.028 Y111.514 E178.031
G1 X106.827 Y111.031 E178.044
G1 X106.705 Y110.522 E178.057
G1 X106.665 Y110 E178.07
G1 X106.705 Y109.478 E178.083
G1 X106.827 Y108.969 E178.096
G1 X107.028 Y108.486 E178.11
G1 X107.301 Y108.04 E178.123
G1 X107.642 Y107.641 E178.136
G1 X108.061 Y107.288 E178.149
G1 X108.486 Y107.028 E178.162
G1 X108.969 Y106.827 E178.175
G1 X109.478 Y106.705 E178.188
G1 X110 Y106.665 E178.201
G1 X110.522 Y106.705 E178.214
G1 F1800 E168.214
G1 F236
G0 X110 Y106.665
G0 X109.725 Y106.686
G0 X110 Y106.665
G0 X110.522 Y106.705
;Layer : 16 of 38
;rapid-dry
G1 F236
G0 Z3.3
G1 F1800 E178.214
;bead-support-structure
G1 X110 Y106.665 F484 E178.227
G1 X109.478 Y106.705 E178.24
G1 X108.969 Y106.827 E178.253
G1 X108.486 Y107.028 E178.266
G1 X108.061 Y107.288 E178.279
G1 X107.642 Y107.641 E178.292
G1 X107.301 Y108.04 E178.305
G1 X107.028 Y108.486 E178.318
G1 X106.827 Y108.969 E178.332
G1 X106.705 Y109.478 E178.345
G1 X106.665 Y110 E178.358
G1 X106.705 Y110.522 E178.371
G1 X106.827 Y111.031 E178.384
G1 X107.028 Y111.514 E178.397
G1 X107.288 Y111.939 E178.409
G1 X107.641 Y112.358 E178.423
G1 X108.04 Y112.699 E178.436
G1 X108.486 Y112.972 E178.449
G1 X108.969 Y113.173 E178.462
G1 X109.478 Y113.295 E178.475
G1 X110 Y113.335 E178.488
G1 X110.522 Y113.295 E178.501
G1 X111.031 Y113.173 E178.514
G1 X111.514 Y112.972 E178.527
G1 X111.939 Y112.712 E178.54
G1 X112.358 Y112.359 E178.553
G1 X112.699 Y111.96 E178.567
G1 X112.972 Y111.514 E178.58
G1 X113.173 Y111.031 E178.593
G1 X113.295 Y110.522 E178.606
G1 X113.335 Y110 E178.619
G1 X113.297 Y109.503 E178.631
G1 X113.173 Y108.97 E178.645
G1 X112.972 Y108.486 E178.658
G1 X112.699 Y108.04 E178.671
G1 X112.358 Y107.642 E178.684
G1 X111.96 Y107.301 E178.697
G1 X111.471 Y107.01 E178.711
G1 F1800 E168.711
G1 F236
G0 X111.96 Y107.301
G0 X112.136 Y107.451
G0 X111.96 Y107.301
G0 X111.471 Y107.01
;rapid-dry
G1 F236
G0 X110.609 Y108.945
G1 F1800 E178.711
;bead-perimeter_inner
G1 X110.815 Y109.095 F300 E178.72
G1 X110.986 Y109.284 E178.728
G1 X111.113 Y109.505 E178.737
G1 X111.191 Y109.747 E178.745
G1 X111.218 Y110 E178.754
G1 X111.191 Y110.253 E178.762
G1 X111.113 Y110.495 E178.771
G1 X110.986 Y110.716 E178.779
G1 X110.815 Y110.905 E178.788
G1 X110.609 Y111.055 E178.796
G1 X110.377 Y111.159 E178.804
G1 X110.128 Y111.211 E178.813
G1 X109.872 E178.821
G1 X109.623 Y111.159 E178.83
G1 X109.391 Y111.055 E178.838
G1 X109.185 Y110.905 E178.847
G1 X109.014 Y110.716 E178.855
G1 X108.887 Y110.495 E178.864
G1 X108.809 Y110.253 E178.872
G1 X108.782 Y110 E178.881
G1 X108.809 Y109.747 E178.889
G1 X108.887 Y109.505 E178.898
G1 X109.014 Y109.284 E178.906
G1 X109.185 Y109.095 E178.915
G1 X109.391 Y108.945 E178.923
G1 X109.623 Y108.841 E178.931
G1 X109.872 Y108.789 E178.94
G1 X110.128 E178.948
G1 X110.377 Y108.841 E178.957
G1 X110.609 Y108.945 E178.965
;rapid-leaky
G1 F236
G0 X110.792 Y108.627
;bead-perimeter_outer
G1 X111.06 Y108.822 F300 E178.976
G1 X111.282 Y109.068 E178.987
G1 X111.448 Y109.356 E178.998
G1 X111.55 Y109.671 E179.009
G1 X111.585 Y110 E179.02
G1 X111.55 Y110.329 E179.031
G1 X111.448 Y110.644 E179.042
G1 X111.282 Y110.932 E179.054
G1 X111.06 Y111.178 E179.065
G1 X110.792 Y111.373 E179.076
G1 X110.49 Y111.508 E179.087
G1 X110.166 Y111.576 E179.098
G1 X109.834 E179.109
G1 X109.51 Y111.508 E179.12
G1 X109.208 Y111.373 E179.131
G1 X108.94 Y111.178 E179.142
G1 X108.718 Y110.932 E179.153
G1 X108.552 Y110.644 E179.164
G1 X108.45 Y110.329 E179.175
G1 X108.415 Y110 E179.186
G1 X108.45 Y109.671 E179.197
G1 X108.552 Y109.356 E179.208
G1 X108.718 Y109.068 E179.219
G1 X108.94 Y108.822 E179.23
G1 X109.208 Y108.627 E179.241
G1 X109.51 Y108.492 E179.252
G1 X109.834 Y108.424 E179.263
G1 X110.166 E179.274
G1 X110.49 Y108.492 E179.285
G1 X110.792 Y108.627 E179.296
;rapid-leaky
G1 F236
G0 X110.259 Y109.144
;bead-sparse_infill
G1 X110.852 Y109.737 F415 E179.324
G1 F1800 E169.324
;Layer : 17 of 38
;rapid-leaky
G1 F236
G0 X111.191 Y109.747 Z3.5
G1 F1800 E179.324
;bead-perimeter_inner
G1 X111.218 Y110 F300 E179.332
G1 X111.191 Y110.253 E179.341
G1 X111.113 Y110.495 E179.349
G1 X110.986 Y110.716 E179.358
G1 X110.815 Y110.905 E179.366
G1 X110.609 Y111.055 E179.375
G1 X110.377 Y111.159 E179.383
G1 X110.128 Y111.211 E179.392
G1 X109.872 E179.4
G1 X109.623 Y111.159 E179.409
G1 X109.391 Y111.055 E179.417
G1 X109.185 Y110.905 E179.425
G1 X109.014 Y110.716 E179.434
G1 X108.887 Y110.495 E179.442
G1 X108.809 Y110.253 E179.451
G1 X108.782 Y110 E179.459
G1 X108.809 Y109.747 E179.468
G1 X108.887 Y109.505 E179.476
G1 X109.014 Y109.284 E179.485
G1 X109.185 Y109.095 E179.493
G1 X109.391 Y108.945 E179.502
G1 X109.623 Y108.841 E179.51
G1 X109.872 Y108.789 E179.519
G1 X110.128 E179.527
G1 X110.377 Y108.841 E179.536
G1 X110.609 Y108.945 E179.544
G1 X110.815 Y109.095 E179.553
G1 X110.986 Y109.284 E179.561
G1 X111.113 Y109.505 E179.569
G1 X111.191 Y109.747 E179.578
;rapid-leaky
G1 F236
G0 X110.259 Y110.856
;bead-sparse_infill
G1 X110.852 Y110.263 F415 E179.606
;rapid-leaky
G1 F236
G0 X111.55 Y109.671
;bead-perimeter_outer
G1 X111.585 Y110 F300 E179.617
G1 X111.55 Y110.329 E179.628
G1 X111.48 Y110.547 E179.635
G1 X111.448 Y110.644 E179.639
G1 X111.282 Y110.932 E179.65
G1 X111.06 Y111.178 E179.661
G1 X110.792 Y111.373 E179.672
G1 X110.49 Y111.508 E179.683
G1 X110.166 Y111.576 E179.694
G1 X109.834 E179.705
G1 X109.51 Y111.508 E179.716
G1 X109.208 Y111.373 E179.727
G1 X108.94 Y111.178 E179.738
G1 X108.718 Y110.932 E179.749
G1 X108.552 Y110.644 E179.76
G1 X108.45 Y110.329 E179.771
G1 X108.415 Y110 E179.782
G1 X108.45 Y109.671 E179.793
G1 X108.552 Y109.356 E179.804
G1 X108.718 Y109.068 E179.815
G1 X108.94 Y108.822 E179.826
G1 X109.208 Y108.627 E179.837
G1 X109.51 Y108.492 E179.848
G1 X109.834 Y108.424 E179.859
G1 X110.166 E179.87
G1 X110.49 Y108.492 E179.881
G1 X110.792 Y108.627 E179.892
G1 X111.06 Y108.822 E179.903
G1 X111.282 Y109.068 E179.914
G1 X111.448 Y109.356 E179.925
G1 X111.55 Y109.671 E179.936
G1 F1800 E169.936
;rapid-dry
G1 F236
G0 X111.471 Y107.01
G1 F1800 E179.936
;bead-support-structure
G1 X111.96 Y107.301 F484 E179.951
G1 X112.358 Y107.642 E179.964
G1 X112.699 Y108.04 E179.977
G1 X112.972 Y108.486 E179.99
G1 X113.173 Y108.97 E180.003
G1 X113.297 Y109.503 E180.017
G1 X113.335 Y110 E180.029
G1 X113.295 Y110.522 E180.042
G1 X113.173 Y111.031 E180.055
G1 X112.972 Y111.514 E180.068
G1 X112.699 Y111.96 E180.081
G1 X112.358 Y112.359 E180.094
G1 X111.939 Y112.712 E180.108
G1 X111.514 Y112.972 E180.12
G1 X111.031 Y113.173 E180.133
G1 X110.522 Y113.295 E180.146
G1 X110 Y113.335 E180.16
G1 X109.478 Y113.295 E180.173
G1 X108.969 Y113.173 E180.186
G1 X108.486 Y112.972 E180.199
G1 X108.04 Y112.699 E180.212
G1 X107.641 Y112.358 E180.225
G1 X107.288 Y111.939 E180.239
G1 X107.028 Y111.514 E180.251
G1 X106.827 Y111.031 E180.264
G1 X106.705 Y110.522 E180.277
G1 X106.665 Y110 E180.29
G1 X106.705 Y109.478 E180.303
G1 X106.827 Y108.969 E180.316
G1 X107.028 Y108.486 E180.329
G1 X107.301 Y108.04 E180.342
G1 X107.642 Y107.641 E180.355
G1 X108.061 Y107.288 E180.369
G1 X108.486 Y107.028 E180.382
G1 X108.969 Y106.827 E180.395
G1 X109.478 Y106.705 E180.408
G1 X110 Y106.665 E180.421
G1 X110.522 Y106.705 E180.434
G1 F1800 E170.434
G1 F236
G0 X110 Y106.665
G0 X109.725 Y106.686
G0 X110 Y106.665
G0 X110.522 Y106.705
;Layer : 18 of 38
;rapid-dry
G1 F236
G0 Z3.7
G1 F1800 E180.434
;bead-support-structure
G1 X110 Y106.665 F484 E180.447
G1 X109.478 Y106.705 E180.46
G1 X108.969 Y106.827 E180.473
G1 X108.486 Y107.028 E180.486
G1 X108.061 Y107.288 E180.498
G1 X107.642 Y107.641 E180.512
G1 X107.301 Y108.04 E180.525
G1 X107.028 Y108.486 E180.538
G1 X106.827 Y108.969 E180.551
G1 X106.705 Y109.478 E180.564
G1 X106.665 Y110 E180.577
G1 X106.705 Y110.522 E180.59
G1 X106.827 Y111.031 E180.603
G1 X107.028 Y111.514 E180.617
G1 X107.288 Y111.939 E180.629
G1 X107.641 Y112.358 E180.643
G1 X108.04 Y112.699 E180.656
G1 X108.486 Y112.972 E180.669
G1 X108.969 Y113.173 E180.682
G1 X109.478 Y113.295 E180.695
G1 X110 Y113.335 E180.708
G1 X110.522 Y113.295 E180.721
G1 X111.031 Y113.173 E180.734
G1 X111.514 Y112.972 E180.747
G1 X111.939 Y112.712 E180.759
G1 X112.358 Y112.359 E180.773
G1 X112.699 Y111.96 E180.786
G1 X112.972 Y111.514 E180.799
G1 X113.173 Y111.031 E180.812
G1 X113.295 Y110.522 E180.825
G1 X113.335 Y110 E180.838
G1 X113.297 Y109.503 E180.851
G1 X113.173 Y108.97 E180.865
G1 X112.972 Y108.486 E180.878
G1 X112.699 Y108.04 E180.891
G1 X112.358 Y107.642 E180.904
G1 X111.96 Y107.301 E180.917
G1 X111.471 Y107.01 E180.931
G1 F1800 E170.931
G1 F236
G0 X111.96 Y107.301
G0 X112.136 Y107.451
G0 X111.96 Y107.301
G0 X111.471 Y107.01
;rapid-dry
G1 F236
G0 X110.609 Y108.945
G1 F1800 E180.931
;bead-perimeter_inner
G1 X110.815 Y109.095 F300 E180.939
G1 X110.986 Y109.284 E180.948
G1 X111.113 Y109.505 E180.956
G1 X111.191 Y109.747 E180.965
G1 X111.218 Y110 E180.973
G1 X111.191 Y110.254 E180.982
G1 X111.114 Y110.494 E180.99
G1 X110.986 Y110.716 E180.999
G1 X110.815 Y110.905 E181.007
G1 X110.609 Y111.055 E181.016
G1 X110.377 Y111.159 E181.024
G1 X110.128 Y111.211 E181.033
G1 X109.872 E181.041
G1 X109.623 Y111.159 E181.05
G1 X109.391 Y111.055 E181.058
G1 X109.185 Y110.905 E181.067
G1 X109.014 Y110.716 E181.075
G1 X108.887 Y110.495 E181.083
G1 X108.809 Y110.253 E181.092
G1 X108.782 Y110.001 E181.1
G1 X108.809 Y109.747 E181.109
G1 X108.887 Y109.505 E181.117
G1 X109.014 Y109.284 E181.126
G1 X109.185 Y109.095 E181.134
G1 X109.391 Y108.945 E181.143
G1 X109.623 Y108.841 E181.151
G1 X109.872 Y108.789 E181.16
G1 X110.128 E181.168
G1 X110.377 Y108.841 E181.177
G1 X110.609 Y108.945 E181.185
;rapid-leaky
G1 F236
G0 X110.792 Y108.627
;bead-perimeter_outer
G1 X111.06 Y108.822 F300 E181.196
G1 X111.282 Y109.068 E181.207
G1 X111.448 Y109.356 E181.218
G1 X111.55 Y109.671 E181.229
G1 X111.585 Y110 E181.24
G1 X111.55 Y110.329 E181.251
G1 X111.473 Y110.57 E181.26
G1 X111.449 Y110.644 E181.262
G1 X111.282 Y110.932 E181.273
G1 X111.06 Y111.178 E181.284
G1 X110.792 Y111.373 E181.295
G1 X110.49 Y111.508 E181.306
G1 X110.166 Y111.576 E181.317
G1 X109.834 E181.328
G1 X109.51 Y111.508 E181.339
G1 X109.208 Y111.373 E181.35
G1 X108.94 Y111.178 E181.361
G1 X108.718 Y110.932 E181.372
G1 X108.552 Y110.644 E181.383
G1 X108.45 Y110.329 E181.394
G1 X108.415 Y110 E181.405
G1 X108.45 Y109.671 E181.417
G1 X108.552 Y109.356 E181.428
G1 X108.718 Y109.068 E181.439
G1 X108.94 Y108.822 E181.45
G1 X109.208 Y108.627 E181.461
G1 X109.51 Y108.492 E181.472
G1 X109.834 Y108.424 E181.483
G1 X110.166 E181.494
G1 X110.49 Y108.492 E181.505
G1 X110.792 Y108.627 E181.516
;rapid-leaky
G1 F236
G0 X110.259 Y109.144
;bead-sparse_infill
G1 X110.852 Y109.737 F415 E181.544
G1 F1800 E171.544
;Layer : 19 of 38
;rapid-leaky
G1 F236
G0 X111.191 Y109.747 Z3.9
G1 F1800 E181.544
;bead-perimeter_inner
G1 X111.218 Y110 F300 E181.552
G1 X111.191 Y110.253 E181.561
G1 X111.113 Y110.495 E181.569
G1 X110.986 Y110.716 E181.577
G1 X110.815 Y110.905 E181.586
G1 X110.609 Y111.055 E181.594
G1 X110.377 Y111.159 E181.603
G1 X110.128 Y111.211 E181.611
G1 X109.872 E181.62
G1 X109.623 Y111.159 E181.628
G1 X109.391 Y111.055 E181.637
G1 X109.185 Y110.905 E181.645
G1 X109.014 Y110.716 E181.654
G1 X108.887 Y110.495 E181.662
G1 X108.809 Y110.253 E181.671
G1 X108.782 Y110 E181.679
G1 X108.809 Y109.747 E181.688
G1 X108.887 Y109.505 E181.696
G1 X109.014 Y109.284 E181.704
G1 X109.185 Y109.095 E181.713
G1 X109.391 Y108.945 E181.721
G1 X109.623 Y108.841 E181.73
G1 X109.872 Y108.789 E181.738
G1 X110.128 E181.747
G1 X110.377 Y108.841 E181.755
G1 X110.609 Y108.945 E181.764
G1 X110.815 Y109.095 E181.772
G1 X110.986 Y109.284 E181.781
G1 X111.113 Y109.505 E181.789
G1 X111.191 Y109.747 E181.798
;rapid-leaky
G1 F236
G0 X110.259 Y110.856
;bead-sparse_infill
G1 X110.852 Y110.263 F415 E181.826
;rapid-leaky
G1 F236
G0 X111.55 Y109.671
;bead-perimeter_outer
G1 X111.585 Y110 F300 E181.837
G1 X111.55 Y110.329 E181.848
G1 X111.448 Y110.644 E181.859
G1 X111.282 Y110.932 E181.87
G1 X111.06 Y111.178 E181.881
G1 X110.792 Y111.373 E181.892
G1 X110.49 Y111.508 E181.903
G1 X110.166 Y111.576 E181.914
G1 X109.834 E181.925
G1 X109.51 Y111.508 E181.936
G1 X109.208 Y111.373 E181.947
G1 X108.94 Y111.178 E181.958
G1 X108.718 Y110.932 E181.969
G1 X108.552 Y110.644 E181.98
G1 X108.45 Y110.329 E181.991
G1 X108.415 Y110 E182.002
G1 X108.45 Y109.671 E182.013
G1 X108.552 Y109.356 E182.024
G1 X108.718 Y109.068 E182.035
G1 X108.94 Y108.822 E182.046
G1 X109.208 Y108.627 E182.057
G1 X109.51 Y108.492 E182.068
G1 X109.834 Y108.424 E182.079
G1 X110.166 E182.09
G1 X110.49 Y108.492 E182.101
G1 X110.792 Y108.627 E182.112
G1 X111.06 Y108.822 E182.123
G1 X111.282 Y109.068 E182.134
G1 X111.448 Y109.356 E182.145
G1 X111.55 Y109.671 E182.156
G1 F1800 E172.156
;rapid-dry
G1 F236
G0 X111.471 Y107.01
G1 F1800 E182.156
;bead-support-structure
G1 X111.96 Y107.301 F484 E182.17
G1 X112.358 Y107.642 E182.183
G1 X112.699 Y108.04 E182.197
G1 X112.972 Y108.486 E182.21
G1 X113.173 Y108.97 E182.223
G1 X113.297 Y109.503 E182.236
G1 X113.335 Y110 E182.249
G1 X113.295 Y110.522 E182.262
G1 X113.173 Y111.031 E182.275
G1 X112.972 Y111.514 E182.288
G1 X112.699 Y111.96 E182.301
G1 X112.358 Y112.359 E182.314
G1 X111.939 Y112.712 E182.328
G1 X111.514 Y112.972 E182.34
G1 X111.031 Y113.173 E182.353
G1 X110.522 Y113.295 E182.366
G1 X110 Y113.335 E182.379
G1 X109.478 Y113.295 E182.392
G1 X108.969 Y113.173 E182.405
G1 X108.486 Y112.972 E182.418
G1 X108.04 Y112.699 E182.431
G1 X107.641 Y112.358 E182.445
G1 X107.288 Y111.939 E182.458
G1 X107.028 Y111.514 E182.471
G1 X106.827 Y111.031 E182.484
G1 X106.705 Y110.522 E182.497
G1 X106.665 Y110 E182.51
G1 X106.705 Y109.478 E182.523
G1 X106.827 Y108.969 E182.536
G1 X107.028 Y108.486 E182.549
G1 X107.301 Y108.04 E182.562
G1 X107.642 Y107.641 E182.575
G1 X108.061 Y107.288 E182.589
G1 X108.486 Y107.028 E182.601
G1 X108.969 Y106.827 E182.614
G1 X109.478 Y106.705 E182.627
G1 X110 Y106.665 E182.64
G1 X110.522 Y106.705 E182.653
G1 F1800 E172.653
G1 F236
G0 X110 Y106.665
G0 X109.725 Y106.686
G0 X110 Y106.665
G0 X110.522 Y106.705
;Layer : 20 of 38
;rapid-dry
G1 F236
G0 Z4.1
G1 F1800 E182.653
;bead-support-structure
G1 X110 Y106.665 F484 E182.667
G1 X109.478 Y106.705 E182.68
G1 X108.969 Y106.827 E182.693
G1 X108.486 Y107.028 E182.706
G1 X108.061 Y107.288 E182.718
G1 X107.642 Y107.641 E182.732
G1 X107.301 Y108.04 E182.745
G1 X107.028 Y108.486 E182.758
G1 X106.827 Y108.969 E182.771
G1 X106.705 Y109.478 E182.784
G1 X106.665 Y110 E182.797
G1 X106.705 Y110.522 E182.81
G1 X106.827 Y111.031 E182.823
G1 X107.028 Y111.514 E182.836
G1 X107.288 Y111.939 E182.849
G1 X107.641 Y112.358 E182.862
G1 X108.04 Y112.699 E182.875
G1 X108.486 Y112.972 E182.888
G1 X108.969 Y113.173 E182.902
G1 X109.478 Y113.295 E182.915
G1 X110 Y113.335 E182.928
G1 X110.522 Y113.295 E182.941
G1 X111.031 Y113.173 E182.954
G1 X111.514 Y112.972 E182.967
G1 X111.939 Y112.712 E182.979
G1 X112.358 Y112.359 E182.993
G1 X112.699 Y111.96 E183.006
G1 X112.972 Y111.514 E183.019
G1 X113.173 Y111.031 E183.032
G1 X113.295 Y110.522 E183.045
G1 X113.335 Y110 E183.058
G1 X113.297 Y109.503 E183.071
G1 X113.173 Y108.97 E183.084
G1 X112.972 Y108.486 E183.097
G1 X112.699 Y108.04 E183.11
G1 X112.358 Y107.642 E183.123
G1 X111.96 Y107.301 E183.137
G1 X111.471 Y107.01 E183.151
G1 F1800 E173.151
G1 F236
G0 X111.96 Y107.301
G0 X112.136 Y107.451
G0 X111.96 Y107.301
G0 X111.471 Y107.01
;rapid-dry
G1 F236
G0 X110.609 Y108.945
G1 F1800 E183.151
;bead-perimeter_inner
G1 X110.815 Y109.095 F300 E183.159
G1 X110.986 Y109.284 E183.168
G1 X111.113 Y109.505 E183.176
G1 X111.191 Y109.747 E183.185
G1 X111.218 Y110 E183.193
G1 X111.191 Y110.253 E183.202
G1 X111.113 Y110.495 E183.21
G1 X110.986 Y110.716 E183.219
G1 X110.815 Y110.905 E183.227
G1 X110.609 Y111.055 E183.235
G1 X110.377 Y111.159 E183.244
G1 X110.128 Y111.211 E183.252
G1 X109.872 E183.261
G1 X109.623 Y111.159 E183.269
G1 X109.391 Y111.055 E183.278
G1 X109.185 Y110.905 E183.286
G1 X109.014 Y110.716 E183.295
G1 X108.887 Y110.495 E183.303
G1 X108.809 Y110.253 E183.312
G1 X108.782 Y110.002 E183.32
G1 X108.809 Y109.747 E183.329
G1 X108.887 Y109.505 E183.337
G1 X109.014 Y109.284 E183.346
G1 X109.185 Y109.095 E183.354
G1 X109.391 Y108.945 E183.363
G1 X109.623 Y108.841 E183.371
G1 X109.872 Y108.789 E183.379
G1 X110.128 E183.388
G1 X110.377 Y108.841 E183.396
G1 X110.609 Y108.945 E183.405
;rapid-leaky
G1 F236
G0 X110.792 Y108.627
;bead-perimeter_outer
G1 X111.06 Y108.822 F300 E183.416
G1 X111.282 Y109.068 E183.427
G1 X111.448 Y109.356 E183.438
G1 X111.55 Y109.671 E183.449
G1 X111.585 Y110 E183.46
G1 X111.55 Y110.329 E183.471
G1 X111.448 Y110.644 E183.482
G1 X111.282 Y110.932 E183.493
G1 X111.06 Y111.178 E183.504
G1 X110.792 Y111.373 E183.515
G1 X110.49 Y111.508 E183.526
G1 X110.166 Y111.576 E183.537
G1 X109.834 E183.548
G1 X109.51 Y111.508 E183.559
G1 X109.208 Y111.373 E183.57
G1 X108.94 Y111.178 E183.581
G1 X108.718 Y110.932 E183.592
G1 X108.552 Y110.644 E183.603
G1 X108.45 Y110.329 E183.614
G1 X108.415 Y110.001 E183.625
G1 X108.45 Y109.671 E183.636
G1 X108.552 Y109.356 E183.647
G1 X108.718 Y109.068 E183.658
G1 X108.94 Y108.822 E183.669
G1 X109.208 Y108.627 E183.68
G1 X109.51 Y108.492 E183.691
G1 X109.834 Y108.424 E183.702
G1 X110.166 E183.713
G1 X110.49 Y108.492 E183.724
G1 X110.792 Y108.627 E183.735
;rapid-leaky
G1 F236
G0 X110.259 Y109.144
;bead-sparse_infill
G1 X110.852 Y109.737 F415 E183.763
G1 F1800 E173.763
;Layer : 21 of 38
;rapid-leaky
G1 F236
G0 X111.191 Y109.747 Z4.3
G1 F1800 E183.763
;bead-perimeter_inner
G1 X111.218 Y110 F300 E183.772
G1 X111.191 Y110.253 E183.78
G1 X111.113 Y110.494 E183.789
G1 X110.986 Y110.716 E183.797
G1 X110.815 Y110.905 E183.806
G1 X110.609 Y111.055 E183.814
G1 X110.377 Y111.159 E183.823
G1 X110.128 Y111.211 E183.831
G1 X109.872 E183.84
G1 X109.623 Y111.159 E183.848
G1 X109.391 Y111.055 E183.856
G1 X109.185 Y110.905 E183.865
G1 X109.014 Y110.716 E183.873
G1 X108.887 Y110.495 E183.882
G1 X108.809 Y110.253 E183.89
G1 X108.782 Y110 E183.899
G1 X108.809 Y109.747 E183.907
G1 X108.887 Y109.505 E183.916
G1 X109.014 Y109.284 E183.924
G1 X109.185 Y109.095 E183.933
G1 X109.391 Y108.945 E183.941
G1 X109.623 Y108.841 E183.95
G1 X109.872 Y108.789 E183.958
G1 X110.128 E183.967
G1 X110.377 Y108.841 E183.975
G1 X110.609 Y108.945 E183.983
G1 X110.815 Y109.095 E183.992
G1 X110.986 Y109.284 E184
G1 X111.113 Y109.505 E184.009
G1 X111.191 Y109.747 E184.017
;rapid-leaky
G1 F236
G0 X110.259 Y110.856
;bead-sparse_infill
G1 X110.852 Y110.263 F415 E184.045
;rapid-leaky
G1 F236
G0 X111.55 Y109.671
;bead-perimeter_outer
G1 X111.585 Y110 F300 E184.056
G1 X111.55 Y110.329 E184.067
G1 X111.451 Y110.637 E184.078
G1 X111.282 Y110.932 E184.089
G1 X111.06 Y111.178 E184.1
G1 X110.792 Y111.373 E184.111
G1 X110.49 Y111.508 E184.122
G1 X110.166 Y111.576 E184.133
G1 X109.834 E184.144
G1 X109.51 Y111.508 E184.155
G1 X109.208 Y111.373 E184.167
G1 X108.94 Y111.178 E184.178
G1 X108.718 Y110.932 E184.189
G1 X108.552 Y110.644 E184.2
G1 X108.45 Y110.329 E184.211
G1 X108.415 Y110 E184.222
G1 X108.45 Y109.671 E184.233
G1 X108.552 Y109.356 E184.244
G1 X108.718 Y109.068 E184.255
G1 X108.94 Y108.822 E184.266
G1 X109.208 Y108.627 E184.277
G1 X109.51 Y108.492 E184.288
G1 X109.834 Y108.424 E184.299
G1 X110.166 E184.31
G1 X110.49 Y108.492 E184.321
G1 X110.792 Y108.627 E184.332
G1 X111.06 Y108.822 E184.343
G1 X111.282 Y109.068 E184.354
G1 X111.448 Y109.356 E184.365
G1 X111.55 Y109.671 E184.376
G1 F1800 E174.376
;rapid-dry
G1 F236
G0 X111.471 Y107.01
G1 F1800 E184.376
;bead-support-structure
G1 X111.96 Y107.301 F484 E184.39
G1 X112.358 Y107.642 E184.403
G1 X112.699 Y108.04 E184.416
G1 X112.972 Y108.486 E184.429
G1 X113.173 Y108.97 E184.442
G1 X113.297 Y109.503 E184.456
G1 X113.335 Y110 E184.468
G1 X113.295 Y110.522 E184.482
G1 X113.173 Y111.031 E184.495
G1 X112.972 Y111.514 E184.508
G1 X112.699 Y111.96 E184.521
G1 X112.358 Y112.359 E184.534
G1 X111.939 Y112.712 E184.547
G1 X111.514 Y112.972 E184.56
G1 X111.031 Y113.173 E184.573
G1 X110.522 Y113.295 E184.586
G1 X110 Y113.335 E184.599
G1 X109.478 Y113.295 E184.612
G1 X108.969 Y113.173 E184.625
G1 X108.486 Y112.972 E184.638
G1 X108.04 Y112.699 E184.651
G1 X107.641 Y112.358 E184.664
G1 X107.288 Y111.939 E184.678
G1 X107.028 Y111.514 E184.69
G1 X106.827 Y111.031 E184.703
G1 X106.705 Y110.522 E184.717
G1 X106.665 Y110 E184.73
G1 X106.705 Y109.478 E184.743
G1 X106.827 Y108.969 E184.756
G1 X107.028 Y108.486 E184.769
G1 X107.301 Y108.04 E184.782
G1 X107.642 Y107.641 E184.795
G1 X108.061 Y107.288 E184.809
G1 X108.486 Y107.028 E184.821
G1 X108.969 Y106.827 E184.834
G1 X109.478 Y106.705 E184.847
G1 X110 Y106.665 E184.86
G1 X110.522 Y106.705 E184.873
G1 F1800 E174.873
G1 F236
G0 X110 Y106.665
G0 X109.725 Y106.686
G0 X110 Y106.665
G0 X110.522 Y106.705
;Layer : 22 of 38
;rapid-dry
G1 F236
G0 Z4.5
G1 F1800 E184.873
;bead-support-structure
G1 X110 Y106.665 F484 E184.886
G1 X109.478 Y106.705 E184.899
G1 X108.969 Y106.827 E184.912
G1 X108.486 Y107.028 E184.925
G1 X108.061 Y107.288 E184.938
G1 X107.642 Y107.641 E184.952
G1 X107.301 Y108.04 E184.965
G1 X107.028 Y108.486 E184.978
G1 X106.827 Y108.969 E184.991
G1 X106.705 Y109.478 E185.004
G1 X106.665 Y110 E185.017
G1 X106.705 Y110.522 E185.03
G1 X106.827 Y111.031 E185.043
G1 X107.028 Y111.514 E185.056
G1 X107.288 Y111.939 E185.068
G1 X107.641 Y112.358 E185.082
G1 X108.04 Y112.699 E185.095
G1 X108.486 Y112.972 E185.108
G1 X108.969 Y113.173 E185.121
G1 X109.478 Y113.295 E185.134
G1 X110 Y113.335 E185.147
G1 X110.522 Y113.295 E185.16
G1 X111.031 Y113.173 E185.173
G1 X111.514 Y112.972 E185.187
G1 X111.939 Y112.712 E185.199
G1 X112.358 Y112.359 E185.213
G1 X112.699 Y111.96 E185.226
G1 X112.972 Y111.514 E185.239
G1 X113.173 Y111.031 E185.252
G1 X113.295 Y110.522 E185.265
G1 X113.335 Y110 E185.278
G1 X113.297 Y109.503 E185.29
G1 X113.173 Y108.97 E185.304
G1 X112.972 Y108.486 E185.317
G1 X112.699 Y108.04 E185.33
G1 X112.358 Y107.642 E185.343
G1 X111.96 Y107.301 E185.356
G1 X111.471 Y107.01 E185.37
G1 F1800 E175.37
G1 F236
G0 X111.96 Y107.301
G0 X112.136 Y107.451
G0 X111.96 Y107.301
G0 X111.471 Y107.01
;rapid-dry
G1 F236
G0 X110.609 Y108.945
G1 F1800 E185.37
;bead-perimeter_inner
G1 X110.815 Y109.095 F300 E185.379
G1 X110.986 Y109.284 E185.387
G1 X111.113 Y109.505 E185.396
G1 X111.191 Y109.747 E185.404
G1 X111.218 Y110 E185.413
G1 X111.191 Y110.253 E185.421
G1 X111.115 Y110.491 E185.43
G1 X110.985 Y110.716 E185.438
G1 X110.815 Y110.905 E185.447
G1 X110.609 Y111.055 E185.455
G1 X110.377 Y111.159 E185.464
G1 X110.128 Y111.211 E185.472
G1 X109.872 E185.481
G1 X109.623 Y111.159 E185.489
G1 X109.391 Y111.055 E185.498
G1 X109.185 Y110.905 E185.506
G1 X109.014 Y110.716 E185.514
G1 X108.887 Y110.495 E185.523
G1 X108.809 Y110.253 E185.531
G1 X108.783 Y110.004 E185.54
G1 X108.809 Y109.746 E185.548
G1 X108.887 Y109.505 E185.557
G1 X109.014 Y109.284 E185.565
G1 X109.185 Y109.095 E185.574
G1 X109.391 Y108.945 E185.582
G1 X109.623 Y108.841 E185.591
G1 X109.872 Y108.789 E185.599
G1 X110.128 E185.608
G1 X110.377 Y108.841 E185.616
G1 X110.609 Y108.945 E185.625
;rapid-leaky
G1 F236
G0 X110.792 Y108.627
;bead-perimeter_outer
G1 X111.06 Y108.822 F300 E185.636
G1 X111.282 Y109.068 E185.647
G1 X111.448 Y109.356 E185.658
G1 X111.55 Y109.671 E185.669
G1 X111.585 Y110 E185.68
G1 X111.55 Y110.329 E185.691
G1 X111.45 Y110.64 E185.702
G1 X111.282 Y110.932 E185.713
G1 X111.06 Y111.178 E185.724
G1 X110.792 Y111.373 E185.735
G1 X110.49 Y111.508 E185.746
G1 X110.166 Y111.576 E185.757
G1 X109.834 E185.768
G1 X109.51 Y111.508 E185.779
G1 X109.208 Y111.373 E185.79
G1 X108.94 Y111.178 E185.801
G1 X108.718 Y110.932 E185.812
G1 X108.552 Y110.644 E185.823
G1 X108.45 Y110.329 E185.834
G1 X108.416 Y110.005 E185.845
G1 X108.45 Y109.67 E185.856
G1 X108.552 Y109.356 E185.867
G1 X108.718 Y109.068 E185.878
G1 X108.94 Y108.822 E185.889
G1 X109.208 Y108.627 E185.9
G1 X109.51 Y108.492 E185.911
G1 X109.834 Y108.424 E185.922
G1 X110.166 E185.933
G1 X110.49 Y108.492 E185.944
G1 X110.792 Y108.627 E185.955
;rapid-leaky
G1 F236
G0 X110.259 Y109.144
;bead-sparse_infill
G1 X110.852 Y109.737 F415 E185.983
G1 F1800 E175.983
;Layer : 23 of 38
;rapid-leaky
G1 F236
G0 Z4.9
G0 X108.816 Y112.324
G1 F1800 E185.983
;bead-perimeter_inner
G1 X108.467 Y112.11 F584 E185.997
G1 X108.157 Y111.846 E186.01
G1 X107.878 Y111.514 E186.025
G1 X107.676 Y111.184 E186.038
G1 X107.519 Y110.806 E186.051
G1 X107.424 Y110.409 E186.065
G1 X107.392 Y110 E186.078
G1 X107.424 Y109.591 E186.092
G1 X107.519 Y109.194 E186.106
G1 X107.676 Y108.816 E186.119
G1 X107.89 Y108.467 E186.133
G1 X108.154 Y108.157 E186.146
G1 X108.486 Y107.878 E186.161
G1 X108.816 Y107.676 E186.174
G1 X109.194 Y107.519 E186.187
G1 X109.591 Y107.424 E186.201
G1 X110 Y107.392 E186.214
G1 X110.409 Y107.424 E186.228
G1 X110.806 Y107.519 E186.242
G1 X111.184 Y107.676 E186.255
G1 X111.533 Y107.89 E186.269
G1 X111.844 Y108.156 E186.283
G1 X112.11 Y108.467 E186.296
G1 X112.324 Y108.816 E186.31
G1 X112.48 Y109.192 E186.323
G1 X112.578 Y109.613 E186.338
G1 X112.608 Y110 E186.351
G1 X112.576 Y110.409 E186.364
G1 X112.481 Y110.806 E186.378
G1 X112.324 Y111.184 E186.391
G1 X112.11 Y111.533 E186.405
G1 X111.846 Y111.843 E186.419
G1 X111.514 Y112.122 E186.433
G1 X111.184 Y112.324 E186.446
G1 X110.806 Y112.481 E186.46
G1 X110.409 Y112.576 E186.473
G1 X110 Y112.608 E186.487
G1 X109.591 Y112.576 E186.5
G1 X109.194 Y112.481 E186.514
G1 X108.816 Y112.324 E186.528
;rapid-leaky
G1 F236
G0 X108.65 Y112.65
;bead-perimeter_outer
G1 X108.252 Y112.407 F405 E186.543
G1 X107.897 Y112.104 E186.559
G1 X107.581 Y111.728 E186.575
G1 X107.35 Y111.35 E186.59
G1 X107.171 Y110.919 E186.605
G1 X107.062 Y110.466 E186.621
G1 X107.026 Y110 E186.636
G1 X107.062 Y109.534 E186.652
G1 X107.171 Y109.081 E186.667
G1 X107.35 Y108.65 E186.683
G1 X107.593 Y108.252 E186.698
G1 X107.896 Y107.897 E186.714
G1 X108.272 Y107.581 E186.73
G1 X108.65 Y107.35 E186.745
G1 X109.081 Y107.171 E186.76
G1 X109.534 Y107.062 E186.776
G1 X110 Y107.026 E186.791
G1 X110.466 Y107.062 E186.807
G1 X110.919 Y107.171 E186.822
G1 X111.35 Y107.35 E186.838
G1 X111.748 Y107.593 E186.854
G1 X112.103 Y107.897 E186.869
G1 X112.407 Y108.252 E186.885
G1 X112.65 Y108.65 E186.9
G1 X112.829 Y109.08 E186.916
G1 X112.94 Y109.558 E186.932
G1 X112.974 Y110 E186.947
G1 X112.938 Y110.466 E186.962
G1 X112.829 Y110.919 E186.978
G1 X112.65 Y111.35 E186.993
G1 X112.407 Y111.748 E187.009
G1 X112.104 Y112.103 E187.024
G1 X111.728 Y112.419 E187.041
G1 X111.35 Y112.65 E187.055
G1 X110.919 Y112.829 E187.071
G1 X110.466 Y112.938 E187.086
G1 X110 Y112.974 E187.102
G1 X109.534 Y112.938 E187.117
G1 X109.081 Y112.829 E187.133
G1 X108.65 Y112.65 E187.148
;rapid-leaky
G1 F236
G0 X109.939 Y111.176
G0 Z4.7
;bead-sparse_infill
G1 X111.176 Y109.939 F1349 E187.207
;rapid-leaky
G1 F236
G0 Z4.8
G0 X112.817 Y109.052
;bead-solid_infill
G1 X110.093 Y111.776 Z4.7 F899 E187.335
G1 X109.052 Y112.817 Z4.8 E187.384
G1 X109.081 Y112.829 Z4.7 E187.385
G1 X109.504 Y112.931 Z4.8 E187.399
G1 X110.89 Y111.544 Z4.7 E187.464
G1 X112.928 Y109.507 Z4.8 E187.56
G1 X112.94 Y109.558 Z4.7 E187.562
G1 X112.974 Y110 E187.577
G1 X112.972 Y110.028 Z4.8 E187.578
G1 X110.028 Y112.972 E187.716
G1 X110.466 Y112.938 Z4.7 E187.731
G1 X110.68 Y112.887 Z4.8 E187.738
G1 X112.887 Y110.68 E187.842
G1 X112.829 Y110.919 Z4.7 E187.85
G1 X112.65 Y111.35 E187.866
G1 X112.443 Y111.689 Z4.8 E187.879
G1 X111.689 Y112.443 E187.914
G1 F1800 E177.914
;rapid-dry
G1 F236
G0 X111.562 Y107.479
G1 F1800 E187.914
;bead-solid_infill
G1 X110.017 Y109.024 Z4.7 F899 E187.987
G1 X110.104 E187.99
G1 X110.304 Y109.066 E187.997
G1 X110.467 Y109.139 E188.003
G1 X111.891 Y107.715 Z4.8 E188.07
G1 X112.103 Y107.897 Z4.7 E188.079
G1 X112.182 Y107.99 Z4.8 E188.083
G1 X110.773 Y109.399 Z4.7 E188.149
G1 X110.794 Y109.423 E188.15
G1 X110.897 Y109.601 E188.157
G1 X110.956 Y109.782 E188.163
G1 X112.437 Y108.301 Z4.8 E188.233
G1 X112.65 Y108.65 Z4.7 E188.247
G1 X112.651 Y108.652 Z4.8
G1 X110.885 Y110.418 Z4.7 E188.33
G1 X110.794 Y110.577 E188.336
G1 X110.657 Y110.729 E188.343
G1 X110.49 Y110.851 E188.35
G1 X110.423 Y110.881 E188.352
G1 X109.577 Y111.726 E188.392
G1 X108.652 Y112.651 Z4.8 E188.435
G1 X108.65 Y112.65 Z4.7
G1 X108.301 Y112.437 Z4.8 E188.449
G1 X109.165 Y111.573 Z4.7 E188.49
G1 X109.785 Y110.953 E188.519
G1 X109.696 Y110.934 E188.522
G1 X109.51 Y110.851 E188.529
G1 X109.401 Y110.771 E188.533
G1 X108.828 Y111.344 E188.56
G1 X107.99 Y112.182 Z4.8 E188.6
G1 X107.897 Y112.104 Z4.7 E188.604
G1 X107.717 Y111.889 Z4.8 E188.613
G1 X108.556 Y111.051 Z4.7 E188.652
G1 X109.141 Y110.465 E188.68
G1 X109.103 Y110.399 E188.682
G1 X109.04 Y110.205 E188.689
G1 X109.021 Y110.02 E188.695
G1 X108.355 Y110.686 E188.727
G1 X107.479 Y111.562 Z4.8 E188.768
G1 X107.35 Y111.35 Z4.7 E188.776
G1 X107.284 Y111.191 Z4.8 E188.782
G1 X108.239 Y110.236 Z4.7 E188.827
G1 X111.191 Y107.284 Z4.8 E188.966
G1 X110.919 Y107.171 Z4.7 E188.976
G1 X110.773 Y107.136 Z4.8 E188.98
G1 X108.25 Y109.659 Z4.7 E189.099
G1 X107.136 Y110.773 Z4.8 E189.152
G1 X107.062 Y110.466 Z4.7 E189.162
G1 X107.049 Y110.295 Z4.8 E189.168
G1 X110.295 Y107.049 E189.32
G1 X110 Y107.026 Z4.7 E189.33
G1 X109.731 Y107.047 Z4.8 E189.339
G1 X107.047 Y109.731 E189.466
G1 X107.062 Y109.534 Z4.7 E189.472
G1 X107.171 Y109.081 E189.488
G1 X107.199 Y109.013 Z4.8 E189.49
G1 X109.013 Y107.199 E189.575
G1 F1800 E179.575
;Layer : 24 of 38
;rapid-dry
G1 F236
G0 X109.194 Y107.519 Z4.9
G1 F1800 E189.575
;bead-perimeter_inner
G1 X109.591 Y107.424 F390 E189.589
G1 X110.002 Y107.392 E189.603
G1 X110.408 Y107.424 E189.616
G1 X110.806 Y107.519 E189.63
G1 X111.184 Y107.676 E189.643
G1 X111.533 Y107.89 E189.657
G1 X111.844 Y108.156 E189.671
G1 X112.11 Y108.467 E189.684
G1 X112.324 Y108.816 E189.698
G1 X112.481 Y109.194 E189.712
G1 X112.576 Y109.59 E189.725
G1 X112.608 Y110 E189.739
G1 X112.576 Y110.409 E189.752
G1 X112.481 Y110.806 E189.766
G1 X112.324 Y111.184 E189.78
G1 X112.11 Y111.533 E189.793
G1 X111.844 Y111.844 E189.807
G1 X111.533 Y112.11 E189.82
G1 X111.184 Y112.324 E189.834
G1 X110.806 Y112.481 E189.848
G1 X110.409 Y112.576 E189.861
G1 X109.986 Y112.608 E189.875
G1 X109.592 Y112.576 E189.889
G1 X109.194 Y112.481 E189.902
G1 X108.816 Y112.324 E189.916
G1 X108.467 Y112.11 E189.929
G1 X108.156 Y111.844 E189.943
G1 X107.89 Y111.533 E189.957
G1 X107.676 Y111.184 E189.97
G1 X107.519 Y110.806 E189.984
G1 X107.424 Y110.409 E189.997
G1 X107.392 Y109.987 E190.011
G1 X107.424 Y109.592 E190.025
G1 X107.519 Y109.194 E190.038
G1 X107.676 Y108.816 E190.052
G1 X107.89 Y108.467 E190.065
G1 X108.156 Y108.156 E190.079
G1 X108.467 Y107.89 E190.093
G1 X108.816 Y107.676 E190.106
G1 X109.194 Y107.519 E190.12
;rapid-leaky
G1 F236
G0 X109.081 Y107.171
;bead-perimeter_outer
G1 X109.534 Y107.062 F300 E190.135
G1 X110.001 Y107.026 E190.151
G1 X110.466 Y107.062 E190.167
G1 X110.919 Y107.171 E190.182
G1 X111.35 Y107.35 E190.198
G1 X111.748 Y107.593 E190.213
G1 X112.103 Y107.897 E190.229
G1 X112.407 Y108.252 E190.244
G1 X112.65 Y108.65 E190.26
G1 X112.829 Y109.081 E190.275
G1 X112.938 Y109.534 E190.291
G1 X112.974 Y110 E190.306
G1 X112.938 Y110.466 E190.322
G1 X112.829 Y110.919 E190.337
G1 X112.65 Y111.35 E190.353
G1 X112.407 Y111.748 E190.368
G1 X112.103 Y112.103 E190.384
G1 X111.748 Y112.407 E190.399
G1 X111.35 Y112.65 E190.415
G1 X110.919 Y112.829 E190.43
G1 X110.466 Y112.938 E190.446
G1 X109.959 Y112.972 E190.463
G1 X109.534 Y112.938 E190.477
G1 X109.081 Y112.829 E190.493
G1 X108.65 Y112.65 E190.508
G1 X108.252 Y112.407 E190.524
G1 X107.897 Y112.103 E190.539
G1 X107.593 Y111.748 E190.555
G1 X107.35 Y111.35 E190.57
G1 X107.171 Y110.919 E190.586
G1 X107.062 Y110.466 E190.601
G1 X107.028 Y109.959 E190.618
G1 X107.062 Y109.534 E190.632
G1 X107.171 Y109.081 E190.648
G1 X107.35 Y108.65 E190.663
G1 X107.593 Y108.252 E190.679
G1 X107.897 Y107.897 E190.694
G1 X108.252 Y107.593 E190.71
G1 X108.65 Y107.35 E190.725
G1 X109.081 Y107.171 E190.741
;rapid-leaky
G1 F236
G0 X110.909 Y107.908
;bead-solid_infill
G1 X112.092 Y109.091 F600 E190.797
G1 F1800 E180.797
;rapid-dry
G1 F236
G0 X111.176 Y110.061
G1 F1800 E190.797
;bead-sparse_infill
G1 X109.939 Y108.824 F900 E190.855
G1 F1800 E180.855
;rapid-dry
G1 F236
G0 X107.727 Y109.817
G1 F1800 E190.855
;bead-solid_infill
G1 X108.551 Y110.641 F600 E190.893
G1 X108.45 Y110.329 E190.904
G1 X108.416 Y110.005 E190.915
G1 X108.422 Y109.947 E190.917
G1 X107.814 Y109.338 E190.946
G1 X107.824 Y109.294 E190.947
G1 X107.962 Y108.962 E190.959
G1 X107.977 Y108.937 E190.96
G1 X108.514 Y109.473 E190.986
G1 X108.552 Y109.356 E190.99
G1 X108.702 Y109.096 E191
G1 X108.201 Y108.595 E191.023
G1 X108.383 Y108.383 E191.032
G1 X108.475 Y108.303 E191.036
G1 X108.971 Y108.799 E191.06
G1 X109.208 Y108.627 E191.07
G1 X109.316 Y108.579 E191.074
G1 X108.799 Y108.061 E191.098
G1 X108.962 Y107.962 E191.104
G1 X109.176 Y107.873 E191.112
G1 X109.746 Y108.443 E191.139
G1 X109.834 Y108.424 E191.142
G1 X110.166 E191.153
G1 X110.327 Y108.458 E191.158
G1 X109.616 Y107.747 E191.192
G1 X109.64 Y107.741
G1 X110.002 Y107.713 E191.205
G1 X110.16 Y107.725 E191.21
G1 X112.275 Y109.84 E191.309
G1 X112.287 Y110 E191.315
G1 X112.259 Y110.358 E191.327
G1 X112.253 Y110.384
G1 X111.551 Y109.682 E191.36
G1 X111.585 Y110 E191.371
G1 X111.558 Y110.255 E191.38
G1 X112.127 Y110.824 E191.406
G1 X112.038 Y111.038 E191.414
G1 X111.939 Y111.201 E191.42
G1 X111.424 Y110.686 E191.445
G1 X111.282 Y110.932 E191.454
G1 X111.198 Y111.026 E191.458
G1 X111.697 Y111.525 E191.482
G1 X111.617 Y111.617 E191.486
G1 X111.405 Y111.799 E191.495
G1 X110.901 Y111.294 E191.519
G1 X110.792 Y111.373 E191.523
G1 X110.53 Y111.49 E191.533
G1 X111.063 Y112.023 E191.558
G1 X111.038 Y112.038 E191.559
G1 X110.706 Y112.176 E191.571
G1 X110.662 Y112.186 E191.572
G1 X110.051 Y111.576 E191.601
G1 X109.834 E191.608
G1 X109.51 Y111.508 E191.619
G1 X109.342 Y111.433 E191.625
G1 X110.182 Y112.272 E191.665
G1 X109.987 Y112.287 E191.671
G1 X109.642 Y112.259 E191.683
G1 X109.591 Y112.247 E191.685
G1 X107.753 Y110.409 E191.771
G1 X107.824 Y110.706 E191.781
G1 X107.962 Y111.038 E191.793
G1 X108.149 Y111.344 E191.805
G1 X108.309 Y111.531 E191.813
G1 X108.47 Y111.692 E191.821
G1 F1800 E181.821
;Layer : 25 of 38
;rapid-leaky
G1 F236
G0 X108.156 Y111.844 Z5.1
G1 F1800 E191.821
;bead-perimeter_inner
G1 X107.866 Y111.496 F390 E191.836
G1 X107.676 Y111.184 E191.848
G1 X107.519 Y110.806 E191.862
G1 X107.424 Y110.409 E191.875
G1 X107.392 Y110 E191.889
G1 X107.424 Y109.59 E191.903
G1 X107.519 Y109.195 E191.916
G1 X107.676 Y108.816 E191.93
G1 X107.89 Y108.467 E191.943
G1 X108.156 Y108.156 E191.957
G1 X108.504 Y107.866 E191.972
G1 X108.816 Y107.676 E191.984
G1 X109.194 Y107.519 E191.998
G1 X109.591 Y107.424 E192.011
G1 X110 Y107.392 E192.025
G1 X110.451 Y107.434 E192.04
G1 X110.805 Y107.519 E192.052
G1 X111.184 Y107.676 E192.066
G1 X111.533 Y107.89 E192.079
G1 X111.845 Y108.157 E192.093
G1 X112.11 Y108.467 E192.107
G1 X112.324 Y108.816 E192.12
G1 X112.481 Y109.194 E192.134
G1 X112.576 Y109.592 E192.148
G1 X112.608 Y110 E192.161
G1 X112.576 Y110.409 E192.175
G1 X112.481 Y110.806 E192.188
G1 X112.324 Y111.184 E192.202
G1 X112.11 Y111.533 E192.216
G1 X111.844 Y111.844 E192.229
G1 X111.531 Y112.112 E192.243
G1 X111.184 Y112.324 E192.256
G1 X110.806 Y112.481 E192.27
G1 X110.409 Y112.576 E192.284
G1 X110 Y112.608 E192.297
G1 X109.59 Y112.576 E192.311
G1 X109.195 Y112.481 E192.324
G1 X108.816 Y112.324 E192.338
G1 X108.467 Y112.11 E192.352
G1 X108.156 Y111.844 E192.365
;rapid-leaky
G1 F236
G0 X107.897 Y112.103
;bead-perimeter_outer
G1 X107.555 Y111.687 F300 E192.383
G1 X107.35 Y111.35 E192.396
G1 X107.171 Y110.919 E192.412
G1 X107.062 Y110.466 E192.427
G1 X107.026 Y110 E192.443
G1 X107.062 Y109.534 E192.458
G1 X107.171 Y109.081 E192.474
G1 X107.35 Y108.65 E192.489
G1 X107.593 Y108.252 E192.505
G1 X107.897 Y107.897 E192.521
G1 X108.313 Y107.555 E192.538
G1 X108.65 Y107.35 E192.552
G1 X109.081 Y107.171 E192.567
G1 X109.534 Y107.062 E192.583
G1 X110 Y107.026 E192.598
G1 X110.536 Y107.079 E192.616
G1 X110.919 Y107.171 E192.629
G1 X111.35 Y107.35 E192.645
G1 X111.748 Y107.593 E192.66
G1 X112.104 Y107.897 E192.676
G1 X112.407 Y108.252 E192.691
G1 X112.65 Y108.65 E192.707
G1 X112.829 Y109.081 E192.722
G1 X112.938 Y109.535 E192.738
G1 X112.974 Y110 E192.753
G1 X112.938 Y110.466 E192.769
G1 X112.829 Y110.919 E192.784
G1 X112.65 Y111.35 E192.8
G1 X112.407 Y111.748 E192.815
G1 X112.103 Y112.103 E192.831
G1 X111.748 Y112.407 E192.847
G1 X111.35 Y112.65 E192.862
G1 X110.919 Y112.829 E192.878
G1 X110.466 Y112.938 E192.893
G1 X110 Y112.974 E192.909
G1 X109.534 Y112.938 E192.924
G1 X109.081 Y112.829 E192.94
G1 X108.65 Y112.65 E192.955
G1 X108.252 Y112.407 E192.971
G1 X107.897 Y112.103 E192.986
;rapid-leaky
G1 F236
G0 X107.727 Y110.182
;bead-solid_infill
G1 X108.551 Y109.359 F600 E193.025
G1 X108.45 Y109.67 E193.036
G1 X108.416 Y110.005 E193.047
G1 X108.421 Y110.054 E193.049
G1 X107.814 Y110.662 E193.077
G1 X107.824 Y110.706 E193.079
G1 X107.962 Y111.039 E193.091
G1 X107.977 Y111.063 E193.092
G1 X108.514 Y110.527 E193.117
G1 X108.552 Y110.644 E193.121
G1 X108.702 Y110.904 E193.131
G1 X108.204 Y111.402 E193.154
G1 X108.384 Y111.619 E193.164
G1 X108.476 Y111.697 E193.168
G1 X108.971 Y111.201 E193.191
G1 X109.208 Y111.373 E193.201
G1 X109.316 Y111.421 E193.205
G1 X108.799 Y111.939 E193.229
G1 X108.962 Y112.038 E193.235
G1 X109.176 Y112.127 E193.243
G1 X109.746 Y111.557 E193.27
G1 X109.834 Y111.576 E193.273
G1 X110.166 E193.284
G1 X110.327 Y111.542 E193.29
G1 X109.616 Y112.253 E193.323
G1 X109.64 Y112.259 E193.324
G1 X110 Y112.287 E193.336
G1 X110.16 Y112.275 E193.341
G1 X112.275 Y110.16 E193.441
G1 X112.287 Y110 E193.446
G1 X112.26 Y109.657 E193.457
G1 X112.259 Y109.642 E193.458
G1 X112.253 Y109.616 E193.459
G1 X111.552 Y110.318 E193.492
G1 X111.585 Y110 E193.502
G1 X111.558 Y109.745 E193.511
G1 X112.127 Y109.176 E193.538
G1 X112.038 Y108.962 E193.545
G1 X111.939 Y108.799 E193.552
G1 X111.424 Y109.314 E193.576
G1 X111.282 Y109.068 E193.585
G1 X111.198 Y108.974 E193.59
G1 X111.697 Y108.475 E193.613
G1 X111.618 Y108.384 E193.617
G1 X111.405 Y108.201 E193.626
G1 X110.901 Y108.706 E193.65
G1 X110.792 Y108.627 E193.655
G1 X110.53 Y108.51 E193.664
G1 X111.063 Y107.977 E193.689
G1 X111.038 Y107.962 E193.69
G1 X110.706 Y107.824 E193.702
G1 X110.662 Y107.813 E193.704
G1 X110.051 Y108.424 E193.732
G1 X109.834 E193.74
G1 X109.51 Y108.492 E193.751
G1 X109.342 Y108.567 E193.757
G1 X110.18 Y107.73 E193.796
G1 X109.998 Y107.713 E193.802
G1 X109.642 Y107.741 E193.814
G1 X109.591 Y107.753 E193.816
G1 X107.753 Y109.591 E193.902
G1 X107.824 Y109.294 E193.912
G1 X107.962 Y108.962 E193.924
G1 X108.149 Y108.656 E193.936
G1 X108.308 Y108.47 E193.944
G1 X108.454 Y108.324 E193.951
G1 F1800 E183.951
;rapid-dry
G1 F236
G0 X111.176 Y109.939
G1 F1800 E193.951
;bead-sparse_infill
G1 X109.939 Y111.176 F900 E194.009
G1 F1800 E184.009
;rapid-dry
G1 F236
G0 X110.909 Y112.092
G1 F1800 E194.009
;bead-solid_infill
G1 X112.092 Y110.909 F600 E194.065
G1 F1800 E184.065
;Layer : 26 of 38
;rapid-leaky
G1 F236
G0 X112.324 Y111.184 Z5.3
G1 F1800 E194.065
;bead-perimeter_inner
G1 X112.11 Y111.533 F300 E194.079
G1 X111.844 Y111.844 E194.092
G1 X111.47 Y112.149 E194.108
G1 X111.184 Y112.324 E194.12
G1 X110.806 Y112.481 E194.133
G1 X110.409 Y112.576 E194.147
G1 X109.926 Y112.603 E194.163
G1 X109.592 Y112.576 E194.174
G1 X109.194 Y112.481 E194.188
G1 X108.816 Y112.324 E194.201
G1 X108.467 Y112.11 E194.215
G1 X108.156 Y111.844 E194.228
G1 X107.851 Y111.47 E194.245
G1 X107.676 Y111.184 E194.256
G1 X107.519 Y110.806 E194.269
G1 X107.424 Y110.409 E194.283
G1 X107.397 Y109.926 E194.299
G1 X107.424 Y109.592 E194.31
G1 X107.519 Y109.194 E194.324
G1 X107.676 Y108.816 E194.337
G1 X107.89 Y108.467 E194.351
G1 X108.156 Y108.156 E194.365
G1 X108.53 Y107.851 E194.381
G1 X108.816 Y107.676 E194.392
G1 X109.194 Y107.519 E194.405
G1 X109.591 Y107.424 E194.419
G1 X110.074 Y107.397 E194.435
G1 X110.408 Y107.424 E194.446
G1 X110.806 Y107.519 E194.46
G1 X111.184 Y107.676 E194.473
G1 X111.533 Y107.89 E194.487
G1 X111.844 Y108.156 E194.501
G1 X112.11 Y108.467 E194.514
G1 X112.324 Y108.816 E194.528
G1 X112.481 Y109.194 E194.541
G1 X112.576 Y109.591 E194.555
G1 X112.608 Y110 E194.569
G1 X112.576 Y110.409 E194.582
G1 X112.481 Y110.806 E194.596
G1 X112.324 Y111.184 E194.61
;rapid-leaky
G1 F236
G0 X112.65 Y111.35
;bead-perimeter_outer
G1 X112.407 Y111.748 F300 E194.625
G1 X112.103 Y112.103 E194.641
G1 X111.748 Y112.407 E194.656
G1 X111.661 Y112.46 E194.66
G1 X111.35 Y112.65 E194.672
G1 X110.919 Y112.829 E194.687
G1 X110.466 Y112.938 E194.703
G1 X110 Y112.974 E194.718
G1 X109.534 Y112.938 E194.734
G1 X109.081 Y112.829 E194.749
G1 X108.65 Y112.65 E194.765
G1 X108.252 Y112.407 E194.78
G1 X107.897 Y112.103 E194.796
G1 X107.593 Y111.748 E194.811
G1 X107.35 Y111.35 E194.827
G1 X107.171 Y110.919 E194.842
G1 X107.062 Y110.466 E194.858
G1 X107.026 Y110 E194.873
G1 X107.033 Y109.898 E194.877
G1 X107.062 Y109.534 E194.889
G1 X107.171 Y109.081 E194.904
G1 X107.35 Y108.65 E194.92
G1 X107.593 Y108.252 E194.936
G1 X107.897 Y107.897 E194.951
G1 X108.252 Y107.593 E194.967
G1 X108.65 Y107.35 E194.982
G1 X109.081 Y107.171 E194.998
G1 X109.534 Y107.062 E195.013
G1 X110 Y107.026 E195.029
G1 X110.466 Y107.062 E195.044
G1 X110.919 Y107.171 E195.06
G1 X111.35 Y107.35 E195.075
G1 X111.748 Y107.593 E195.091
G1 X112.103 Y107.897 E195.106
G1 X112.407 Y108.252 E195.122
G1 X112.65 Y108.65 E195.137
G1 X112.829 Y109.081 E195.153
G1 X112.938 Y109.534 E195.168
G1 X112.974 Y110 E195.184
G1 X112.938 Y110.466 E195.199
G1 X112.829 Y110.919 E195.215
G1 X112.65 Y111.35 E195.23
;rapid-leaky
G1 F236
G0 X109.043 Y107.928
;bead-sparse_infill
G1 X112.072 Y110.957 F662 E195.373
G1 X112.038 Y111.038 E195.376
G1 X111.851 Y111.344 E195.388
G1 X111.62 Y111.614 E195.4
G1 X111.284 Y111.887 E195.414
G1 X111.038 Y112.038 E195.424
G1 X110.706 Y112.176 E195.436
G1 X110.362 Y112.258 E195.447
G1 X109.93 Y112.282 E195.462
G1 X109.642 Y112.259 E195.471
G1 X109.591 Y112.247 E195.473
G1 X107.753 Y110.409 E195.56
G1 F1800 E185.56
;Layer : 27 of 38
;rapid-leaky
G1 F236
G0 X107.424 Z5.5
G1 F1800 E195.56
;bead-perimeter_inner
G1 X107.392 Y110 F300 E195.573
G1 X107.424 Y109.591 E195.587
G1 X107.519 Y109.194 E195.6
G1 X107.676 Y108.816 E195.614
G1 X107.89 Y108.467 E195.628
G1 X108.156 Y108.156 E195.641
G1 X108.467 Y107.89 E195.655
G1 X108.816 Y107.676 E195.668
G1 X109.194 Y107.519 E195.682
G1 X109.591 Y107.424 E195.696
G1 X110 Y107.392 E195.709
G1 X110.409 Y107.424 E195.723
G1 X110.806 Y107.519 E195.736
G1 X111.184 Y107.676 E195.75
G1 X111.533 Y107.89 E195.764
G1 X111.845 Y108.156 E195.777
G1 X112.11 Y108.467 E195.791
G1 X112.324 Y108.816 E195.805
G1 X112.481 Y109.194 E195.818
G1 X112.576 Y109.592 E195.832
G1 X112.608 Y110 E195.845
G1 X112.576 Y110.409 E195.859
G1 X112.481 Y110.806 E195.873
G1 X112.324 Y111.184 E195.886
G1 X112.11 Y111.533 E195.9
G1 X111.844 Y111.844 E195.913
G1 X111.533 Y112.11 E195.927
G1 X111.184 Y112.324 E195.941
G1 X110.806 Y112.481 E195.954
G1 X110.409 Y112.576 E195.968
G1 X110 Y112.608 E195.982
G1 X109.591 Y112.576 E195.995
G1 X109.194 Y112.481 E196.009
G1 X108.816 Y112.324 E196.022
G1 X108.467 Y112.11 E196.036
G1 X108.156 Y111.844 E196.05
G1 X107.89 Y111.533 E196.063
G1 X107.676 Y111.184 E196.077
G1 X107.519 Y110.806 E196.09
G1 X107.424 Y110.409 E196.104
;rapid-leaky
G1 F236
G0 X107.062 Y110.466
;bead-perimeter_outer
G1 X107.026 Y110 F300 E196.12
G1 X107.062 Y109.534 E196.135
G1 X107.171 Y109.081 E196.151
G1 X107.35 Y108.65 E196.166
G1 X107.593 Y108.252 E196.182
G1 X107.897 Y107.897 E196.197
G1 X108.252 Y107.593 E196.213
G1 X108.65 Y107.35 E196.228
G1 X109.081 Y107.171 E196.244
G1 X109.534 Y107.062 E196.259
G1 X110 Y107.026 E196.275
G1 X110.466 Y107.062 E196.29
G1 X110.919 Y107.171 E196.306
G1 X111.35 Y107.35 E196.321
G1 X111.748 Y107.593 E196.337
G1 X112.103 Y107.897 E196.352
G1 X112.191 Y107.999 E196.357
G1 X112.407 Y108.252 E196.368
G1 X112.65 Y108.65 E196.384
G1 X112.829 Y109.081 E196.399
G1 X112.938 Y109.534 E196.415
G1 X112.974 Y110 E196.43
G1 X112.938 Y110.466 E196.446
G1 X112.829 Y110.919 E196.461
G1 X112.65 Y111.35 E196.477
G1 X112.407 Y111.748 E196.492
G1 X112.103 Y112.103 E196.508
G1 X111.748 Y112.407 E196.523
G1 X111.35 Y112.65 E196.539
G1 X110.919 Y112.829 E196.554
G1 X110.466 Y112.938 E196.57
G1 X110 Y112.974 E196.585
G1 X109.534 Y112.938 E196.601
G1 X109.081 Y112.829 E196.616
G1 X108.65 Y112.65 E196.632
G1 X108.252 Y112.407 E196.647
G1 X107.897 Y112.103 E196.663
G1 X107.593 Y111.748 E196.678
G1 X107.35 Y111.35 E196.694
G1 X107.171 Y110.919 E196.71
G1 X107.062 Y110.466 E196.725
;rapid-leaky
G1 F236
G0 X109.591 Y107.753
;bead-sparse_infill
G1 X107.753 Y109.591 F662 E196.811
G1 X107.741 Y109.642 E196.813
G1 X107.713 Y110 E196.825
G1 X107.741 Y110.358 E196.837
G1 X107.824 Y110.706 E196.849
G1 X107.962 Y111.038 E196.861
G1 X108.149 Y111.344 E196.873
G1 X108.383 Y111.617 E196.885
G1 X108.656 Y111.851 E196.897
G1 X108.962 Y112.038 E196.909
G1 X109.043 Y112.072 E196.912
G1 X112.072 Y109.043 E197.054
G1 F1800 E187.054
;Layer : 28 of 38
;rapid-leaky
G1 F236
G0 X112.324 Y108.816 Z5.7
G1 F1800 E197.054
;bead-perimeter_inner
G1 X112.481 Y109.194 F300 E197.068
G1 X112.576 Y109.591 E197.081
G1 X112.608 Y110 E197.095
G1 X112.576 Y110.409 E197.109
G1 X112.481 Y110.806 E197.122
G1 X112.324 Y111.184 E197.136
G1 X112.11 Y111.533 E197.149
G1 X111.844 Y111.844 E197.163
G1 X111.533 Y112.11 E197.177
G1 X111.183 Y112.325 E197.19
G1 X110.806 Y112.481 E197.204
G1 X110.409 Y112.576 E197.217
G1 X110 Y112.608 E197.231
G1 X109.591 Y112.576 E197.245
G1 X109.194 Y112.481 E197.258
G1 X108.816 Y112.324 E197.272
G1 X108.467 Y112.11 E197.286
G1 X108.156 Y111.844 E197.299
G1 X107.89 Y111.533 E197.313
G1 X107.675 Y111.183 E197.326
G1 X107.519 Y110.806 E197.34
G1 X107.424 Y110.409 E197.354
G1 X107.392 Y110 E197.367
G1 X107.424 Y109.591 E197.381
G1 X107.519 Y109.194 E197.394
G1 X107.676 Y108.816 E197.408
G1 X107.89 Y108.467 E197.422
G1 X108.156 Y108.156 E197.435
G1 X108.467 Y107.89 E197.449
G1 X108.817 Y107.675 E197.463
G1 X109.194 Y107.519 E197.476
G1 X109.591 Y107.424 E197.49
G1 X110 Y107.392 E197.503
G1 X110.409 Y107.424 E197.517
G1 X110.806 Y107.519 E197.531
G1 X111.184 Y107.676 E197.544
G1 X111.533 Y107.89 E197.558
G1 X111.844 Y108.156 E197.571
G1 X112.11 Y108.467 E197.585
G1 X112.324 Y108.816 E197.599
;rapid-leaky
G1 F236
G0 X112.65 Y108.65
;bead-perimeter_outer
G1 X112.829 Y109.081 F300 E197.614
G1 X112.938 Y109.534 E197.63
G1 X112.974 Y110 E197.645
G1 X112.938 Y110.466 E197.661
G1 X112.829 Y110.919 E197.676
G1 X112.65 Y111.35 E197.692
G1 X112.407 Y111.748 E197.707
G1 X112.103 Y112.103 E197.723
G1 X111.748 Y112.407 E197.738
G1 X111.35 Y112.65 E197.754
G1 X110.919 Y112.829 E197.769
G1 X110.466 Y112.938 E197.785
G1 X110 Y112.974 E197.8
G1 X109.534 Y112.938 E197.816
G1 X109.081 Y112.829 E197.831
G1 X108.65 Y112.65 E197.847
G1 X108.252 Y112.407 E197.863
G1 X107.897 Y112.103 E197.878
G1 X107.593 Y111.748 E197.894
G1 X107.35 Y111.35 E197.909
G1 X107.171 Y110.919 E197.925
G1 X107.062 Y110.466 E197.94
G1 X107.026 Y110 E197.956
G1 X107.062 Y109.534 E197.971
G1 X107.171 Y109.081 E197.987
G1 X107.35 Y108.65 E198.002
G1 X107.593 Y108.252 E198.018
G1 X107.897 Y107.897 E198.033
G1 X108.252 Y107.593 E198.049
G1 X108.65 Y107.35 E198.064
G1 X109.081 Y107.171 E198.08
G1 X109.534 Y107.062 E198.095
G1 X110 Y107.026 E198.111
G1 X110.466 Y107.062 E198.126
G1 X110.919 Y107.171 E198.142
G1 X111.35 Y107.35 E198.157
G1 X111.748 Y107.593 E198.173
G1 X112.103 Y107.897 E198.189
G1 X112.407 Y108.252 E198.204
G1 X112.65 Y108.65 E198.22
;rapid-leaky
G1 F236
G0 X109.043 Y107.928
;bead-sparse_infill
G1 X112.072 Y110.957 F662 E198.362
G1 X112.038 Y111.038 E198.365
G1 X111.851 Y111.344 E198.377
G1 X111.617 Y111.617 E198.389
G1 X111.344 Y111.851 E198.401
G1 X111.037 Y112.039 E198.413
G1 X110.707 Y112.176 E198.425
G1 X110.358 Y112.259 E198.437
G1 X110 Y112.287 E198.449
G1 X109.641 Y112.259 E198.461
G1 X109.591 Y112.247 E198.462
G1 X107.753 Y110.409 E198.549
G1 F1800 E188.549
;Layer : 29 of 38
;rapid-leaky
G1 F236
G0 X107.424 Z5.9
G1 F1800 E198.549
;bead-perimeter_inner
G1 X107.392 Y110 F300 E198.562
G1 X107.424 Y109.591 E198.576
G1 X107.519 Y109.194 E198.59
G1 X107.676 Y108.816 E198.603
G1 X107.89 Y108.467 E198.617
G1 X108.156 Y108.156 E198.63
G1 X108.467 Y107.889 E198.644
G1 X108.61 Y107.802 E198.65
G1 X108.816 Y107.676 E198.658
G1 X109.194 Y107.519 E198.671
G1 X109.591 Y107.424 E198.685
G1 X110 Y107.392 E198.698
G1 X110.409 Y107.424 E198.712
G1 X110.806 Y107.519 E198.726
G1 X111.184 Y107.676 E198.739
