;1001
;Firmware: Marlin
;Printer name: Creality Ender 3 V2
;Print time: 6h:10m:5s
;Extruder 1 material used: 18265mm
;Extruder 1 material name: PVA 1.75mm
;Extruder 1 filament diameter: 1.75mm
;Extruder 1 nozzle diameter: 0.4mm
;Extruder 1 offset x: 0mm
;Extruder 1 offset y: 0mm
;Extruder 1 offset z: 0mm
;Extruder 1 max temp: 220
;Bed temp: 60
;Layer count: 976
;Width: 220mm
;Depth: 220mm
;Height: 250mm
;Count of bodies: 1
;Fusion version: 2.0.9719
;--------------------------------
;Selected Profile: PVA 1.75mm, 0.4mm Nozzle
;Selected Printer: Creality, Ender 3 V2
;--------------------------------
M140 S60
M190 S60
M104 S220 T0
M109 S220 T0
G1 F236
G21
G90
M82
G28 Z0
G1 Z0 F236
G28 X0 Y0
G92 E0
G0 X0 Y0 Z0
G92 E0
;--------------------------------
;Layer : 1 of 976
M107
;rapid-leaky
G0 X20 Y20.8 Z0.3
G1 F1800 E10
;bead-prime
G1 X200 F270 E45.921
G1 F1800 E35.921
;rapid-dry
G1 F236
G0 X145.55 Y80.8
G1 F1800 E45.921
;bead-skirt/brim
G1 Y84.59 F780 E46.11
G1 X146.84 E46.174
G1 Y135.41 E48.71
G1 X145.55 E48.774
G1 Y139.2 E48.963
G1 X74.45 E52.51
G1 Y135.41 E52.7
G1 X73.16 E52.764
G1 Y84.59 E55.299
G1 X74.45 E55.364
G1 Y80.8 E55.553
G1 X145.55 E59.1
;rapid-leaky
G1 F236
G0 X145.15 Y81.2
;bead-skirt/brim
G1 Y84.99 F780 E59.289
G1 X146.44 E59.353
G1 Y109.61 E60.582
G1 X145.15 E60.646
G1 Y110.39 E60.685
G1 X146.44 E60.749
G1 Y135.01 E61.978
G1 X145.15 E62.042
G1 Y138.8 E62.231
G1 X74.85 E65.738
G1 Y135.01 E65.927
G1 X73.56 E65.992
G1 Y110.39 E67.22
G1 X74.85 E67.284
G1 Y109.61 E67.323
G1 X73.56 E67.388
G1 Y84.99 E68.616
G1 X74.85 E68.68
G1 Y81.2 E68.869
G1 X145.15 E72.377
;rapid-leaky
G1 F236
G0 X144.75 Y81.6
;bead-skirt/brim
G1 Y85.39 F780 E72.566
G1 X146.04 E72.63
G1 Y109.21 E73.819
G1 X144.75 E73.883
G1 Y110.79 E73.962
G1 X146.04 E74.026
G1 Y134.61 E75.214
G1 X144.75 E75.279
G1 Y138.4 E75.468
G1 X75.25 E78.935
G1 Y134.61 E79.124
G1 X73.96 E79.189
G1 Y110.79 E80.377
G1 X75.25 E80.441
G1 Y109.21 E80.52
G1 X73.96 E80.585
G1 Y85.39 E81.773
G1 X75.25 E81.837
G1 Y81.6 E82.026
G1 X144.75 E85.494
;rapid-leaky
G1 F236
G0 X144.35 Y82
;bead-skirt/brim
G1 Y85.79 F780 E85.683
G1 X145.64 E85.747
G1 Y108.81 E86.896
G1 X144.35 E86.96
G1 Y111.19 E87.079
G1 X145.64 E87.143
G1 Y134.21 E88.292
G1 X144.35 E88.356
G1 Y138 E88.545
G1 X75.65 E91.973
G1 Y134.21 E92.162
G1 X74.36 E92.226
G1 Y111.19 E93.375
G1 X75.65 E93.439
G1 Y108.81 E93.558
G1 X74.36 E93.622
G1 Y85.79 E94.77
G1 X75.65 E94.835
G1 Y82 E95.024
G1 X144.35 E98.451
;rapid-leaky
G1 F236
G0 X143.95 Y82.4
;bead-skirt/brim
G1 Y86.19 F780 E98.64
G1 X145.24 E98.705
G1 Y108.41 E99.813
G1 X143.95 E99.878
G1 Y111.59 E100.036
G1 X145.24 E100.101
G1 Y133.81 E101.209
G1 X143.95 E101.274
G1 Y137.6 E101.463
G1 X76.05 E104.85
G1 Y133.81 E105.039
G1 X74.76 E105.104
G1 Y111.59 E106.212
G1 X76.05 E106.277
G1 Y108.41 E106.435
G1 X74.76 E106.5
G1 Y86.19 E107.608
G1 X76.05 E107.673
G1 Y82.4 E107.862
G1 X143.95 E111.249
;rapid-leaky
G1 F236
G0 X143.55 Y82.8
;bead-skirt/brim
G1 Y86.59 F780 E111.438
G1 X144.84 E111.503
G1 Y108.01 E112.571
G1 X143.55 E112.636
G1 Y111.99 E112.834
G1 X144.84 E112.899
G1 Y133.41 E113.967
G1 X143.55 E114.032
G1 Y137.2 E114.221
G1 X76.45 E117.568
G1 Y133.41 E117.757
G1 X75.16 E117.822
G1 Y111.99 E118.89
G1 X76.45 E118.955
G1 Y108.01 E119.153
G1 X75.16 E119.218
G1 Y86.59 E120.286
G1 X76.45 E120.351
G1 Y82.8 E120.54
G1 X143.55 E123.887
;rapid-leaky
G1 F236
G0 X143.15 Y83.2
;bead-skirt/brim
G1 Y86.99 F780 E124.076
G1 X144.44 E124.141
G1 Y107.61 E125.17
G1 X143.15 E125.234
G1 Y112.39 E125.472
G1 X144.44 E125.537
G1 Y133.01 E126.565
G1 X143.15 E126.63
G1 Y136.8 E126.819
G1 X76.85 E130.127
G1 Y133.01 E130.316
G1 X75.56 E130.38
G1 Y112.39 E131.409
G1 X76.85 E131.473
G1 Y107.61 E131.712
G1 X75.56 E131.776
G1 Y86.99 E132.805
G1 X76.85 E132.869
G1 Y83.2 E133.058
G1 X143.15 E136.366
;rapid-leaky
G1 F236
G0 X142.75 Y83.6
;bead-skirt/brim
G1 Y87.39 F780 E136.555
G1 X144.04 E136.619
G1 Y107.21 E137.608
G1 X142.75 E137.673
G1 Y112.79 E137.951
G1 X144.04 E138.015
G1 Y132.61 E139.004
G1 X142.75 E139.068
G1 Y136.4 E139.258
G1 X77.25 E142.525
G1 Y132.61 E142.714
G1 X75.96 E142.779
G1 Y112.79 E143.768
G1 X77.25 E143.832
G1 Y107.21 E144.11
G1 X75.96 E144.175
G1 Y87.39 E145.164
G1 X77.25 E145.228
G1 Y83.6 E145.417
G1 X142.75 E148.685
;rapid-leaky
G1 F236
G0 X142.35 Y84
;bead-skirt/brim
G1 Y87.79 F780 E148.874
G1 X143.64 E148.938
G1 Y106.81 E149.887
G1 X142.35 E149.951
G1 Y113.19 E150.27
G1 X143.64 E150.334
G1 Y132.21 E151.283
G1 X142.35 E151.347
G1 Y136 E151.537
G1 X77.65 E154.764
G1 Y132.21 E154.953
G1 X76.36 E155.018
G1 Y113.19 E155.967
G1 X77.65 E156.031
G1 Y106.81 E156.349
G1 X76.36 E156.414
G1 Y87.79 E157.363
G1 X77.65 E157.427
G1 Y84 E157.616
G1 X142.35 E160.844
;rapid-leaky
G1 F236
G0 X141.95 Y84.4
;bead-skirt/brim
G1 Y135.6 F780 E163.398
G1 X78.05 E166.586
G1 Y84.4 E169.141
G1 X141.95 E172.329
;rapid-leaky
G1 F236
G0 X142.195 Y88.19
;bead-skirt/brim
G1 X143.24 F780 E172.381
G1 Y106.41 E173.29
G1 X142.195 E173.342
G1 Y88.19 E174.251
;rapid-leaky
G1 F236
G0 Y113.59
;bead-skirt/brim
G1 X143.24 F780 E174.303
G1 Y131.81 E175.212
G1 X142.195 E175.264
G1 Y113.59 E176.173
;rapid-leaky
G1 F236
G0 X77.805
;bead-skirt/brim
G1 Y131.81 F780 E177.082
G1 X76.76 E177.134
G1 Y113.59 E178.043
G1 X77.805 E178.096
;rapid-leaky
G1 F236
G0 Y106.41
;bead-skirt/brim
G1 X76.76 F780 E178.148
G1 Y88.19 E179.057
G1 X77.805 E179.109
G1 Y106.41 E180.018
G1 F1800 E170.018
;rapid-dry
G1 F236
G0 X86.901 Y99.565
G1 F1800 E180.018
;bead-perimeter_inner
G1 X87.308 Y99.94 F780 E180.045
G1 X87.77 Y100.241 E180.073
G1 X88.276 Y100.464 E180.101
G1 X88.812 Y100.599 E180.128
G1 X89.339 Y100.643 E180.154
G1 X97.037 E180.539
G1 X97.356 Y100.667 E180.555
G1 X97.646 Y100.734 E180.569
G1 X97.922 Y100.843 E180.584
G1 X98.177 Y100.993 E180.599
G1 X98.942 Y101.62 E180.648
G1 X99.523 Y101.985 E180.682
G1 X100.149 Y102.273 E180.717
G1 X100.806 Y102.478 E180.751
G1 X101.483 Y102.597 E180.786
G1 X102.171 Y102.628 E180.82
G1 X102.856 Y102.569 E180.854
G1 X103.528 Y102.423 E180.888
G1 X104.177 Y102.192 E180.923
G1 X104.789 Y101.878 E180.957
G1 X105.356 Y101.489 E180.991
G1 X105.868 Y101.029 E181.026
G1 X106.317 Y100.508 E181.06
G1 X106.695 Y99.933 E181.094
G1 X106.996 Y99.314 E181.129
G1 X107.214 Y98.661 E181.163
G1 X107.346 Y97.987 E181.197
G1 X107.391 Y97.3 E181.232
G1 X107.347 Y96.614 E181.266
G1 X107.214 Y95.938 E181.3
G1 X106.996 Y95.286 E181.335
G1 X106.695 Y94.667 E181.369
G1 X106.317 Y94.092 E181.403
G1 X105.868 Y93.571 E181.438
G1 X105.356 Y93.111 E181.472
G1 X104.789 Y92.722 E181.506
G1 X104.177 Y92.408 E181.541
G1 X103.528 Y92.177 E181.575
G1 X102.856 Y92.031 E181.609
G1 X102.171 Y91.972 E181.644
G1 X101.483 Y92.003 E181.678
G1 X100.806 Y92.122 E181.712
G1 X100.149 Y92.327 E181.747
G1 X99.523 Y92.615 E181.781
G1 X98.942 Y92.98 E181.815
G1 X98.176 Y93.608 E181.865
G1 X97.922 Y93.757 E181.879
G1 X97.646 Y93.866 E181.894
G1 X97.355 Y93.933 E181.909
G1 X97.037 Y93.957 E181.925
G1 X89.339 E182.309
G1 X88.812 Y94.001 E182.335
G1 X88.277 Y94.135 E182.363
G1 X87.77 Y94.359 E182.391
G1 X87.308 Y94.661 E182.418
G1 X86.902 Y95.034 E182.446
G1 X86.563 Y95.471 E182.473
G1 X86.299 Y95.956 E182.501
G1 X86.119 Y96.479 E182.528
G1 X86.029 Y97.025 E182.556
G1 Y97.574 E182.583
G1 X86.119 Y98.121 E182.611
G1 X86.299 Y98.644 E182.639
G1 X86.563 Y99.129 E182.666
G1 X86.901 Y99.565 E182.694
;rapid-leaky
G1 F236
G0 X87.171 Y99.318
;bead-perimeter_outer
G1 X87.533 Y99.65 F540 E182.718
G1 X87.944 Y99.919 E182.743
G1 X88.395 Y100.118 E182.767
G1 X88.872 Y100.238 E182.792
G1 X89.354 Y100.278 E182.816
G1 X97.05 E183.2
G1 X97.41 Y100.305 E183.218
G1 X97.754 Y100.384 E183.236
G1 X98.082 Y100.514 E183.253
G1 X98.386 Y100.693 E183.271
G1 X99.156 Y101.323 E183.32
G1 X99.697 Y101.663 E183.352
G1 X100.28 Y101.932 E183.384
G1 X100.892 Y102.123 E183.416
G1 X101.523 Y102.233 E183.448
G1 X102.163 Y102.262 E183.48
G1 X102.802 Y102.207 E183.512
G1 X103.428 Y102.072 E183.544
G1 X104.032 Y101.856 E183.576
G1 X104.602 Y101.564 E183.608
G1 X105.13 Y101.202 E183.64
G1 X105.607 Y100.773 E183.672
G1 X106.025 Y100.288 E183.704
G1 X106.377 Y99.752 E183.736
G1 X106.658 Y99.176 E183.768
G1 X106.861 Y98.568 E183.8
G1 X106.984 Y97.94 E183.832
G1 X107.025 Y97.3 E183.864
G1 X106.984 Y96.661 E183.896
G1 X106.861 Y96.032 E183.928
G1 X106.658 Y95.424 E183.96
G1 X106.377 Y94.848 E183.992
G1 X106.025 Y94.312 E184.024
G1 X105.607 Y93.827 E184.056
G1 X105.13 Y93.398 E184.088
G1 X104.602 Y93.036 E184.12
G1 X104.032 Y92.744 E184.152
G1 X103.428 Y92.528 E184.184
G1 X102.802 Y92.393 E184.215
G1 X102.163 Y92.338 E184.247
G1 X101.523 Y92.367 E184.279
G1 X100.892 Y92.477 E184.311
G1 X100.28 Y92.668 E184.343
G1 X99.697 Y92.937 E184.375
G1 X99.156 Y93.277 E184.407
G1 X98.386 Y93.908 E184.457
G1 X98.082 Y94.086 E184.475
G1 X97.754 Y94.215 E184.492
G1 X97.41 Y94.295 E184.51
G1 X97.05 Y94.322 E184.528
G1 X89.354 E184.912
G1 X88.872 Y94.362 E184.936
G1 X88.395 Y94.482 E184.96
G1 X87.944 Y94.681 E184.985
G1 X87.533 Y94.95 E185.009
G1 X87.171 Y95.282 E185.034
G1 X86.869 Y95.671 E185.059
G1 X86.634 Y96.103 E185.083
G1 X86.474 Y96.569 E185.108
G1 X86.394 Y97.055 E185.132
G1 Y97.545 E185.157
G1 X86.474 Y98.031 E185.181
G1 X86.634 Y98.497 E185.206
G1 X86.869 Y98.929 E185.23
G1 X87.171 Y99.318 E185.255
G1 F1800 E175.255
;rapid-dry
G1 F236
G0 X87.24 Y97.3
G1 F1800 E185.255
;bead-support-structure
G1 X106.177 F2100 E186.2
G1 F1800 E176.2
G1 F236
G0 X105.377
G0 X106.177
;rapid-dry
G1 F236
G0 X113.016 Y97.024
G1 F1800 E186.2
;bead-perimeter_inner
G1 Y97.576 F780 E186.227
G1 X113.107 Y98.121 E186.255
G1 X113.287 Y98.644 E186.282
G1 X113.548 Y99.127 E186.31
G1 X113.889 Y99.566 E186.338
G1 X114.296 Y99.94 E186.365
G1 X114.758 Y100.241 E186.393
G1 X115.264 Y100.464 E186.42
G1 X115.8 Y100.599 E186.448
G1 X116.327 Y100.643 E186.474
G1 X124.025 E186.858
G1 X124.343 Y100.667 E186.874
G1 X124.633 Y100.734 E186.889
G1 X124.909 Y100.843 E186.904
G1 X125.164 Y100.993 E186.919
G1 X125.93 Y101.62 E186.968
G1 X126.511 Y101.985 E187.002
G1 X127.135 Y102.273 E187.036
G1 X127.793 Y102.478 E187.071
G1 X128.47 Y102.597 E187.105
G1 X129.158 Y102.628 E187.139
G1 X129.843 Y102.569 E187.174
G1 X130.515 Y102.423 E187.208
G1 X131.164 Y102.192 E187.242
G1 X131.777 Y101.879 E187.277
G1 X132.344 Y101.489 E187.311
G1 X132.856 Y101.029 E187.346
G1 X133.305 Y100.508 E187.38
G1 X133.682 Y99.933 E187.414
G1 X133.983 Y99.314 E187.448
G1 X134.201 Y98.662 E187.483
G1 X134.335 Y97.987 E187.517
G1 X134.378 Y97.3 E187.551
G1 X134.335 Y96.613 E187.586
G1 X134.201 Y95.938 E187.62
G1 X133.983 Y95.286 E187.654
G1 X133.682 Y94.667 E187.689
G1 X133.306 Y94.093 E187.723
G1 X132.856 Y93.571 E187.757
G1 X132.344 Y93.111 E187.792
G1 X131.777 Y92.722 E187.826
G1 X131.164 Y92.408 E187.86
G1 X130.515 Y92.177 E187.895
G1 X129.843 Y92.031 E187.929
G1 X129.158 Y91.972 E187.963
G1 X128.47 Y92.003 E187.998
G1 X127.793 Y92.122 E188.032
G1 X127.135 Y92.327 E188.066
G1 X126.511 Y92.615 E188.101
G1 X125.93 Y92.98 E188.135
G1 X125.163 Y93.608 E188.184
G1 X124.909 Y93.757 E188.199
G1 X124.633 Y93.866 E188.214
G1 X124.343 Y93.933 E188.229
G1 X124.025 Y93.957 E188.245
G1 X116.327 E188.629
G1 X115.8 Y94.001 E188.655
G1 X115.264 Y94.136 E188.683
G1 X114.758 Y94.359 E188.71
G1 X114.296 Y94.66 E188.738
G1 X113.889 Y95.034 E188.765
G1 X113.549 Y95.471 E188.793
G1 X113.287 Y95.956 E188.82
G1 X113.107 Y96.479 E188.848
G1 X113.016 Y97.024 E188.876
;rapid-leaky
G1 F236
G0 X113.381 Y97.054
;bead-perimeter_outer
G1 Y97.546 F540 E188.9
G1 X113.462 Y98.031 E188.925
G1 X113.622 Y98.497 E188.949
G1 X113.856 Y98.928 E188.974
G1 X114.159 Y99.318 E188.998
G1 X114.521 Y99.65 E189.023
G1 X114.932 Y99.919 E189.047
G1 X115.383 Y100.118 E189.072
G1 X115.86 Y100.238 E189.096
G1 X116.342 Y100.278 E189.121
G1 X124.038 E189.505
G1 X124.398 Y100.305 E189.523
G1 X124.741 Y100.385 E189.54
G1 X125.069 Y100.514 E189.558
G1 X125.373 Y100.693 E189.575
G1 X126.143 Y101.323 E189.625
G1 X126.685 Y101.663 E189.657
G1 X127.267 Y101.932 E189.689
G1 X127.879 Y102.123 E189.721
G1 X128.51 Y102.233 E189.753
G1 X129.15 Y102.262 E189.785
G1 X129.789 Y102.207 E189.817
G1 X130.415 Y102.072 E189.849
G1 X131.019 Y101.856 E189.881
G1 X131.59 Y101.564 E189.913
G1 X132.118 Y101.202 E189.945
G1 X132.595 Y100.773 E189.977
G1 X133.013 Y100.288 E190.009
G1 X133.364 Y99.752 E190.041
G1 X133.645 Y99.176 E190.073
G1 X133.848 Y98.568 E190.104
G1 X133.972 Y97.94 E190.136
G1 X134.012 Y97.3 E190.168
G1 X133.972 Y96.66 E190.2
G1 X133.848 Y96.032 E190.232
G1 X133.645 Y95.424 E190.264
G1 X133.364 Y94.848 E190.296
G1 X133.013 Y94.313 E190.328
G1 X132.595 Y93.827 E190.36
G1 X132.118 Y93.398 E190.392
G1 X131.59 Y93.036 E190.424
G1 X131.019 Y92.744 E190.456
G1 X130.415 Y92.528 E190.488
G1 X129.789 Y92.393 E190.52
G1 X129.15 Y92.338 E190.552
G1 X128.51 Y92.367 E190.584
G1 X127.879 Y92.477 E190.616
G1 X127.267 Y92.668 E190.648
G1 X126.685 Y92.937 E190.68
G1 X126.143 Y93.277 E190.712
G1 X125.373 Y93.908 E190.762
G1 X125.069 Y94.086 E190.779
G1 X124.741 Y94.216 E190.797
G1 X124.398 Y94.295 E190.814
G1 X124.038 Y94.322 E190.832
G1 X116.342 E191.216
G1 X115.86 Y94.362 E191.24
G1 X115.383 Y94.482 E191.265
G1 X114.932 Y94.681 E191.29
G1 X114.521 Y94.95 E191.314
G1 X114.158 Y95.282 E191.339
G1 X113.856 Y95.671 E191.363
G1 X113.622 Y96.103 E191.388
G1 X113.462 Y96.569 E191.412
G1 X113.381 Y97.054 E191.437
G1 F1800 E181.437
;rapid-dry
G1 F236
G0 X114.227 Y97.3
G1 F1800 E191.437
;bead-support-structure
G1 X133.165 F2100 E192.382
G1 F1800 E182.382
G1 F236
G0 X132.365
G0 X133.165
;rapid-dry
G1 F236
G0 X141.185 Y85.165
G1 F1800 E192.382
;bead-perimeter_inner
G1 Y134.835 F780 E194.86
G1 X78.815 E197.971
G1 Y85.165 E200.449
G1 X141.185 E203.561
;rapid-leaky
G1 F236
G0 X141.55 Y84.8
;bead-perimeter_outer
G1 Y135.2 F540 E206.075
G1 X78.45 E209.224
G1 Y84.8 E211.738
G1 X141.55 E214.886
G1 F1800 E204.886
;rapid-dry
G1 F236
G0 X119.076 Y118.127
G1 F1800 E214.886
;bead-perimeter_inner
G1 X118.464 Y117.813 F780 E214.92
G1 X117.817 Y117.582 E214.955
G1 X117.144 Y117.435 E214.989
G1 X116.46 Y117.377 E215.023
G1 X115.774 Y117.407 E215.058
G1 X115.096 Y117.526 E215.092
G1 X114.441 Y117.73 E215.126
G1 X113.817 Y118.017 E215.16
G1 X113.236 Y118.382 E215.195
G1 X112.469 Y119.009 E215.244
G1 X112.216 Y119.156 E215.259
G1 X111.939 Y119.266 E215.274
G1 X111.649 Y119.333 E215.288
G1 X111.331 Y119.357 E215.304
G1 X103.627 E215.689
G1 X103.1 Y119.401 E215.715
G1 X102.564 Y119.536 E215.743
G1 X102.058 Y119.759 E215.77
G1 X101.596 Y120.06 E215.798
G1 X101.189 Y120.434 E215.825
G1 X100.849 Y120.871 E215.853
G1 X100.587 Y121.356 E215.88
G1 X100.408 Y121.879 E215.908
G1 X100.316 Y122.424 E215.936
G1 Y122.976 E215.963
G1 X100.408 Y123.521 E215.991
G1 X100.587 Y124.044 E216.018
G1 X100.848 Y124.527 E216.046
G1 X101.189 Y124.966 E216.073
G1 X101.596 Y125.34 E216.101
G1 X102.058 Y125.641 E216.128
G1 X102.564 Y125.864 E216.156
G1 X103.1 Y125.999 E216.184
G1 X103.627 Y126.043 E216.21
G1 X111.331 E216.594
G1 X111.649 Y126.067 E216.61
G1 X111.939 Y126.134 E216.625
G1 X112.215 Y126.244 E216.64
G1 X112.471 Y126.393 E216.655
G1 X113.236 Y127.018 E216.704
G1 X113.817 Y127.383 E216.738
G1 X114.441 Y127.67 E216.772
G1 X115.096 Y127.874 E216.807
G1 X115.774 Y127.993 E216.841
G1 X116.46 Y128.023 E216.875
G1 X117.144 Y127.965 E216.91
G1 X117.817 Y127.818 E216.944
G1 X118.464 Y127.587 E216.978
G1 X119.076 Y127.273 E217.012
G1 X119.642 Y126.884 E217.047
G1 X120.153 Y126.425 E217.081
G1 X120.602 Y125.905 E217.115
G1 X120.979 Y125.329 E217.15
G1 X121.279 Y124.712 E217.184
G1 X121.497 Y124.061 E217.218
G1 X121.629 Y123.387 E217.252
G1 X121.674 Y122.7 E217.287
G1 X121.629 Y122.014 E217.321
G1 X121.498 Y121.34 E217.355
G1 X121.454 Y121.209 E217.362
G1 X121.279 Y120.688 E217.39
G1 X120.979 Y120.071 E217.424
G1 X120.602 Y119.495 E217.458
G1 X120.153 Y118.975 E217.492
G1 X119.642 Y118.516 E217.527
G1 X119.076 Y118.127 E217.561
;rapid-leaky
G1 F236
G0 X118.889 Y118.441
;bead-perimeter_outer
G1 X118.319 Y118.149 F540 E217.593
G1 X117.716 Y117.933 E217.625
G1 X117.09 Y117.797 E217.657
G1 X116.452 Y117.743 E217.689
G1 X115.813 Y117.771 E217.721
G1 X115.183 Y117.881 E217.753
G1 X114.572 Y118.072 E217.785
G1 X113.991 Y118.339 E217.816
G1 X113.449 Y118.679 E217.848
G1 X112.639 Y119.333 E217.9
G1 X112.375 Y119.486 E217.916
G1 X112.047 Y119.616 E217.933
G1 X111.704 Y119.695 E217.951
G1 X111.344 Y119.722 E217.969
G1 X103.642 E218.353
G1 X103.16 Y119.762 E218.377
G1 X102.683 Y119.882 E218.402
G1 X102.232 Y120.081 E218.426
G1 X101.821 Y120.35 E218.451
G1 X101.458 Y120.682 E218.475
G1 X101.156 Y121.071 E218.5
G1 X100.922 Y121.503 E218.524
G1 X100.762 Y121.969 E218.549
G1 X100.681 Y122.454 E218.574
G1 Y122.946 E218.598
G1 X100.762 Y123.431 E218.623
G1 X100.922 Y123.897 E218.647
G1 X101.156 Y124.328 E218.672
G1 X101.458 Y124.718 E218.696
G1 X101.821 Y125.05 E218.721
G1 X102.232 Y125.319 E218.745
G1 X102.683 Y125.518 E218.77
G1 X103.16 Y125.638 E218.794
G1 X103.642 Y125.678 E218.819
G1 X111.344 E219.203
G1 X111.704 Y125.705 E219.221
G1 X112.047 Y125.785 E219.238
G1 X112.375 Y125.914 E219.256
G1 X112.68 Y126.092 E219.274
G1 X113.449 Y126.721 E219.323
G1 X113.991 Y127.061 E219.355
G1 X114.572 Y127.328 E219.387
G1 X115.183 Y127.519 E219.419
G1 X115.813 Y127.629 E219.451
G1 X116.452 Y127.657 E219.483
G1 X117.09 Y127.603 E219.515
G1 X117.716 Y127.467 E219.547
G1 X118.319 Y127.251 E219.579
G1 X118.889 Y126.959 E219.61
G1 X119.416 Y126.597 E219.642
G1 X119.892 Y126.169 E219.674
G1 X120.31 Y125.685 E219.706
G1 X120.661 Y125.149 E219.738
G1 X120.941 Y124.574 E219.77
G1 X121.144 Y123.967 E219.802
G1 X121.267 Y123.339 E219.834
G1 X121.308 Y122.7 E219.866
G1 X121.267 Y122.061 E219.898
G1 X121.144 Y121.433 E219.93
G1 X121.108 Y121.325 E219.936
G1 X120.941 Y120.826 E219.962
G1 X120.661 Y120.251 E219.994
G1 X120.31 Y119.715 E220.026
G1 X119.892 Y119.231 E220.058
G1 X119.416 Y118.804 E220.089
G1 X118.889 Y118.441 E220.121
G1 F1800 E210.121
;rapid-dry
G1 F236
G0 X120.46 Y122.7
G1 F1800 E220.121
;bead-support-structure
G1 X101.527 F2100 E221.066
G1 F1800 E211.066
G1 F236
G0 X102.327
G0 X101.527
;rapid-dry
G1 F236
G0 X102.337 Y119.286
G1 F1800 E221.066
;bead-solid_infill
G1 X120.66 Y100.963 F1200 E222.359
G1 X121.226 E222.387
G1 X103.11 Y119.079 E223.665
G1 X103.613 Y119.037 E223.69
G1 X103.718 E223.696
G1 X121.792 Y100.963 E224.971
G1 X122.357 E224.999
G1 X104.283 Y119.037 E226.274
G1 X104.849 E226.302
G1 X122.923 Y100.963 E227.578
G1 X123.489 E227.606
G1 X105.415 Y119.037 E228.881
G1 X105.98 E228.909
G1 X124.051 Y100.966 E230.184
G1 X124.294 Y100.984 E230.196
G1 X124.416 Y101.012 E230.203
G1 X124.537 Y101.04 E230.209
G1 X124.541 Y101.042
G1 X106.546 Y119.037 E231.479
G1 X107.112 E231.507
G1 X124.925 Y101.224 E232.764
G1 X124.981 Y101.257 E232.767
G1 X125.243 Y101.471 E232.784
G1 X107.677 Y119.037 E234.023
G1 X108.243 E234.051
G1 X125.554 Y101.726 E235.273
G1 X125.742 Y101.88 E235.285
G1 X125.88 Y101.966 E235.293
G1 X108.809 Y119.037 E236.498
G1 X109.374 E236.526
G1 X126.227 Y102.184 E237.715
G1 X126.358 Y102.267 E237.723
G1 X126.599 Y102.378 E237.736
G1 X109.94 Y119.037 E238.911
G1 X110.506 E238.939
G1 X126.986 Y102.557 E240.102
G1 X127.02 Y102.573 E240.104
G1 X127.413 Y102.695 E240.125
G1 X111.071 Y119.037 E241.278
G1 X111.318 E241.29
G1 X111.6 Y119.016 E241.304
G1 X111.676 Y118.998 E241.308
G1 X127.859 Y102.815 E242.45
G1 X128.341 Y102.899 E242.474
G1 X113.235 Y118.005 E243.54
G1 X113.664 Y117.735 E243.565
G1 X114.326 Y117.431 E243.602
G1 X114.396 Y117.409 E243.605
G1 X128.87 Y102.935 E244.626
G1 X129.164 Y102.949 E244.641
G1 X129.447 Y102.924 E244.655
G1 X115.186 Y117.185 E245.661
G1 X115.739 Y117.088 E245.689
G1 X115.854 Y117.083 E245.695
G1 X130.095 Y102.842 E246.7
G1 X130.469 Y102.761 E246.719
G1 X130.604 Y102.732 E246.726
G1 X130.864 Y102.639 E246.74
G1 X116.445 Y117.057 E247.757
G1 X116.466 Y117.056 E247.758
G1 X116.969 Y117.099 E247.783
G1 X131.887 Y102.182 E248.836
G1 F1800 E238.836
;rapid-dry
G1 F236
G0 X121.996 Y85.485
G1 F1800 E248.836
;bead-solid_infill
G1 X79.135 Y128.346 F1200 E251.86
G1 Y128.912 E251.888
G1 X122.562 Y85.485 E254.952
G1 X123.127 E254.98
G1 X114.406 Y94.206 E255.596
G1 X114.605 Y94.076 E255.607
G1 X114.867 Y93.961 E255.622
G1 X115.16 Y93.832 E255.638
G1 X115.409 Y93.769 E255.65
G1 X123.693 Y85.485 E256.235
G1 X124.259 E256.263
G1 X116.088 Y93.656 E256.84
G1 X116.313 Y93.637 E256.851
G1 X116.672 E256.869
G1 X124.824 Y85.485 E257.444
G1 X125.39 E257.472
G1 X117.238 Y93.637 E258.047
G1 X117.804 E258.076
G1 X125.956 Y85.485 E258.651
G1 X126.521 E258.679
G1 X118.369 Y93.637 E259.254
G1 X118.935 E259.282
G1 X127.087 Y85.485 E259.858
G1 X127.653 E259.886
G1 X119.501 Y93.637 E260.461
G1 X120.067 E260.489
G1 X128.219 Y85.485 E261.064
G1 X128.784 E261.093
G1 X120.632 Y93.637 E261.668
G1 X121.198 E261.696
G1 X129.35 Y85.485 E262.271
G1 X129.916 E262.299
G1 X121.764 Y93.637 E262.875
G1 X122.329 E262.903
G1 X130.481 Y85.485 E263.478
G1 X131.047 E263.506
G1 X122.895 Y93.637 E264.081
G1 X123.461 E264.11
G1 X131.613 Y85.485 E264.685
G1 X132.178 E264.713
G1 X124.027 Y93.636 E265.288
G1 X124.294 Y93.616 E265.301
G1 X124.537 Y93.56 E265.314
G1 X124.756 Y93.473 E265.326
G1 X132.744 Y85.485 E265.889
G1 X133.31 E265.917
G1 X126.55 Y92.245 E266.394
G1 X127.02 Y92.027 E266.42
G1 X127.475 Y91.886 E266.444
G1 X133.875 Y85.485 E266.896
G1 X134.441 E266.924
G1 X128.201 Y91.726 E267.364
G1 X128.435 Y91.684 E267.376
G1 X128.825 Y91.667 E267.395
G1 X135.007 Y85.485 E267.832
G1 X135.572 E267.86
G1 X129.387 Y91.671 E268.296
G1 X129.891 Y91.714 E268.321
G1 X129.906 Y91.717 E268.322
G1 X136.138 Y85.485 E268.762
G1 X136.704 E268.79
G1 X130.371 Y91.818 E269.237
G1 X130.604 Y91.868 E269.249
G1 X130.812 Y91.943 E269.26
G1 X137.27 Y85.485 E269.715
G1 X137.835 E269.744
G1 X131.229 Y92.092 E270.21
G1 X131.291 Y92.114 E270.213
G1 X131.609 Y92.277 E270.231
G1 X138.401 Y85.485 E270.71
G1 X138.967 E270.738
G1 X131.979 Y92.472 E271.231
G1 X132.315 Y92.703 E271.252
G1 X139.532 Y85.485 E271.761
G1 X140.098 E271.789
G1 X132.638 Y92.945 E272.315
G1 X132.936 Y93.212 E272.335
G1 X140.664 Y85.485 E272.881
G1 X140.865 E272.891
G1 Y85.849 E272.909
G1 X133.216 Y93.498 E273.449
G1 X133.478 Y93.802 E273.469
G1 X140.865 Y86.415 E273.99
G1 Y86.981 E274.018
G1 X133.714 Y94.132 E274.523
G1 X133.938 Y94.474 E274.543
G1 X140.865 Y87.546 E275.032
G1 Y88.112 E275.06
G1 X134.127 Y94.85 E275.535
G1 X134.28 Y95.165 E275.553
G1 X134.305 Y95.238 E275.557
G1 X140.865 Y88.678 E276.02
G1 Y89.243 E276.048
G1 X134.446 Y95.662 E276.501
G1 X134.511 Y95.856 E276.511
G1 X134.562 Y96.112 E276.524
G1 X140.865 Y89.809 E276.969
G1 Y90.375 E276.997
G1 X134.653 Y96.586 E277.435
G1 X134.687 Y97.118 E277.462
G1 X140.865 Y90.94 E277.898
G1 Y91.506 E277.926
G1 X134.674 Y97.698 E278.363
G1 X134.653 Y98.028 E278.379
G1 X134.59 Y98.347 E278.395
G1 X140.865 Y92.072 E278.838
G1 Y92.638 E278.866
G1 X134.387 Y99.116 E279.323
G1 X134.28 Y99.435 E279.34
G1 X133.961 Y100.091 E279.377
G1 X133.93 Y100.138 E279.379
G1 X140.865 Y93.203 E279.869
G1 Y93.769 E279.897
G1 X117.458 Y117.176 E281.548
G1 X117.905 Y117.274 E281.571
G1 X117.921 Y117.279 E281.572
G1 X140.865 Y94.335 E283.191
G1 Y94.9 E283.219
G1 X118.337 Y117.428 E284.809
G1 X118.591 Y117.519 E284.822
G1 X118.737 Y117.594 E284.83
G1 X140.865 Y95.466 E286.391
G1 Y96.032 E286.42
G1 X119.111 Y117.785 E287.954
G1 X119.24 Y117.851 E287.962
G1 X119.46 Y118.002 E287.975
G1 X140.865 Y96.597 E289.485
G1 Y97.163 E289.513
G1 X119.795 Y118.233 E291
G1 X119.841 Y118.264 E291.003
G1 X120.098 Y118.495 E291.02
G1 X140.865 Y97.729 E292.485
G1 Y98.294 E292.514
G1 X120.395 Y118.765 E293.958
G1 X120.657 Y119.068 E293.978
G1 X140.865 Y98.86 E295.404
G1 Y99.426 E295.432
G1 X120.91 Y119.381 E296.84
G1 X121.134 Y119.723 E296.86
G1 X140.865 Y99.991 E298.252
G1 Y100.557 E298.281
G1 X121.34 Y120.082 E299.658
G1 X121.478 Y120.365 E299.674
G1 X121.525 Y120.462 E299.679
G1 X140.865 Y101.123 E301.044
G1 Y101.689 E301.072
G1 X121.679 Y120.874 E302.426
G1 X121.758 Y121.108 E302.438
G1 X121.783 Y121.185 E302.442
G1 X121.808 Y121.258 E302.446
G1 X121.816 Y121.303 E302.448
G1 X140.865 Y102.254 E303.792
G1 Y102.82 E303.82
G1 X121.909 Y121.776 E305.158
G1 X121.947 Y121.973 E305.168
G1 X121.951 Y122.029 E305.171
G1 X121.968 Y122.283 E305.183
G1 X140.865 Y103.386 E306.517
G1 Y103.951 E306.545
G1 X121.986 Y122.83 E307.877
G1 X121.947 Y123.428 E307.907
G1 X121.946 Y123.436
G1 X140.865 Y104.517 E309.242
G1 Y105.083 E309.27
G1 X121.808 Y124.14 E310.615
G1 X121.807 Y124.143
G1 X121.685 Y124.508 E310.634
G1 X121.576 Y124.833 E310.651
G1 X121.478 Y125.035 E310.662
G1 X140.865 Y105.648 E312.03
G1 Y106.214 E312.059
G1 X112.564 Y134.515 E314.055
G1 X113.13 E314.084
G1 X140.865 Y106.78 E316.04
G1 Y107.345 E316.069
G1 X113.695 Y134.515 E317.986
G1 X114.261 E318.014
G1 X140.865 Y107.911 E319.891
G1 Y108.477 E319.919
G1 X114.827 Y134.515 E321.756
G1 X115.392 E321.784
G1 X140.865 Y109.042 E323.582
G1 Y109.608 E323.61
G1 X115.958 Y134.515 E325.367
G1 X116.524 E325.395
G1 X140.865 Y110.174 E327.113
G1 Y110.739 E327.141
G1 X117.089 Y134.515 E328.819
G1 X117.655 E328.847
G1 X140.865 Y111.305 E330.484
G1 Y111.871 E330.513
G1 X118.221 Y134.515 E332.11
G1 X118.787 E332.139
G1 X140.865 Y112.437 E333.696
G1 Y113.002 E333.724
G1 X119.352 Y134.515 E335.242
G1 X119.918 E335.271
G1 X140.865 Y113.568 E336.748
G1 Y114.134 E336.777
G1 X120.484 Y134.515 E338.215
G1 X121.049 E338.243
G1 X140.865 Y114.699 E339.641
G1 Y115.265 E339.669
G1 X121.615 Y134.515 E341.027
G1 X122.181 E341.056
G1 X140.865 Y115.831 E342.374
G1 Y116.396 E342.402
G1 X122.746 Y134.515 E343.681
G1 X123.312 E343.709
G1 X140.865 Y116.962 E344.947
G1 Y117.528 E344.975
G1 X123.878 Y134.515 E346.174
G1 X124.443 E346.202
G1 X140.865 Y118.093 E347.361
G1 Y118.659 E347.389
G1 X125.009 Y134.515 E348.508
G1 X125.575 E348.536
G1 X140.865 Y119.225 E349.615
G1 Y119.79 E349.643
G1 X126.14 Y134.515 E350.682
G1 X126.706 E350.71
G1 X140.865 Y120.356 E351.709
G1 Y120.922 E351.737
G1 X127.272 Y134.515 E352.696
G1 X127.837 E352.725
G1 X140.865 Y121.487 E353.644
G1 Y122.053 E353.672
G1 X128.403 Y134.515 E354.551
G1 X128.969 E354.58
G1 X140.865 Y122.619 E355.419
G1 Y123.185 E355.447
G1 X129.535 Y134.515 E356.247
G1 X130.1 E356.275
G1 X140.865 Y123.75 E357.034
G1 Y124.316 E357.063
G1 X130.666 Y134.515 E357.782
G1 X131.232 E357.81
G1 X140.865 Y124.882 E358.49
G1 Y125.447 E358.518
G1 X131.797 Y134.515 E359.158
G1 X132.363 E359.186
G1 X140.865 Y126.013 E359.786
G1 Y126.579 E359.814
G1 X132.929 Y134.515 E360.374
G1 X133.494 E360.402
G1 X140.865 Y127.144 E360.923
G1 Y127.71 E360.951
G1 X134.06 Y134.515 E361.431
G1 X134.626 E361.459
G1 X140.865 Y128.276 E361.899
G1 Y128.841 E361.928
G1 X135.191 Y134.515 E362.328
G1 X135.757 E362.356
G1 X140.865 Y129.407 E362.716
G1 Y129.973 E362.745
G1 X136.323 Y134.515 E363.065
G1 X136.888 E363.093
G1 X140.865 Y130.538 E363.374
G1 Y131.104 E363.402
G1 X137.454 Y134.515 E363.643
G1 X138.02 E363.671
G1 X140.865 Y131.67 E363.872
G1 Y132.236 E363.9
G1 X138.586 Y134.515 E364.061
G1 X139.151 E364.089
G1 X140.865 Y132.801 E364.21
G1 Y133.367 E364.238
G1 X139.717 Y134.515 E364.319
G1 X140.283 E364.347
G1 X140.865 Y133.933 E364.389
G1 Y134.498 E364.417
G1 X140.848 Y134.515 E364.418
G1 F1800 E354.418
;rapid-dry
G1 F236
G0 X118.676 Y127.838
G1 F1800 E364.418
;bead-solid_infill
G1 X111.998 Y134.515 F1200 E364.889
G1 X111.433 E364.917
G1 X117.798 Y128.15 E365.366
G1 X117.192 Y128.282 E365.397
G1 X117.091 Y128.291 E365.402
G1 X110.867 Y134.515 E365.841
G1 X110.301 E365.87
G1 X116.473 Y128.343 E366.305
G1 X116.466 Y128.344 E366.306
G1 X116.105 Y128.328 E366.324
G1 X115.93 Y128.32 E366.332
G1 X109.736 Y134.515 E366.769
G1 X109.17 E366.798
G1 X115.428 Y128.257 E367.239
G1 X115.319 Y128.238 E367.245
G1 X115.021 Y128.186 E367.26
G1 X114.954 Y128.165 E367.263
G1 X108.604 Y134.515 E367.711
G1 X108.038 E367.739
G1 X114.523 Y128.03 E368.197
G1 X114.326 Y127.969 E368.207
G1 X114.116 Y127.872 E368.219
G1 X107.473 Y134.515 E368.688
G1 X106.907 E368.716
G1 X113.728 Y127.694 E369.197
G1 X113.664 Y127.665 E369.2
G1 X113.374 Y127.483 E369.218
G1 X106.341 Y134.515 E369.714
G1 X105.776 E369.742
G1 X113.029 Y127.262 E370.254
G1 X112.718 Y127.008 E370.274
G1 X105.21 Y134.515 E370.803
G1 X104.644 E370.832
G1 X112.406 Y126.753 E371.379
G1 X112.288 Y126.656 E371.387
G1 X112.075 Y126.532 E371.399
G1 X112.065 Y126.528 E371.4
G1 X104.079 Y134.515 E371.963
G1 X103.513 E371.991
G1 X111.636 Y126.393 E372.565
G1 X111.6 Y126.384 E372.566
G1 X111.318 Y126.363 E372.581
G1 X111.099 E372.591
G1 X102.947 Y134.515 E373.167
G1 X102.382 E373.195
G1 X110.534 Y126.363 E373.77
G1 X109.968 E373.798
G1 X101.816 Y134.515 E374.373
G1 X101.25 E374.402
G1 X109.402 Y126.363 E374.977
G1 X108.837 E375.005
G1 X100.685 Y134.515 E375.58
G1 X100.119 E375.608
G1 X108.271 Y126.363 E376.184
G1 X107.705 E376.212
G1 X99.553 Y134.515 E376.787
G1 X98.988 E376.815
G1 X107.14 Y126.363 E377.39
G1 X106.574 E377.419
G1 X98.422 Y134.515 E377.994
G1 X97.856 E378.022
G1 X106.008 Y126.363 E378.597
G1 X105.442 E378.625
G1 X97.29 Y134.515 E379.201
G1 X96.725 E379.229
G1 X104.877 Y126.363 E379.804
G1 X104.311 E379.832
G1 X96.159 Y134.515 E380.407
G1 X95.593 E380.436
G1 X103.745 Y126.363 E381.011
G1 X103.613 E381.017
G1 X103.213 Y126.33 E381.037
G1 X95.028 Y134.515 E381.615
G1 X94.462 E381.643
G1 X102.739 Y126.238 E382.227
G1 X102.46 Y126.168 E382.241
G1 X102.309 Y126.102 E382.25
G1 X93.896 Y134.515 E382.843
G1 X93.331 E382.871
G1 X101.917 Y125.929 E383.477
G1 X101.905 Y125.924 E383.478
G1 X101.573 Y125.707 E383.498
G1 X92.765 Y134.515 E384.119
G1 X92.199 E384.147
G1 X101.254 Y125.46 E384.786
G1 X101 Y125.228 E384.803
G1 X100.959 Y125.19 E384.806
G1 X91.634 Y134.515 E385.464
G1 X91.068 E385.492
G1 X100.711 Y124.872 E386.173
G1 X100.579 Y124.703 E386.183
G1 X100.486 Y124.531 E386.193
G1 X90.502 Y134.515 E386.898
G1 X89.937 E386.926
G1 X100.289 Y124.162 E387.656
G1 X100.145 Y123.741 E387.678
G1 X89.371 Y134.515 E388.439
G1 X88.805 E388.467
G1 X100.042 Y123.278 E389.26
G1 X99.996 Y123.003 E389.274
G1 Y122.759 E389.286
G1 X88.24 Y134.515 E390.115
G1 X87.674 E390.143
G1 X100.037 Y122.152 E391.016
G1 X100.096 Y121.8 E391.034
G1 X100.239 Y121.384 E391.055
G1 X87.108 Y134.515 E391.982
G1 X86.542 E392.01
G1 X120.094 Y100.963 E394.377
G1 X119.529 E394.406
G1 X85.977 Y134.515 E396.773
G1 X85.411 E396.801
G1 X118.963 Y100.963 E399.168
G1 X118.397 E399.197
G1 X84.845 Y134.515 E401.564
G1 X84.28 E401.592
G1 X117.832 Y100.963 E403.959
G1 X117.266 E403.988
G1 X83.714 Y134.515 E406.355
G1 X83.148 E406.383
G1 X116.7 Y100.963 E408.75
G1 X116.313 E408.77
G1 X116.27 Y100.959 E408.772
G1 X116.148 Y100.949 E408.778
G1 X82.583 Y134.515 E411.146
G1 X82.017 E411.174
G1 X115.642 Y100.89 E413.547
G1 X115.19 Y100.776 E413.57
G1 X81.451 Y134.515 E415.951
G1 X80.886 E415.979
G1 X114.794 Y100.607 E418.371
G1 X114.605 Y100.524 E418.382
G1 X114.427 Y100.408 E418.392
G1 X80.32 Y134.515 E420.799
G1 X79.754 E420.827
G1 X114.087 Y100.182 E423.249
G1 X113.792 Y99.911 E423.269
G1 X79.189 Y134.515 E425.711
G1 X79.135 E425.713
G1 Y134.003 E425.739
G1 X113.522 Y99.616 E428.165
G1 X113.279 Y99.303 E428.185
G1 X113.276 Y99.296
G1 X79.135 Y133.437 E430.594
G1 Y132.871 E430.622
G1 X113.077 Y98.929 E433.017
G1 X112.993 Y98.773 E433.026
G1 X112.91 Y98.531 E433.039
G1 X79.135 Y132.306 E435.422
G1 Y131.74 E435.45
G1 X112.779 Y98.096 E437.824
G1 X112.698 Y97.612 E437.848
G1 X79.135 Y131.174 E440.216
G1 Y130.609 E440.244
G1 X112.696 Y97.048 E442.612
G1 Y96.997 E442.615
G1 X112.796 Y96.4 E442.645
G1 X112.806 Y96.372 E442.646
G1 X79.135 Y130.043 E445.022
G1 Y129.477 E445.05
G1 X113.238 Y95.375 E447.456
G1 F1800 E437.456
;rapid-dry
G1 F236
G0 X96.54 Y85.485
G1 F1800 E447.456
;bead-solid_infill
G1 X88.2 Y93.825 F1200 E448.045
G1 X88.759 Y93.684 E448.074
G1 X88.92 Y93.671 E448.082
G1 X97.106 Y85.485 E448.659
G1 X97.672 E448.687
G1 X89.52 Y93.637 E449.263
G1 X90.085 E449.291
G1 X98.237 Y85.485 E449.866
G1 X98.803 E449.894
G1 X90.651 Y93.637 E450.469
G1 X91.217 E450.498
G1 X99.369 Y85.485 E451.073
G1 X99.934 E451.101
G1 X91.782 Y93.637 E451.676
G1 X92.348 E451.704
G1 X100.5 Y85.485 E452.28
G1 X101.066 E452.308
G1 X92.914 Y93.637 E452.883
G1 X93.479 E452.911
G1 X101.631 Y85.485 E453.486
G1 X102.197 E453.515
G1 X94.045 Y93.637 E454.09
G1 X94.611 E454.118
G1 X102.763 Y85.485 E454.693
G1 X103.328 E454.721
G1 X95.176 Y93.637 E455.297
G1 X95.742 E455.325
G1 X103.894 Y85.485 E455.9
G1 X104.46 E455.928
G1 X96.308 Y93.637 E456.503
G1 X96.873 E456.531
G1 X105.025 Y85.485 E457.107
G1 X105.591 E457.135
G1 X97.507 Y93.57 E457.705
G1 X97.55 Y93.56 E457.708
G1 X97.781 Y93.468 E457.72
G1 X97.993 Y93.344 E457.732
G1 X98.755 Y92.72 E457.781
G1 X99.204 Y92.438 E457.808
G1 X106.157 Y85.485 E458.298
G1 X106.722 E458.327
G1 X100.247 Y91.961 E458.783
G1 X100.73 Y91.81 E458.809
G1 X101.012 Y91.761 E458.823
G1 X107.288 Y85.485 E459.266
G1 X107.854 E459.294
G1 X101.664 Y91.675 E459.731
G1 X102.177 Y91.651 E459.756
G1 X102.247 Y91.657 E459.76
G1 X108.42 Y85.485 E460.195
G1 X108.985 E460.224
G1 X102.768 Y91.702 E460.662
G1 X102.904 Y91.714 E460.669
G1 X103.248 Y91.788 E460.687
G1 X109.551 Y85.485 E461.131
G1 X110.117 E461.16
G1 X103.703 Y91.899 E461.612
G1 X104.119 Y92.048 E461.634
G1 X110.682 Y85.485 E462.097
G1 X111.248 E462.125
G1 X104.512 Y92.221 E462.601
G1 X104.887 Y92.412 E462.622
G1 X111.814 Y85.485 E463.11
G1 X112.379 E463.139
G1 X105.229 Y92.636 E463.643
G1 X105.554 Y92.859 E463.663
G1 X105.563 Y92.867
G1 X112.945 Y85.485 E464.184
G1 X113.511 E464.212
G1 X105.861 Y93.134 E464.752
G1 X106.098 Y93.346 E464.768
G1 X106.152 Y93.41 E464.772
G1 X114.076 Y85.485 E465.331
G1 X114.642 E465.36
G1 X106.414 Y93.714 E465.94
G1 X106.573 Y93.899 E465.952
G1 X106.661 Y94.032 E465.96
G1 X115.208 Y85.485 E466.563
G1 X115.773 E466.592
G1 X106.885 Y94.373 E467.219
G1 X106.939 Y94.456 E467.224
G1 X106.974 Y94.508 E467.227
G1 X107.086 Y94.738 E467.239
G1 X116.339 Y85.485 E467.892
G1 X116.905 E467.921
G1 X107.271 Y95.119 E468.6
G1 X107.293 Y95.165 E468.603
G1 X107.418 Y95.538 E468.622
G1 X117.471 Y85.485 E469.332
G1 X118.036 E469.36
G1 X107.547 Y95.974 E470.1
G1 X107.64 Y96.447 E470.124
G1 X118.602 Y85.485 E470.897
G1 X119.168 E470.926
G1 X107.69 Y96.963 E471.736
G1 X107.712 Y97.3 E471.752
G1 X107.697 Y97.521 E471.763
G1 X119.733 Y85.485 E472.613
G1 X120.299 E472.641
G1 X107.642 Y98.142 E473.534
G1 X107.525 Y98.743 E473.564
G1 X107.483 Y98.866 E473.571
G1 X120.865 Y85.485 E474.515
G1 X121.43 E474.543
G1 X107.116 Y99.799 E475.553
G1 X106.974 Y100.092 E475.569
G1 X106.573 Y100.701 E475.606
G1 X106.098 Y101.254 E475.642
G1 X105.811 Y101.511 E475.661
G1 X105.554 Y101.741 E475.679
G1 X104.953 Y102.154 E475.715
G1 X104.561 Y102.355 E475.737
G1 X79.135 Y127.78 E477.531
G1 Y127.215 E477.559
G1 X103.619 Y102.731 E479.286
G1 X103.617 Y102.732 E479.287
G1 X102.904 Y102.886 E479.323
G1 X102.898
G1 X79.135 Y126.649 E481
G1 Y126.083 E481.028
G1 X102.278 Y102.94 E482.661
G1 X102.177 Y102.949 E482.666
G1 X101.724 Y102.928 E482.689
G1 X79.135 Y125.518 E484.282
G1 Y124.952 E484.311
G1 X101.213 Y102.874 E485.868
G1 X101.089 Y102.853 E485.875
G1 X100.731 Y102.79 E485.893
G1 X79.135 Y124.386 E487.417
G1 Y123.821 E487.445
G1 X100.3 Y102.656 E488.938
G1 X100.034 Y102.573 E488.952
G1 X99.885 Y102.504 E488.96
G1 X79.135 Y123.255 E490.424
G1 Y122.689 E490.452
G1 X99.498 Y102.326 E491.889
G1 X99.37 Y102.267 E491.896
G1 X99.138 Y102.121 E491.91
G1 X79.135 Y122.123 E493.321
G1 Y121.558 E493.349
G1 X98.791 Y101.902 E494.736
G1 X98.755 Y101.88 E494.738
G1 X98.476 Y101.651 E494.756
G1 X79.135 Y120.992 E496.121
G1 Y120.426 E496.149
G1 X98.165 Y101.397 E497.492
G1 X97.994 Y101.257 E497.503
G1 X97.833 Y101.162 E497.512
G1 X79.135 Y119.861 E498.831
G1 Y119.295 E498.86
G1 X97.42 Y101.01 E500.15
G1 X97.308 Y100.985 E500.155
G1 X97.024 Y100.963 E500.17
G1 X96.901 E500.176
G1 X79.135 Y118.729 E501.429
G1 Y118.164 E501.457
G1 X96.336 Y100.963 E502.671
G1 X95.77 E502.699
G1 X79.135 Y117.598 E503.873
G1 Y117.032 E503.901
G1 X95.204 Y100.963 E505.035
G1 X94.639 E505.063
G1 X79.135 Y116.467 E506.157
G1 Y115.901 E506.185
G1 X94.073 Y100.963 E507.239
G1 X93.507 E507.267
G1 X79.135 Y115.335 E508.281
G1 Y114.77 E508.31
G1 X92.942 Y100.963 E509.284
G1 X92.376 E509.312
G1 X79.135 Y114.204 E510.246
G1 Y113.638 E510.274
G1 X91.81 Y100.963 E511.169
G1 X91.244 E511.197
G1 X79.135 Y113.073 E512.051
G1 Y112.507 E512.08
G1 X90.679 Y100.963 E512.894
G1 X90.113 E512.922
G1 X79.135 Y111.941 E513.697
G1 Y111.375 E513.725
G1 X89.547 Y100.963 E514.46
G1 X89.325 E514.471
G1 X89.008 Y100.937 E514.487
G1 X79.135 Y110.81 E515.183
G1 Y110.244 E515.212
G1 X88.523 Y100.856 E515.874
G1 X88.274 Y100.794 E515.887
G1 X88.172 Y100.768 E515.892
G1 X88.084 Y100.729 E515.897
G1 X79.135 Y109.678 E516.528
G1 Y109.113 E516.556
G1 X87.691 Y100.556 E517.16
G1 X87.617 Y100.524 E517.164
G1 X87.34 Y100.342 E517.181
G1 X79.135 Y108.547 E517.759
G1 Y107.981 E517.788
G1 X87.013 Y100.103 E518.344
G1 X86.719 Y99.832 E518.364
G1 X79.135 Y107.416 E518.899
G1 Y106.85 E518.927
G1 X86.463 Y99.522 E519.444
G1 X86.294 Y99.305 E519.458
G1 X86.231 Y99.189 E519.464
G1 X79.135 Y106.284 E519.965
G1 Y105.719 E519.993
G1 X86.031 Y98.822 E520.48
G1 X86.005 Y98.773 E520.482
G1 X85.887 Y98.43 E520.5
G1 X85.88 Y98.408 E520.502
G1 X79.135 Y105.153 E520.977
G1 Y104.587 E521.006
G1 X85.768 Y97.955 E521.474
G1 X85.709 Y97.6 E521.492
G1 Y97.448 E521.499
G1 X79.135 Y104.022 E521.963
G1 Y103.456 E521.991
G1 X85.732 Y96.859 E522.457
G1 X85.808 Y96.401 E522.48
G1 X85.904 Y96.121 E522.495
G1 X79.135 Y102.89 E522.972
G1 Y102.324 E523
G1 X95.974 Y85.485 E524.189
G1 X95.409 E524.217
G1 X79.135 Y101.759 E525.365
G1 Y101.193 E525.393
G1 X94.843 Y85.485 E526.502
G1 X94.277 E526.53
G1 X79.135 Y100.627 E527.598
G1 Y100.062 E527.626
G1 X93.712 Y85.485 E528.655
G1 X93.146 E528.683
G1 X79.135 Y99.496 E529.672
G1 Y98.93 E529.7
G1 X92.58 Y85.485 E530.648
G1 X92.015 E530.677
G1 X79.135 Y98.365 E531.585
G1 Y97.799 E531.614
G1 X91.449 Y85.485 E532.482
G1 X90.883 E532.511
G1 X79.135 Y97.233 E533.34
G1 Y96.668 E533.368
G1 X90.318 Y85.485 E534.157
G1 X89.752 E534.185
G1 X79.135 Y96.102 E534.934
G1 Y95.536 E534.962
G1 X89.186 Y85.485 E535.671
G1 X88.621 E535.7
G1 X79.135 Y94.971 E536.369
G1 Y94.405 E536.397
G1 X88.055 Y85.485 E537.026
G1 X87.489 E537.055
G1 X79.135 Y93.839 E537.644
G1 Y93.274 E537.672
G1 X86.924 Y85.485 E538.222
G1 X86.358 E538.25
G1 X79.135 Y92.708 E538.76
G1 Y92.142 E538.788
G1 X85.792 Y85.485 E539.258
G1 X85.226 E539.286
G1 X79.135 Y91.576 E539.716
G1 Y91.011 E539.744
G1 X84.661 Y85.485 E540.134
G1 X84.095 E540.162
G1 X79.135 Y90.445 E540.512
G1 Y89.879 E540.54
G1 X83.529 Y85.485 E540.85
G1 X82.964 E540.878
G1 X79.135 Y89.314 E541.149
G1 Y88.748 E541.177
G1 X82.398 Y85.485 E541.407
G1 X81.832 E541.435
G1 X79.135 Y88.182 E541.626
G1 Y87.617 E541.654
G1 X81.267 Y85.485 E541.804
G1 X80.701 E541.832
G1 X79.135 Y87.051 E541.943
G1 Y86.485 E541.971
G1 X80.135 Y85.485 E542.042
G1 X79.57 E542.07
G1 X79.135 Y85.92 E542.101
G1 F1800 E532.101
;Layer : 2 of 976
M106 S255
;rapid-leaky
G1 F236
G0 X78.815 Y85.165 Z0.5
G1 F1800 E542.101
;bead-perimeter_inner
G1 X141.185 F1560 E544.175
G1 Y134.835 E545.827
G1 X78.815 E547.901
G1 Y85.165 E549.553
;rapid-leaky
G1 F236
G0 X78.45 Y84.8
;bead-perimeter_outer
G1 X141.55 F1080 E551.652
G1 Y135.2 E553.328
G1 X78.45 E555.427
G1 Y84.8 E557.104
G1 F1800 E547.104
;rapid-dry
G1 F236
G0 X87.308 Y94.661
G1 F1800 E557.104
;bead-perimeter_inner
G1 X86.902 Y95.034 F1560 E557.122
G1 X86.563 Y95.471 E557.14
G1 X86.299 Y95.956 E557.159
G1 X86.119 Y96.479 E557.177
G1 X86.029 Y97.025 E557.195
G1 Y97.575 E557.214
G1 X86.119 Y98.121 E557.232
G1 X86.299 Y98.644 E557.251
G1 X86.563 Y99.129 E557.269
G1 X86.902 Y99.566 E557.287
G1 X87.308 Y99.939 E557.306
G1 X87.77 Y100.241 E557.324
G1 X88.276 Y100.464 E557.342
G1 X88.812 Y100.599 E557.361
G1 X89.339 Y100.643 E557.378
G1 X97.037 E557.634
G1 X97.356 Y100.667 E557.645
G1 X97.645 Y100.734 E557.655
G1 X97.922 Y100.843 E557.665
G1 X98.177 Y100.993 E557.675
G1 X98.942 Y101.62 E557.708
G1 X99.523 Y101.985 E557.73
G1 X100.149 Y102.273 E557.753
G1 X100.806 Y102.478 E557.776
G1 X101.483 Y102.597 E557.799
G1 X102.171 Y102.628 E557.822
G1 X102.856 Y102.569 E557.845
G1 X103.528 Y102.424 E557.868
G1 X104.177 Y102.192 E557.891
G1 X104.789 Y101.878 E557.913
G1 X105.356 Y101.489 E557.936
G1 X105.868 Y101.029 E557.959
G1 X106.317 Y100.508 E557.982
G1 X106.695 Y99.933 E558.005
G1 X106.996 Y99.314 E558.028
G1 X107.214 Y98.661 E558.051
G1 X107.346 Y97.987 E558.074
G1 X107.391 Y97.3 E558.097
G1 X107.346 Y96.613 E558.119
G1 X107.214 Y95.939 E558.142
G1 X106.996 Y95.286 E558.165
G1 X106.695 Y94.667 E558.188
G1 X106.317 Y94.092 E558.211
G1 X105.868 Y93.571 E558.234
G1 X105.356 Y93.111 E558.257
G1 X104.789 Y92.722 E558.28
G1 X104.177 Y92.408 E558.302
G1 X103.528 Y92.177 E558.325
G1 X102.856 Y92.031 E558.348
G1 X102.171 Y91.972 E558.371
G1 X101.483 Y92.003 E558.394
G1 X100.806 Y92.122 E558.417
G1 X100.149 Y92.327 E558.44
G1 X99.523 Y92.615 E558.463
G1 X98.942 Y92.98 E558.486
G1 X98.177 Y93.607 E558.518
G1 X97.922 Y93.757 E558.528
G1 X97.646 Y93.866 E558.538
G1 X97.355 Y93.933 E558.548
G1 X97.037 Y93.957 E558.559
G1 X89.339 E558.815
G1 X88.812 Y94.001 E558.832
G1 X88.276 Y94.136 E558.851
G1 X87.77 Y94.359 E558.869
G1 X87.308 Y94.661 E558.887
;rapid-leaky
G1 F236
G0 X87.533 Y94.95
;bead-perimeter_outer
G1 X87.171 Y95.282 F1080 E558.904
G1 X86.869 Y95.671 E558.92
G1 X86.634 Y96.103 E558.937
G1 X86.474 Y96.569 E558.953
G1 X86.394 Y97.055 E558.969
G1 Y97.545 E558.986
G1 X86.474 Y98.031 E559.002
G1 X86.634 Y98.497 E559.018
G1 X86.869 Y98.929 E559.035
G1 X87.171 Y99.318 E559.051
G1 X87.533 Y99.65 E559.067
G1 X87.944 Y99.919 E559.084
G1 X88.395 Y100.118 E559.1
G1 X88.872 Y100.238 E559.117
G1 X89.354 Y100.278 E559.133
G1 X97.05 E559.389
G1 X97.41 Y100.305 E559.401
G1 X97.754 Y100.384 E559.412
G1 X98.082 Y100.514 E559.424
G1 X98.386 Y100.693 E559.436
G1 X99.156 Y101.323 E559.469
G1 X99.697 Y101.663 E559.49
G1 X100.28 Y101.932 E559.511
G1 X100.892 Y102.123 E559.533
G1 X101.523 Y102.233 E559.554
G1 X102.163 Y102.262 E559.575
G1 X102.802 Y102.207 E559.597
G1 X103.428 Y102.072 E559.618
G1 X104.032 Y101.856 E559.639
G1 X104.602 Y101.564 E559.661
G1 X105.13 Y101.202 E559.682
G1 X105.607 Y100.773 E559.703
G1 X106.025 Y100.288 E559.725
G1 X106.377 Y99.752 E559.746
G1 X106.658 Y99.176 E559.767
G1 X106.861 Y98.568 E559.789
G1 X106.984 Y97.94 E559.81
G1 X107.025 Y97.3 E559.831
G1 X106.984 Y96.66 E559.853
G1 X106.861 Y96.032 E559.874
G1 X106.658 Y95.424 E559.895
G1 X106.377 Y94.848 E559.916
G1 X106.025 Y94.312 E559.938
G1 X105.607 Y93.827 E559.959
G1 X105.13 Y93.398 E559.98
G1 X104.602 Y93.036 E560.002
G1 X104.032 Y92.744 E560.023
G1 X103.428 Y92.528 E560.044
G1 X102.802 Y92.393 E560.066
G1 X102.163 Y92.338 E560.087
G1 X101.523 Y92.367 E560.108
G1 X100.892 Y92.477 E560.13
G1 X100.28 Y92.668 E560.151
G1 X99.697 Y92.937 E560.172
G1 X99.156 Y93.277 E560.193
G1 X98.386 Y93.907 E560.227
G1 X98.082 Y94.086 E560.238
G1 X97.754 Y94.215 E560.25
G1 X97.41 Y94.295 E560.262
G1 X97.05 Y94.322 E560.274
G1 X89.354 E560.53
G1 X88.872 Y94.362 E560.546
G1 X88.395 Y94.482 E560.562
G1 X87.944 Y94.681 E560.579
G1 X87.533 Y94.95 E560.595
G1 F1800 E550.595
;rapid-dry
G1 F236
G0 X87.24 Y97.3
G1 F1800 E560.595
;bead-support-structure
G1 X106.177 F4200 E561.067
G1 F1800 E551.067
G1 F236
G0 X105.377
G0 X106.177
;rapid-dry
G1 F236
G0 X113.016 Y97.024
G1 F1800 E561.067
;bead-perimeter_inner
G1 Y97.576 F1560 E561.086
G1 X113.107 Y98.121 E561.104
G1 X113.287 Y98.644 E561.122
G1 X113.549 Y99.129 E561.141
G1 X113.889 Y99.566 E561.159
G1 X114.296 Y99.94 E561.178
G1 X114.758 Y100.241 E561.196
G1 X115.264 Y100.464 E561.214
G1 X115.8 Y100.599 E561.233
G1 X116.327 Y100.643 E561.25
G1 X124.025 E561.506
G1 X124.343 Y100.667 E561.517
G1 X124.633 Y100.734 E561.527
G1 X124.909 Y100.843 E561.537
G1 X125.164 Y100.993 E561.547
G1 X125.93 Y101.62 E561.579
G1 X126.511 Y101.985 E561.602
G1 X127.135 Y102.273 E561.625
G1 X127.793 Y102.478 E561.648
G1 X128.47 Y102.597 E561.671
G1 X129.158 Y102.628 E561.694
G1 X129.843 Y102.569 E561.717
G1 X130.515 Y102.424 E561.74
G1 X131.164 Y102.192 E561.763
G1 X131.777 Y101.879 E561.785
G1 X132.344 Y101.489 E561.808
G1 X132.856 Y101.029 E561.831
G1 X133.305 Y100.508 E561.854
G1 X133.682 Y99.933 E561.877
G1 X133.983 Y99.314 E561.9
G1 X134.201 Y98.662 E561.923
G1 X134.335 Y97.987 E561.946
G1 X134.378 Y97.3 E561.968
G1 X134.335 Y96.613 E561.991
G1 X134.201 Y95.939 E562.014
G1 X133.983 Y95.286 E562.037
G1 X133.682 Y94.667 E562.06
G1 X133.305 Y94.092 E562.083
G1 X132.856 Y93.571 E562.106
G1 X132.344 Y93.111 E562.129
G1 X131.777 Y92.722 E562.152
G1 X131.563 Y92.612 E562.16
G1 X131.163 Y92.408 E562.174
G1 X130.515 Y92.177 E562.197
G1 X129.843 Y92.031 E562.22
G1 X129.158 Y91.972 E562.243
G1 X128.47 Y92.003 E562.266
G1 X127.793 Y92.122 E562.289
G1 X127.135 Y92.327 E562.312
G1 X126.511 Y92.615 E562.335
G1 X125.93 Y92.98 E562.357
G1 X125.164 Y93.607 E562.39
G1 X124.909 Y93.757 E562.4
G1 X124.633 Y93.866 E562.41
G1 X124.343 Y93.933 E562.42
G1 X124.025 Y93.957 E562.431
G1 X116.327 E562.687
G1 X115.8 Y94.001 E562.704
G1 X115.264 Y94.136 E562.723
G1 X114.758 Y94.359 E562.741
G1 X114.296 Y94.66 E562.759
G1 X113.889 Y95.034 E562.778
G1 X113.549 Y95.471 E562.796
G1 X113.287 Y95.956 E562.814
G1 X113.107 Y96.479 E562.833
G1 X113.016 Y97.024 E562.851
;rapid-leaky
G1 F236
G0 X113.381 Y97.054
;bead-perimeter_outer
G1 Y97.546 F1080 E562.868
G1 X113.462 Y98.031 E562.884
G1 X113.622 Y98.497 E562.9
G1 X113.856 Y98.929 E562.917
G1 X114.158 Y99.318 E562.933
G1 X114.521 Y99.65 E562.949
G1 X114.932 Y99.919 E562.966
G1 X115.383 Y100.118 E562.982
G1 X115.86 Y100.238 E562.999
G1 X116.342 Y100.278 E563.015
G1 X124.038 E563.271
G1 X124.398 Y100.305 E563.283
G1 X124.741 Y100.385 E563.294
G1 X125.069 Y100.514 E563.306
G1 X125.373 Y100.693 E563.318
G1 X126.143 Y101.323 E563.351
G1 X126.685 Y101.663 E563.372
G1 X127.267 Y101.932 E563.393
G1 X127.879 Y102.123 E563.415
G1 X128.51 Y102.233 E563.436
G1 X129.15 Y102.262 E563.457
G1 X129.789 Y102.207 E563.479
G1 X130.415 Y102.072 E563.5
G1 X131.019 Y101.856 E563.521
G1 X131.59 Y101.564 E563.543
G1 X132.118 Y101.202 E563.564
G1 X132.595 Y100.773 E563.585
G1 X133.013 Y100.288 E563.607
G1 X133.364 Y99.752 E563.628
G1 X133.645 Y99.176 E563.649
G1 X133.848 Y98.568 E563.671
G1 X133.972 Y97.94 E563.692
G1 X134.012 Y97.3 E563.713
G1 X133.972 Y96.66 E563.734
G1 X133.848 Y96.032 E563.756
G1 X133.644 Y95.424 E563.777
G1 X133.364 Y94.848 E563.798
G1 X133.013 Y94.312 E563.82
G1 X132.595 Y93.827 E563.841
G1 X132.118 Y93.398 E563.862
G1 X131.59 Y93.036 E563.884
G1 X131.397 Y92.937 E563.891
G1 X131.018 Y92.744 E563.905
G1 X130.415 Y92.528 E563.926
G1 X129.789 Y92.393 E563.948
G1 X129.15 Y92.338 E563.969
G1 X128.51 Y92.367 E563.99
G1 X127.879 Y92.477 E564.012
G1 X127.267 Y92.668 E564.033
G1 X126.685 Y92.937 E564.054
G1 X126.143 Y93.277 E564.076
G1 X125.373 Y93.907 E564.109
G1 X125.069 Y94.086 E564.12
G1 X124.741 Y94.216 E564.132
G1 X124.398 Y94.295 E564.144
G1 X124.038 Y94.322 E564.156
G1 X116.342 E564.412
G1 X115.86 Y94.362 E564.428
G1 X115.383 Y94.482 E564.444
G1 X114.932 Y94.681 E564.461
G1 X114.521 Y94.95 E564.477
G1 X114.158 Y95.282 E564.493
G1 X113.856 Y95.671 E564.51
G1 X113.622 Y96.103 E564.526
G1 X113.462 Y96.569 E564.542
G1 X113.381 Y97.054 E564.559
G1 F1800 E554.559
;rapid-dry
G1 F236
G0 X114.227 Y97.3
G1 F1800 E564.559
;bead-support-structure
G1 X133.165 F4200 E565.031
G1 F1800 E555.031
G1 F236
G0 X132.365
G0 X133.165
;rapid-dry
G1 F236
G0 X119.076 Y118.127
G1 F1800 E565.031
;bead-perimeter_inner
G1 X118.863 Y118.017 F1560 E565.039
G1 X118.464 Y117.813 E565.054
G1 X117.817 Y117.582 E565.077
G1 X117.144 Y117.435 E565.1
G1 X116.46 Y117.377 E565.123
G1 X115.774 Y117.407 E565.145
G1 X115.096 Y117.526 E565.168
G1 X114.441 Y117.73 E565.191
G1 X113.817 Y118.017 E565.214
G1 X113.236 Y118.382 E565.237
G1 X112.47 Y119.008 E565.27
G1 X112.216 Y119.156 E565.28
G1 X111.939 Y119.266 E565.289
G1 X111.649 Y119.333 E565.299
G1 X111.331 Y119.357 E565.31
G1 X103.627 E565.566
G1 X103.1 Y119.401 E565.584
G1 X102.564 Y119.536 E565.602
G1 X102.058 Y119.759 E565.621
G1 X101.596 Y120.06 E565.639
G1 X101.189 Y120.434 E565.657
G1 X100.849 Y120.871 E565.676
G1 X100.587 Y121.356 E565.694
G1 X100.408 Y121.879 E565.712
G1 X100.316 Y122.424 E565.731
G1 Y122.976 E565.749
G1 X100.407 Y123.521 E565.768
G1 X100.587 Y124.044 E565.786
G1 X100.849 Y124.529 E565.804
G1 X101.189 Y124.966 E565.823
G1 X101.596 Y125.34 E565.841
G1 X102.058 Y125.641 E565.859
G1 X102.564 Y125.864 E565.878
G1 X103.1 Y125.999 E565.896
G1 X103.627 Y126.043 E565.914
G1 X111.331 E566.17
G1 X111.649 Y126.067 E566.181
G1 X111.939 Y126.134 E566.19
G1 X112.215 Y126.244 E566.2
G1 X112.471 Y126.393 E566.21
G1 X113.236 Y127.018 E566.243
G1 X113.817 Y127.383 E566.266
G1 X114.441 Y127.67 E566.289
G1 X115.096 Y127.874 E566.312
G1 X115.774 Y127.993 E566.334
G1 X116.46 Y128.023 E566.357
G1 X117.144 Y127.965 E566.38
G1 X117.817 Y127.818 E566.403
G1 X118.464 Y127.587 E566.426
G1 X119.076 Y127.273 E566.449
G1 X119.642 Y126.884 E566.472
G1 X120.153 Y126.425 E566.494
G1 X120.602 Y125.905 E566.517
G1 X120.979 Y125.33 E566.54
G1 X121.084 Y125.115 E566.548
G1 X121.279 Y124.712 E566.563
G1 X121.497 Y124.061 E566.586
G1 X121.629 Y123.386 E566.609
G1 X121.674 Y122.7 E566.632
G1 X121.629 Y122.014 E566.654
G1 X121.498 Y121.34 E566.677
G1 X121.279 Y120.688 E566.7
G1 X120.979 Y120.071 E566.723
G1 X120.602 Y119.495 E566.746
G1 X120.153 Y118.975 E566.769
G1 X119.642 Y118.516 E566.792
G1 X119.076 Y118.127 E566.814
;rapid-leaky
G1 F236
G0 X118.889 Y118.441
;bead-perimeter_outer
G1 X118.696 Y118.342 F1080 E566.822
G1 X118.319 Y118.149 E566.836
G1 X117.716 Y117.933 E566.857
G1 X117.09 Y117.797 E566.878
G1 X116.452 Y117.743 E566.9
G1 X115.813 Y117.771 E566.921
G1 X115.183 Y117.881 E566.942
G1 X114.572 Y118.072 E566.963
G1 X113.991 Y118.339 E566.985
G1 X113.449 Y118.679 E567.006
G1 X112.679 Y119.308 E567.039
G1 X112.584 Y119.364 E567.043
G1 X112.375 Y119.486 E567.051
G1 X112.047 Y119.616 E567.063
G1 X111.704 Y119.695 E567.074
G1 X111.344 Y119.722 E567.086
G1 X103.642 E567.342
G1 X103.16 Y119.762 E567.359
G1 X102.683 Y119.882 E567.375
G1 X102.232 Y120.081 E567.391
G1 X101.821 Y120.35 E567.408
G1 X101.458 Y120.682 E567.424
G1 X101.156 Y121.071 E567.44
G1 X100.922 Y121.503 E567.457
G1 X100.762 Y121.969 E567.473
G1 X100.681 Y122.454 E567.489
G1 Y122.946 E567.506
G1 X100.762 Y123.431 E567.522
G1 X100.922 Y123.897 E567.539
G1 X101.156 Y124.329 E567.555
G1 X101.458 Y124.718 E567.571
G1 X101.821 Y125.05 E567.588
G1 X102.232 Y125.319 E567.604
G1 X102.683 Y125.518 E567.62
G1 X103.16 Y125.638 E567.637
G1 X103.642 Y125.678 E567.653
G1 X111.344 E567.909
G1 X111.704 Y125.705 E567.921
G1 X112.047 Y125.785 E567.933
G1 X112.375 Y125.914 E567.944
G1 X112.68 Y126.092 E567.956
G1 X113.449 Y126.721 E567.989
G1 X113.991 Y127.061 E568.01
G1 X114.572 Y127.328 E568.032
G1 X115.183 Y127.519 E568.053
G1 X115.813 Y127.629 E568.074
G1 X116.452 Y127.657 E568.096
G1 X117.09 Y127.603 E568.117
G1 X117.716 Y127.467 E568.138
G1 X118.319 Y127.251 E568.159
G1 X118.889 Y126.959 E568.181
G1 X119.416 Y126.596 E568.202
G1 X119.892 Y126.169 E568.223
G1 X120.31 Y125.685 E568.245
G1 X120.661 Y125.149 E568.266
G1 X120.756 Y124.955 E568.273
G1 X120.941 Y124.574 E568.287
G1 X121.144 Y123.967 E568.308
G1 X121.267 Y123.339 E568.33
G1 X121.308 Y122.7 E568.351
G1 X121.267 Y122.061 E568.372
G1 X121.144 Y121.433 E568.394
G1 X120.941 Y120.826 E568.415
G1 X120.661 Y120.251 E568.436
G1 X120.31 Y119.715 E568.457
G1 X119.892 Y119.231 E568.479
G1 X119.416 Y118.804 E568.5
G1 X118.889 Y118.441 E568.521
G1 F1800 E558.521
;rapid-dry
G1 F236
G0 X120.46 Y122.7
G1 F1800 E568.521
;bead-support-structure
G1 X101.527 F4200 E568.994
G1 F1800 E558.994
G1 F236
G0 X102.327
G0 X101.527
;rapid-dry
G1 F236
G0 X79.57 Y134.515
G1 F1800 E568.994
;bead-solid_infill
G1 X79.135 Y134.08 F2400 E569.014
G1 Y133.515 E569.033
G1 X80.135 Y134.515 E569.08
G1 X80.701 E569.099
G1 X79.135 Y132.949 E569.172
G1 Y132.383 E569.191
G1 X81.267 Y134.515 E569.292
G1 X81.832 E569.31
G1 X79.135 Y131.818 E569.437
G1 Y131.252 E569.456
G1 X82.398 Y134.515 E569.609
G1 X82.964 E569.628
G1 X79.135 Y130.686 E569.808
G1 Y130.121 E569.827
G1 X83.529 Y134.515 E570.034
G1 X84.095 E570.053
G1 X79.135 Y129.555 E570.286
G1 Y128.989 E570.305
G1 X84.661 Y134.515 E570.565
G1 X85.226 E570.584
G1 X79.135 Y128.424 E570.87
G1 Y127.858 E570.889
G1 X85.792 Y134.515 E571.202
G1 X86.358 E571.221
G1 X79.135 Y127.292 E571.561
G1 Y126.727 E571.579
G1 X86.924 Y134.515 E571.946
G1 X87.489 E571.965
G1 X79.135 Y126.161 E572.358
G1 Y125.595 E572.376
G1 X88.055 Y134.515 E572.796
G1 X88.621 E572.815
G1 X79.135 Y125.029 E573.261
G1 Y124.464 E573.28
G1 X89.186 Y134.515 E573.753
G1 X89.752 E573.771
G1 X79.135 Y123.898 E574.271
G1 Y123.332 E574.289
G1 X90.318 Y134.515 E574.815
G1 X90.883 E574.834
G1 X79.135 Y122.767 E575.387
G1 Y122.201 E575.406
G1 X91.449 Y134.515 E575.985
G1 X92.015 E576.004
G1 X79.135 Y121.635 E576.61
G1 Y121.07 E576.628
G1 X92.58 Y134.515 E577.261
G1 X93.146 E577.28
G1 X79.135 Y120.504 E577.939
G1 Y119.938 E577.957
G1 X93.712 Y134.515 E578.643
G1 X94.277 E578.662
G1 X79.135 Y119.373 E579.374
G1 Y118.807 E579.393
G1 X94.843 Y134.515 E580.132
G1 X95.409 E580.151
G1 X79.135 Y118.241 E580.916
G1 Y117.676 E580.935
G1 X95.974 Y134.515 E581.727
G1 X96.54 E581.746
G1 X79.135 Y117.11 E582.565
G1 Y116.544 E582.583
G1 X97.106 Y134.515 E583.429
G1 X97.672 E583.447
G1 X79.135 Y115.978 E584.319
G1 Y115.413 E584.338
G1 X98.237 Y134.515 E585.237
G1 X98.803 E585.255
G1 X79.135 Y114.847 E586.181
G1 Y114.281 E586.199
G1 X99.369 Y134.515 E587.151
G1 X99.934 E587.17
G1 X79.135 Y113.716 E588.148
G1 Y113.15 E588.167
G1 X100.5 Y134.515 E589.172
G1 X101.066 E589.191
G1 X79.135 Y112.584 E590.222
G1 Y112.019 E590.241
G1 X101.631 Y134.515 E591.299
G1 X102.197 E591.318
G1 X79.135 Y111.453 E592.403
G1 Y110.887 E592.422
G1 X102.763 Y134.515 E593.533
G1 X103.328 E593.552
G1 X79.135 Y110.322 E594.69
G1 Y109.756 E594.709
G1 X103.894 Y134.515 E595.873
G1 X104.46 E595.892
G1 X79.135 Y109.19 E597.083
G1 Y108.625 E597.102
G1 X105.025 Y134.515 E598.32
G1 X105.591 E598.339
G1 X79.135 Y108.059 E599.583
G1 Y107.493 E599.602
G1 X106.157 Y134.515 E600.873
G1 X106.722 E600.892
G1 X79.135 Y106.928 E602.19
G1 Y106.362 E602.208
G1 X107.288 Y134.515 E603.533
G1 X107.854 E603.551
G1 X79.135 Y105.796 E604.902
G1 Y105.23 E604.921
G1 X108.42 Y134.515 E606.299
G1 X108.985 E606.317
G1 X79.135 Y104.665 E607.721
G1 Y104.099 E607.74
G1 X109.551 Y134.515 E609.171
G1 X110.117 E609.19
G1 X79.135 Y103.533 E610.647
G1 Y102.968 E610.666
G1 X100.268 Y124.101 E611.66
G1 X100.096 Y123.6 E611.677
G1 X100.048 Y123.316 E611.687
G1 X79.135 Y102.402 E612.671
G1 Y101.836 E612.69
G1 X99.996 Y122.697 E613.671
G1 Y122.397 E613.681
G1 X100.034 Y122.17 E613.688
G1 X79.135 Y101.271 E614.671
G1 Y100.705 E614.69
G1 X100.13 Y121.7 E615.678
G1 X100.24 Y121.381 E615.689
G1 X100.275 Y121.279 E615.693
G1 X79.135 Y100.139 E616.687
G1 Y99.574 E616.706
G1 X100.467 Y120.905 E617.709
G1 X100.58 Y120.696 E617.717
G1 X100.686 Y120.559 E617.723
G1 X79.135 Y99.008 E618.737
G1 Y98.442 E618.755
G1 X100.934 Y120.241 E619.781
G1 X100.953 Y120.216 E619.782
G1 X101.11 Y120.072 E619.789
G1 X101.225 Y119.967 E619.794
G1 X79.135 Y97.877 E620.833
G1 Y97.311 E620.852
G1 X101.539 Y119.715 E621.906
G1 X101.881 Y119.492 E621.919
G1 X79.135 Y96.745 E622.989
G1 Y96.179 E623.008
G1 X102.271 Y119.315 E624.096
G1 X102.46 Y119.232 E624.103
G1 X102.694 Y119.173 E624.111
G1 X79.135 Y95.614 E625.219
G1 Y95.048 E625.238
G1 X103.161 Y119.075 E626.368
G1 X103.613 Y119.037 E626.383
G1 X103.69 E626.386
G1 X79.135 Y94.482 E627.541
G1 Y93.917 E627.56
G1 X104.255 Y119.037 E628.741
G1 X104.821 E628.76
G1 X79.135 Y93.351 E629.968
G1 Y92.785 E629.987
G1 X105.387 Y119.037 E631.222
G1 X105.952 E631.241
G1 X87.079 Y100.164 E632.128
G1 X86.665 Y99.783 E632.147
G1 X86.55 Y99.635 E632.153
G1 X79.135 Y92.22 E632.502
G1 Y91.654 E632.521
G1 X85.875 Y98.394 E632.838
G1 X85.808 Y98.199 E632.845
G1 X85.726 Y97.707 E632.862
G1 X85.721 Y97.674 E632.863
G1 X79.135 Y91.088 E633.172
G1 Y90.523 E633.191
G1 X85.709 Y97.097 E633.5
G1 Y96.998 E633.504
G1 X85.775 Y96.597 E633.517
G1 X79.135 Y89.957 E633.83
G1 Y89.391 E633.848
G1 X85.894 Y96.15 E634.166
G1 X86.005 Y95.827 E634.178
G1 X86.051 Y95.742 E634.181
G1 X79.135 Y88.826 E634.506
G1 Y88.26 E634.525
G1 X86.25 Y95.375 E634.86
G1 X86.294 Y95.295 E634.863
G1 X86.487 Y95.046 E634.873
G1 X79.135 Y87.694 E635.219
G1 Y87.129 E635.238
G1 X86.748 Y94.741 E635.596
G1 X87.042 Y94.47 E635.609
G1 X79.135 Y86.563 E635.981
G1 Y85.997 E636
G1 X87.373 Y94.235 E636.387
G1 X87.617 Y94.076 E636.397
G1 X87.73 Y94.027 E636.401
G1 X79.189 Y85.485 E636.803
G1 X79.754 E636.822
G1 X88.123 Y93.854 E637.215
G1 X88.172 Y93.832 E637.217
G1 X88.567 Y93.732 E637.231
G1 X80.32 Y85.485 E637.619
G1 X80.886 E637.638
G1 X89.06 Y93.659 E638.022
G1 X89.325 Y93.637 E638.031
G1 X89.603 E638.04
G1 X81.451 Y85.485 E638.424
G1 X82.017 E638.442
G1 X90.169 Y93.637 E638.826
G1 X90.735 E638.845
G1 X82.583 Y85.485 E639.228
G1 X83.148 E639.247
G1 X91.3 Y93.637 E639.63
G1 X91.866 E639.649
G1 X83.714 Y85.485 E640.033
G1 X84.28 E640.051
G1 X92.432 Y93.637 E640.435
G1 X92.997 E640.454
G1 X84.845 Y85.485 E640.837
G1 X85.411 E640.856
G1 X93.563 Y93.637 E641.239
G1 X94.129 E641.258
G1 X85.977 Y85.485 E641.642
G1 X86.542 E641.66
G1 X94.694 Y93.637 E642.044
G1 X95.26 E642.063
G1 X87.108 Y85.485 E642.446
G1 X87.674 E642.465
G1 X95.826 Y93.637 E642.848
G1 X96.392 E642.867
G1 X88.24 Y85.485 E643.251
G1 X88.805 E643.27
G1 X96.957 Y93.637 E643.653
G1 X97.024 E643.655
G1 X97.307 Y93.616 E643.665
G1 X97.465 Y93.579 E643.67
G1 X89.371 Y85.485 E644.051
G1 X89.937 E644.07
G1 X97.869 Y93.417 E644.443
G1 X97.994 Y93.344 E644.448
G1 X98.196 Y93.178 E644.456
G1 X90.502 Y85.485 E644.818
G1 X91.068 E644.837
G1 X98.507 Y92.924 E645.187
G1 X98.755 Y92.72 E645.197
G1 X98.825 Y92.676 E645.2
G1 X91.634 Y85.485 E645.538
G1 X92.199 E645.557
G1 X99.172 Y92.458 E645.885
G1 X99.37 Y92.333 E645.893
G1 X99.537 Y92.257 E645.899
G1 X92.765 Y85.485 E646.218
G1 X93.331 E646.236
G1 X99.924 Y92.078 E646.547
G1 X100.034 Y92.027 E646.551
G1 X100.342 Y91.931 E646.561
G1 X93.896 Y85.485 E646.865
G1 X94.462 E646.883
G1 X100.779 Y91.802 E647.18
G1 X101.26 Y91.717 E647.197
G1 X95.028 Y85.485 E647.49
G1 X95.593 E647.509
G1 X101.778 Y91.669 E647.8
G1 X102.177 Y91.651 E647.813
G1 X102.339 Y91.665 E647.818
G1 X96.159 Y85.485 E648.109
G1 X96.725 E648.128
G1 X102.968 Y91.728 E648.421
G1 X103.482 Y91.839 E648.439
G1 X103.617 Y91.868 E648.444
G1 X103.705 Y91.9 E648.447
G1 X97.29 Y85.485 E648.748
G1 X97.856 E648.767
G1 X104.675 Y92.304 E649.088
G1 X104.953 Y92.446 E649.098
G1 X105.554 Y92.859 E649.123
G1 X105.826 Y93.103 E649.135
G1 X106.098 Y93.346 E649.147
G1 X106.318 Y93.603 E649.158
G1 X106.573 Y93.899 E649.171
G1 X106.939 Y94.456 E649.193
G1 X106.974 Y94.508 E649.195
G1 X107.063 Y94.692 E649.202
G1 X140.865 Y128.494 E650.792
G1 Y127.928 E650.811
G1 X98.422 Y85.485 E652.807
G1 X98.988 E652.826
G1 X140.865 Y127.362 E654.796
G1 Y126.797 E654.815
G1 X114.567 Y100.499 E656.052
G1 X114.605 Y100.524 E656.053
G1 X115.16 Y100.768 E656.073
G1 X115.483 Y100.85 E656.084
G1 X140.865 Y126.231 E657.278
G1 Y125.665 E657.297
G1 X116.149 Y100.949 E658.46
G1 X116.27 Y100.959 E658.464
G1 X116.313 Y100.963 E658.465
G1 X116.728 E658.479
G1 X140.865 Y125.1 E659.614
G1 Y124.534 E659.633
G1 X117.294 Y100.963 E660.742
G1 X117.86 E660.761
G1 X140.865 Y123.968 E661.843
G1 Y123.403 E661.862
G1 X118.425 Y100.963 E662.917
G1 X118.991 E662.936
G1 X140.865 Y122.837 E663.965
G1 Y122.271 E663.984
G1 X119.557 Y100.963 E664.986
G1 X120.122 E665.005
G1 X140.865 Y121.706 E665.98
G1 Y121.14 E665.999
G1 X120.688 Y100.963 E666.948
G1 X121.254 E666.967
G1 X140.865 Y120.574 E667.889
G1 Y120.009 E667.908
G1 X121.819 Y100.963 E668.804
G1 X122.385 E668.823
G1 X140.865 Y119.443 E669.692
G1 Y118.877 E669.711
G1 X122.951 Y100.963 E670.554
G1 X123.516 E670.572
G1 X140.865 Y118.312 E671.388
G1 Y117.746 E671.407
G1 X124.088 Y100.969 E672.196
G1 X124.294 Y100.984 E672.203
G1 X124.416 Y101.012 E672.207
G1 X124.537 Y101.04 E672.212
G1 X124.768 Y101.132 E672.22
G1 X124.886 Y101.201 E672.224
G1 X140.865 Y117.18 E672.976
G1 Y116.614 E672.995
G1 X126.654 Y102.403 E673.663
G1 X127.02 Y102.573 E673.677
G1 X127.556 Y102.74 E673.695
G1 X140.865 Y116.049 E674.321
G1 Y115.483 E674.34
G1 X128.268 Y102.886 E674.933
G1 X128.435 Y102.916 E674.938
G1 X128.475 Y102.917 E674.94
G1 X128.884 Y102.936 E674.953
G1 X140.865 Y114.917 E675.517
G1 Y114.352 E675.536
G1 X129.438 Y102.925 E676.073
G1 X129.891 Y102.886 E676.088
G1 X129.952 Y102.873 E676.09
G1 X140.865 Y113.786 E676.604
G1 Y113.22 E676.622
G1 X130.417 Y102.772 E677.114
G1 X130.603 Y102.732 E677.12
G1 X130.853 Y102.643 E677.129
G1 X140.865 Y112.655 E677.6
G1 Y112.089 E677.619
G1 X131.27 Y102.494 E678.07
G1 X131.291 Y102.486 E678.071
G1 X131.646 Y102.304 E678.084
G1 X140.865 Y111.523 E678.518
G1 Y110.958 E678.537
G1 X132.012 Y102.105 E678.953
G1 X132.171 Y101.996 E678.959
G1 X132.348 Y101.875 E678.967
G1 X140.865 Y110.392 E679.367
G1 Y109.826 E679.386
G1 X132.667 Y101.629 E679.772
G1 X132.829 Y101.483 E679.779
G1 X132.966 Y101.361 E679.785
G1 X140.865 Y109.261 E680.156
G1 Y108.695 E680.175
G1 X133.242 Y101.072 E680.534
G1 X133.504 Y100.768 E680.547
G1 X140.865 Y108.129 E680.893
G1 Y107.563 E680.912
G1 X133.736 Y100.434 E681.248
G1 X133.96 Y100.093 E681.261
G1 X140.865 Y106.998 E681.586
G1 Y106.432 E681.605
G1 X134.145 Y99.712 E681.921
G1 X134.28 Y99.435 E681.931
G1 X134.319 Y99.32 E681.935
G1 X140.865 Y105.866 E682.243
G1 Y105.301 E682.262
G1 X134.46 Y98.896 E682.563
G1 X134.511 Y98.744 E682.568
G1 X134.571 Y98.441 E682.579
G1 X140.865 Y104.735 E682.875
G1 Y104.169 E682.894
G1 X134.657 Y97.961 E683.186
G1 X134.691 Y97.429 E683.203
G1 X140.865 Y103.604 E683.494
G1 Y103.038 E683.513
G1 X134.67 Y96.843 E683.804
G1 X134.653 Y96.572 E683.813
G1 X134.576 Y96.183 E683.826
G1 X140.865 Y102.472 E684.122
G1 Y101.907 E684.141
G1 X134.359 Y95.4 E684.447
G1 X134.28 Y95.164 E684.455
G1 X134.12 Y94.837 E684.467
G1 X133.961 Y94.509 E684.479
G1 X133.824 Y94.3 E684.488
G1 X140.865 Y101.341 E684.819
G1 Y100.775 E684.838
G1 X125.575 Y85.485 E685.557
G1 X126.14 E685.576
G1 X140.865 Y100.21 E686.268
G1 Y99.644 E686.287
G1 X126.706 Y85.485 E686.953
G1 X127.272 E686.972
G1 X140.865 Y99.078 E687.611
G1 Y98.513 E687.63
G1 X127.837 Y85.485 E688.243
G1 X128.403 E688.262
G1 X140.865 Y97.947 E688.848
G1 Y97.381 E688.867
G1 X128.969 Y85.485 E689.426
G1 X129.535 E689.445
G1 X140.865 Y96.815 E689.978
G1 Y96.25 E689.997
G1 X130.1 Y85.485 E690.503
G1 X130.666 E690.522
G1 X140.865 Y95.684 E691.002
G1 Y95.118 E691.021
G1 X131.232 Y85.485 E691.474
G1 X131.797 E691.492
G1 X140.865 Y94.553 E691.919
G1 Y93.987 E691.938
G1 X132.363 Y85.485 E692.338
G1 X132.929 E692.357
G1 X140.865 Y93.421 E692.73
G1 Y92.856 E692.749
G1 X133.494 Y85.485 E693.095
G1 X134.06 E693.114
G1 X140.865 Y92.29 E693.434
G1 Y91.724 E693.453
G1 X134.626 Y85.485 E693.747
G1 X135.191 E693.765
G1 X140.865 Y91.159 E694.032
G1 Y90.593 E694.051
G1 X135.757 Y85.485 E694.291
G1 X136.323 E694.31
G1 X140.865 Y90.027 E694.524
G1 Y89.462 E694.543
G1 X136.888 Y85.485 E694.73
G1 X137.454 E694.748
G1 X140.865 Y88.896 E694.909
G1 Y88.33 E694.928
G1 X138.02 Y85.485 E695.062
G1 X138.586 E695.08
G1 X140.865 Y87.764 E695.188
G1 Y87.199 E695.206
G1 X139.151 Y85.485 E695.287
G1 X139.717 E695.306
G1 X140.865 Y86.633 E695.36
G1 Y86.067 E695.379
G1 X140.283 Y85.485 E695.406
G1 X140.848 E695.425
G1 X140.865 Y85.502 E695.426
G1 F1800 E685.426
;rapid-dry
G1 F236
G0 X132.034 Y92.51
G1 F1800 E695.426
;bead-solid_infill
G1 X125.009 Y85.485 F2400 E695.756
G1 X124.443 E695.775
G1 X130.951 Y91.992 E696.081
G1 X130.604 Y91.868 E696.093
G1 X130.166 Y91.774 E696.108
G1 X123.878 Y85.485 E696.404
G1 X123.312 E696.423
G1 X129.508 Y91.681 E696.714
G1 X129.164 Y91.651 E696.726
G1 X128.924 Y91.662 E696.734
G1 X122.746 Y85.485 E697.024
G1 X122.181 E697.043
G1 X128.388 Y91.693 E697.335
G1 X127.907 Y91.777 E697.351
G1 X121.615 Y85.485 E697.647
G1 X121.049 E697.666
G1 X127.456 Y91.892 E697.967
G1 X127.025 Y92.026 E697.982
G1 X120.484 Y85.485 E698.29
G1 X119.918 E698.309
G1 X126.637 Y92.204 E698.625
G1 X126.358 Y92.333 E698.635
G1 X126.261 Y92.394 E698.639
G1 X119.352 Y85.485 E698.964
G1 X118.787 E698.983
G1 X125.914 Y92.612 E699.318
G1 X125.742 Y92.72 E699.325
G1 X125.585 Y92.849 E699.332
G1 X118.221 Y85.485 E699.678
G1 X117.655 E699.697
G1 X125.274 Y93.104 E700.055
G1 X125.24 Y93.132 E700.057
G1 X124.981 Y93.344 E700.068
G1 X124.96 Y93.356
G1 X117.089 Y85.485 E700.439
G1 X116.524 E700.458
G1 X124.581 Y93.542 E700.837
G1 X124.537 Y93.56 E700.838
G1 X124.294 Y93.616 E700.846
G1 X124.103 Y93.63 E700.853
G1 X115.958 Y85.485 E701.236
G1 X115.392 E701.255
G1 X123.544 Y93.637 E701.638
G1 X122.979 E701.657
G1 X114.827 Y85.485 E702.04
G1 X114.261 E702.059
G1 X122.413 Y93.637 E702.443
G1 X121.847 E702.461
G1 X113.695 Y85.485 E702.845
G1 X113.13 E702.864
G1 X121.282 Y93.637 E703.247
G1 X120.716 E703.266
G1 X112.564 Y85.485 E703.649
G1 X111.998 E703.668
G1 X120.15 Y93.637 E704.052
G1 X119.585 E704.07
G1 X111.433 Y85.485 E704.454
G1 X110.867 E704.473
G1 X119.019 Y93.637 E704.856
G1 X118.453 E704.875
G1 X110.301 Y85.485 E705.258
G1 X109.736 E705.277
G1 X117.888 Y93.637 E705.661
G1 X117.322 E705.68
G1 X109.17 Y85.485 E706.063
G1 X108.604 E706.082
G1 X116.756 Y93.637 E706.465
G1 X116.313 E706.48
G1 X116.2 Y93.646 E706.484
G1 X108.038 Y85.485 E706.868
G1 X107.473 E706.886
G1 X115.687 Y93.699 E707.273
G1 X115.235 Y93.813 E707.288
G1 X106.907 Y85.485 E707.68
G1 X106.341 E707.699
G1 X114.833 Y93.976 E708.098
G1 X114.605 Y94.076 E708.107
G1 X114.461 Y94.17 E708.112
G1 X105.776 Y85.485 E708.521
G1 X105.21 E708.54
G1 X114.119 Y94.394 E708.959
G1 X114.099 Y94.407
G1 X113.821 Y94.662 E708.972
G1 X104.644 Y85.485 E709.404
G1 X104.079 E709.422
G1 X113.547 Y94.953 E709.868
G1 X113.299 Y95.271 E709.881
G1 X103.513 Y85.485 E710.341
G1 X102.947 E710.36
G1 X113.097 Y95.635 E710.838
G1 X112.993 Y95.827 E710.845
G1 X112.924 Y96.027 E710.852
G1 X102.382 Y85.485 E711.348
G1 X101.816 E711.367
G1 X112.787 Y96.456 E711.883
G1 X112.706 Y96.94 E711.899
G1 X101.25 Y85.485 E712.438
G1 X100.685 E712.457
G1 X112.696 Y97.496 E713.022
G1 Y97.603 E713.025
G1 X112.789 Y98.155 E713.044
G1 X100.119 Y85.485 E713.64
G1 X99.553 E713.659
G1 X113.172 Y99.103 E714.299
G1 F1800 E704.299
;rapid-dry
G1 F236
G0 X107.455 Y95.65
G1 F1800 E714.299
;bead-solid_infill
G1 X140.865 Y129.06 F2400 E715.871
G1 Y129.625 E715.89
G1 X107.629 Y96.389 E717.453
G1 X107.664 Y96.572 E717.459
G1 X107.694 Y97.019 E717.474
G1 X140.865 Y130.191 E719.034
G1 Y130.757 E719.053
G1 X107.693 Y97.585 E720.613
G1 X107.664 Y98.028 E720.628
G1 X107.649 Y98.106 E720.631
G1 X140.865 Y131.322 E722.193
G1 Y131.888 E722.212
G1 X107.557 Y98.58 E723.779
G1 X107.525 Y98.743 E723.784
G1 X107.432 Y99.02 E723.794
G1 X140.865 Y132.454 E725.367
G1 Y133.019 E725.385
G1 X107.289 Y99.443 E726.965
G1 X107.104 Y99.824 E726.979
G1 X140.865 Y133.585 E728.567
G1 Y134.151 E728.586
G1 X106.907 Y100.193 E730.183
G1 X106.683 Y100.534 E730.196
G1 X140.664 Y134.515 E731.795
G1 X140.098 E731.814
G1 X106.439 Y100.856 E733.397
G1 X106.178 Y101.16 E733.41
G1 X139.532 Y134.515 E734.979
G1 X138.967 E734.998
G1 X105.891 Y101.439 E736.554
G1 X105.811 Y101.511 E736.557
G1 X105.593 Y101.707 E736.567
G1 X138.401 Y134.515 E738.11
G1 X137.835 E738.129
G1 X105.262 Y101.942 E739.661
G1 X105.2 Y101.985 E739.664
G1 X104.953 Y102.154 E739.674
G1 X104.923 Y102.169 E739.675
G1 X137.27 Y134.515 E741.196
G1 X136.704 E741.215
G1 X104.549 Y102.36 E742.727
G1 X104.304 Y102.486 E742.737
G1 X104.16 Y102.537 E742.742
G1 X120.295 Y118.672 E743.501
G1 X120.382 Y118.75 E743.505
G1 X120.438 Y118.815 E743.507
G1 X136.138 Y134.515 E744.246
G1 X135.572 E744.265
G1 X121.531 Y120.473 E744.925
G1 X121.576 Y120.567 E744.929
G1 X121.808 Y121.258 E744.953
G1 X121.822 Y121.33 E744.955
G1 X135.007 Y134.515 E745.575
G1 X134.441 E745.594
G1 X121.951 Y122.025 E746.182
G1 Y122.033
G1 X121.99 Y122.63 E746.202
G1 X133.875 Y134.515 E746.761
G1 X133.31 E746.78
G1 X121.964 Y123.17 E747.313
G1 X121.947 Y123.427 E747.322
G1 X121.9 Y123.671 E747.33
G1 X132.744 Y134.515 E747.84
G1 X132.178 E747.859
G1 X121.807 Y124.144 E748.347
G1 X121.665 Y124.567 E748.362
G1 X131.613 Y134.515 E748.83
G1 X131.047 E748.849
G1 X121.507 Y124.975 E749.297
G1 X121.372 Y125.255 E749.308
G1 X121.322 Y125.356 E749.311
G1 X130.481 Y134.515 E749.742
G1 X129.916 E749.761
G1 X121.112 Y125.711 E750.175
G1 X120.888 Y126.053 E750.189
G1 X129.35 Y134.515 E750.587
G1 X128.784 E750.606
G1 X120.631 Y126.362 E750.989
G1 X120.406 Y126.622 E751.001
G1 X120.382 Y126.65 E751.002
G1 X120.367 Y126.663
G1 X128.219 Y134.515 E751.372
G1 X127.653 E751.391
G1 X120.069 Y126.931 E751.747
G1 X119.841 Y127.136 E751.758
G1 X119.762 Y127.19 E751.761
G1 X127.087 Y134.515 E752.105
G1 X126.521 E752.124
G1 X119.427 Y127.42 E752.458
G1 X119.389 Y127.447 E752.459
G1 X119.24 Y127.549 E752.465
G1 X119.074 Y127.634 E752.471
G1 X125.956 Y134.515 E752.795
G1 X125.39 E752.814
G1 X118.7 Y127.825 E753.129
G1 X118.591 Y127.881 E753.133
G1 X118.296 Y127.987 E753.143
G1 X124.824 Y134.515 E753.45
G1 X124.259 E753.469
G1 X117.877 Y128.133 E753.769
G1 X117.412 Y128.234 E753.785
G1 X123.693 Y134.515 E754.08
G1 X123.127 E754.099
G1 X116.918 Y128.305 E754.391
G1 X116.466 Y128.344 E754.406
G1 X116.387 Y128.34 E754.409
G1 X122.562 Y134.515 E754.7
G1 X121.996 E754.718
G1 X115.795 Y128.314 E755.01
G1 X115.739 Y128.312 E755.012
G1 X115.319 Y128.238 E755.026
G1 X115.118 Y128.203 E755.033
G1 X121.43 Y134.515 E755.33
G1 X120.865 E755.349
G1 X114.312 Y127.962 E755.657
G1 X113.664 Y127.665 E755.68
G1 X113.085 Y127.301 E755.703
G1 X120.299 Y134.515 E756.043
G1 X119.733 E756.061
G1 X111.603 Y126.385 E756.444
G1 X111.6 Y126.384
G1 X111.318 Y126.363 E756.453
G1 X111.016 E756.463
G1 X119.168 Y134.515 E756.847
G1 X118.602 E756.866
G1 X110.45 Y126.363 E757.249
G1 X109.884 E757.268
G1 X118.036 Y134.515 E757.651
G1 X117.471 E757.67
G1 X109.319 Y126.363 E758.054
G1 X108.753 E758.072
G1 X116.905 Y134.515 E758.456
G1 X116.339 E758.475
G1 X108.187 Y126.363 E758.858
G1 X107.621 E758.877
G1 X115.773 Y134.515 E759.26
G1 X115.208 E759.279
G1 X107.056 Y126.363 E759.663
G1 X106.49 E759.681
G1 X114.642 Y134.515 E760.065
G1 X114.076 E760.084
G1 X105.924 Y126.363 E760.467
G1 X105.359 E760.486
G1 X113.511 Y134.515 E760.869
G1 X112.945 E760.888
G1 X104.793 Y126.363 E761.272
G1 X104.227 E761.291
G1 X112.379 Y134.515 E761.674
G1 X111.814 E761.693
G1 X103.662 Y126.363 E762.076
G1 X103.613 E762.078
G1 X103.049 Y126.316 E762.097
G1 X111.248 Y134.515 E762.482
G1 X110.682 E762.501
G1 X102.237 Y126.07 E762.898
G1 F1800 E752.898
;rapid-dry
G1 F236
G0 X106.518 Y119.037
G1 F1800 E762.898
;bead-solid_infill
G1 X88.275 Y100.794 F2400 E763.756
G1 X88.759 Y100.916 E763.773
G1 X88.981 Y100.934 E763.78
G1 X107.084 Y119.037 E764.632
G1 X107.649 E764.651
G1 X89.575 Y100.963 E765.501
G1 X90.141 E765.52
G1 X108.215 Y119.037 E766.37
G1 X108.781 E766.389
G1 X90.707 Y100.963 E767.239
G1 X91.272 E767.258
G1 X109.346 Y119.037 E768.108
G1 X109.912 E768.127
G1 X91.838 Y100.963 E768.977
G1 X92.404 E768.996
G1 X110.478 Y119.037 E769.846
G1 X111.043 E769.865
G1 X92.969 Y100.963 E770.715
G1 X93.535 E770.733
G1 X111.589 Y119.016 E771.583
G1 X111.6
G1 X111.843 Y118.96 E771.591
G1 X112.025 Y118.887 E771.598
G1 X94.101 Y100.963 E772.441
G1 X94.667 E772.46
G1 X112.376 Y118.672 E773.293
G1 X112.687 Y118.418 E773.306
G1 X95.232 Y100.963 E774.127
G1 X95.798 E774.146
G1 X112.998 Y118.163 E774.955
G1 X113.048 Y118.122 E774.957
G1 X113.34 Y117.939 E774.969
G1 X96.364 Y100.963 E775.767
G1 X96.929 E775.786
G1 X113.69 Y117.723 E776.574
G1 X114.077 Y117.545 E776.588
G1 X97.587 Y101.055 E777.364
G1 X97.781 Y101.132 E777.371
G1 X97.994 Y101.257 E777.379
G1 X98.755 Y101.88 E777.412
G1 X99.354 Y102.256 E777.435
G1 X114.481 Y117.383 E778.147
G1 X114.912 Y117.248 E778.162
G1 X100.328 Y102.664 E778.848
G1 X100.73 Y102.79 E778.862
G1 X101.08 Y102.851 E778.874
G1 X115.38 Y117.151 E779.546
G1 X115.739 Y117.088 E779.559
G1 X115.877 Y117.082 E779.563
G1 X101.723 Y102.928 E780.229
G1 X102.177 Y102.949 E780.244
G1 X102.299 Y102.938 E780.248
G1 X116.419 Y117.058 E780.912
G1 X116.466 Y117.056 E780.914
G1 X117.03 Y117.104 E780.933
G1 X102.819 Y102.893 E781.601
G1 X102.904 Y102.886 E781.604
G1 X103.293 Y102.802 E781.617
G1 X117.726 Y117.234 E782.296
G1 X117.905 Y117.274 E782.302
G1 X118.568 Y117.511 E782.326
G1 X103.744 Y102.686 E783.023
G1 F1800 E773.023
;Layer : 3 of 976
;rapid-leaky
G1 F236
G0 X103.528 Y102.423 Z0.7
G1 F1800 E783.023
;bead-perimeter_inner
G1 X104.177 Y102.192 F1560 E783.046
G1 X104.789 Y101.878 E783.069
G1 X105.356 Y101.489 E783.092
G1 X105.868 Y101.029 E783.115
G1 X106.317 Y100.508 E783.137
G1 X106.695 Y99.933 E783.16
G1 X106.996 Y99.314 E783.183
G1 X107.214 Y98.661 E783.206
G1 X107.346 Y97.987 E783.229
G1 X107.391 Y97.3 E783.252
G1 X107.346 Y96.613 E783.275
G1 X107.214 Y95.939 E783.298
G1 X106.996 Y95.286 E783.32
G1 X106.695 Y94.667 E783.343
G1 X106.317 Y94.092 E783.366
G1 X105.868 Y93.571 E783.389
G1 X105.356 Y93.111 E783.412
G1 X104.789 Y92.722 E783.435
G1 X104.177 Y92.408 E783.458
G1 X103.528 Y92.177 E783.481
G1 X102.856 Y92.031 E783.503
G1 X102.171 Y91.972 E783.526
G1 X101.483 Y92.003 E783.549
G1 X100.806 Y92.122 E783.572
G1 X100.149 Y92.327 E783.595
G1 X99.523 Y92.615 E783.618
G1 X98.942 Y92.98 E783.641
G1 X98.177 Y93.607 E783.674
G1 X97.922 Y93.757 E783.684
G1 X97.646 Y93.866 E783.693
G1 X97.355 Y93.933 E783.703
G1 X97.037 Y93.957 E783.714
G1 X89.339 E783.97
G1 X88.812 Y94.001 E783.988
G1 X88.276 Y94.136 E784.006
G1 X87.77 Y94.359 E784.024
G1 X87.308 Y94.661 E784.043
G1 X86.902 Y95.034 E784.061
G1 X86.563 Y95.471 E784.079
G1 X86.299 Y95.956 E784.098
G1 X86.119 Y96.479 E784.116
G1 X86.029 Y97.025 E784.135
G1 Y97.575 E784.153
G1 X86.119 Y98.121 E784.171
G1 X86.299 Y98.644 E784.19
G1 X86.563 Y99.129 E784.208
G1 X86.902 Y99.566 E784.226
G1 X87.308 Y99.94 E784.245
G1 X87.77 Y100.241 E784.263
G1 X88.276 Y100.464 E784.282
G1 X88.812 Y100.599 E784.3
G1 X89.339 Y100.643 E784.318
G1 X97.037 E784.574
G1 X97.355 Y100.667 E784.584
G1 X97.646 Y100.734 E784.594
G1 X97.922 Y100.843 E784.604
G1 X98.177 Y100.993 E784.614
G1 X98.942 Y101.62 E784.647
G1 X99.523 Y101.985 E784.669
G1 X100.149 Y102.273 E784.692
G1 X100.806 Y102.478 E784.715
G1 X101.483 Y102.597 E784.738
G1 X102.171 Y102.628 E784.761
G1 X102.856 Y102.569 E784.784
G1 X103.528 Y102.423 E784.807
;rapid-leaky
G1 F236
G0 X103.428 Y102.072
;bead-perimeter_outer
G1 X104.032 Y101.856 F1080 E784.828
G1 X104.602 Y101.564 E784.849
G1 X105.13 Y101.202 E784.871
G1 X105.607 Y100.773 E784.892
G1 X106.025 Y100.288 E784.913
G1 X106.377 Y99.752 E784.935
G1 X106.658 Y99.176 E784.956
G1 X106.861 Y98.568 E784.977
G1 X106.984 Y97.94 E784.999
G1 X107.025 Y97.3 E785.02
G1 X106.984 Y96.66 E785.041
G1 X106.861 Y96.032 E785.063
G1 X106.658 Y95.424 E785.084
G1 X106.377 Y94.848 E785.105
G1 X106.025 Y94.312 E785.127
G1 X105.607 Y93.827 E785.148
G1 X105.13 Y93.398 E785.169
G1 X104.602 Y93.036 E785.19
G1 X104.032 Y92.744 E785.212
G1 X103.428 Y92.528 E785.233
G1 X102.802 Y92.393 E785.254
G1 X102.163 Y92.338 E785.276
G1 X101.523 Y92.367 E785.297
G1 X100.892 Y92.477 E785.318
G1 X100.28 Y92.668 E785.34
G1 X99.697 Y92.937 E785.361
G1 X99.156 Y93.277 E785.382
G1 X98.386 Y93.907 E785.415
G1 X98.082 Y94.086 E785.427
G1 X97.754 Y94.215 E785.439
G1 X97.41 Y94.295 E785.451
G1 X97.05 Y94.322 E785.463
G1 X89.354 E785.719
G1 X88.872 Y94.362 E785.735
G1 X88.395 Y94.482 E785.751
G1 X87.944 Y94.681 E785.767
G1 X87.533 Y94.95 E785.784
G1 X87.171 Y95.282 E785.8
G1 X86.869 Y95.671 E785.816
G1 X86.634 Y96.103 E785.833
G1 X86.474 Y96.569 E785.849
G1 X86.394 Y97.055 E785.866
G1 Y97.545 E785.882
G1 X86.474 Y98.031 E785.898
G1 X86.634 Y98.497 E785.915
G1 X86.869 Y98.929 E785.931
G1 X87.171 Y99.318 E785.947
G1 X87.533 Y99.65 E785.964
G1 X87.944 Y99.919 E785.98
G1 X88.395 Y100.118 E785.996
G1 X88.872 Y100.238 E786.013
G1 X89.354 Y100.278 E786.029
G1 X97.05 E786.285
G1 X97.41 Y100.305 E786.297
G1 X97.754 Y100.385 E786.309
G1 X98.082 Y100.514 E786.32
G1 X98.386 Y100.693 E786.332
G1 X99.156 Y101.323 E786.365
G1 X99.697 Y101.663 E786.386
G1 X100.28 Y101.932 E786.408
G1 X100.892 Y102.123 E786.429
G1 X101.523 Y102.233 E786.45
G1 X102.163 Y102.262 E786.472
G1 X102.802 Y102.207 E786.493
G1 X103.428 Y102.072 E786.514
G1 F1800 E776.514
;rapid-dry
G1 F236
G0 X106.177 Y97.3
G1 F1800 E786.514
;bead-support-structure
G1 X87.24 F4200 E786.987
G1 F1800 E776.987
G1 F236
G0 X88.04
G0 X87.24
;rapid-dry
G1 F236
G0 X78.815 Y85.165
G1 F1800 E786.987
;bead-perimeter_inner
G1 X141.185 F1560 E789.061
G1 Y134.835 E790.713
G1 X78.815 E792.788
G1 Y85.165 E794.44
;rapid-leaky
G1 F236
G0 X78.45 Y84.8
;bead-perimeter_outer
G1 X141.55 F1080 E796.538
G1 Y135.2 E798.215
G1 X78.45 E800.313
G1 Y84.8 E801.99
G1 F1800 E791.99
;rapid-dry
G1 F236
G0 X113.107 Y96.479
G1 F1800 E801.99
;bead-perimeter_inner
G1 X113.016 Y97.024 F1560 E802.008
G1 Y97.576 E802.026
G1 X113.107 Y98.121 E802.045
G1 X113.287 Y98.644 E802.063
G1 X113.549 Y99.129 E802.082
G1 X113.889 Y99.566 E802.1
G1 X114.296 Y99.94 E802.118
G1 X114.758 Y100.241 E802.137
G1 X115.264 Y100.464 E802.155
G1 X115.8 Y100.599 E802.174
G1 X116.327 Y100.643 E802.191
G1 X124.025 E802.447
G1 X124.343 Y100.667 E802.458
G1 X124.633 Y100.734 E802.468
G1 X124.909 Y100.843 E802.477
G1 X125.164 Y100.993 E802.487
G1 X125.93 Y101.62 E802.52
G1 X126.511 Y101.985 E802.543
G1 X127.135 Y102.273 E802.566
G1 X127.793 Y102.478 E802.589
G1 X128.47 Y102.597 E802.612
G1 X129.157 Y102.628 E802.635
G1 X129.844 Y102.569 E802.658
G1 X130.515 Y102.423 E802.68
G1 X131.164 Y102.192 E802.703
G1 X131.777 Y101.879 E802.726
G1 X132.344 Y101.489 E802.749
G1 X132.856 Y101.029 E802.772
G1 X133.305 Y100.508 E802.795
G1 X133.682 Y99.933 E802.818
G1 X133.983 Y99.314 E802.841
G1 X134.201 Y98.662 E802.863
G1 X134.335 Y97.987 E802.886
G1 X134.378 Y97.3 E802.909
G1 X134.335 Y96.613 E802.932
G1 X134.201 Y95.938 E802.955
G1 X133.983 Y95.286 E802.978
G1 X133.682 Y94.667 E803.001
G1 X133.305 Y94.092 E803.024
G1 X132.856 Y93.571 E803.047
G1 X132.344 Y93.111 E803.069
G1 X131.777 Y92.722 E803.092
G1 X131.164 Y92.408 E803.115
G1 X130.515 Y92.177 E803.138
G1 X129.843 Y92.031 E803.161
G1 X129.158 Y91.972 E803.184
G1 X128.47 Y92.003 E803.207
G1 X127.793 Y92.122 E803.23
G1 X127.135 Y92.327 E803.253
G1 X126.511 Y92.615 E803.275
G1 X125.93 Y92.98 E803.298
G1 X125.164 Y93.607 E803.331
G1 X124.909 Y93.757 E803.341
G1 X124.633 Y93.866 E803.351
G1 X124.343 Y93.933 E803.361
G1 X124.025 Y93.957 E803.371
G1 X116.327 E803.627
G1 X115.8 Y94.001 E803.645
G1 X115.264 Y94.136 E803.663
G1 X114.758 Y94.359 E803.682
G1 X114.296 Y94.66 E803.7
G1 X113.889 Y95.034 E803.719
G1 X113.549 Y95.471 E803.737
G1 X113.287 Y95.956 E803.755
G1 X113.107 Y96.479 E803.774
;rapid-leaky
G1 F236
G0 X113.462 Y96.569
;bead-perimeter_outer
G1 X113.381 Y97.054 F1080 E803.79
G1 Y97.546 E803.806
G1 X113.462 Y98.031 E803.823
G1 X113.622 Y98.497 E803.839
G1 X113.856 Y98.929 E803.855
G1 X114.158 Y99.318 E803.872
G1 X114.521 Y99.65 E803.888
G1 X114.932 Y99.919 E803.905
G1 X115.383 Y100.118 E803.921
G1 X115.86 Y100.238 E803.937
G1 X116.342 Y100.278 E803.953
G1 X124.038 E804.209
G1 X124.398 Y100.305 E804.221
G1 X124.741 Y100.385 E804.233
G1 X125.069 Y100.514 E804.245
G1 X125.373 Y100.693 E804.257
G1 X126.143 Y101.323 E804.29
G1 X126.685 Y101.663 E804.311
G1 X127.267 Y101.932 E804.332
G1 X127.879 Y102.123 E804.354
G1 X128.51 Y102.233 E804.375
G1 X129.15 Y102.262 E804.396
G1 X129.789 Y102.207 E804.417
G1 X130.415 Y102.072 E804.439
G1 X131.019 Y101.856 E804.46
G1 X131.59 Y101.564 E804.481
G1 X132.118 Y101.202 E804.503
G1 X132.595 Y100.773 E804.524
G1 X133.013 Y100.288 E804.545
G1 X133.364 Y99.752 E804.567
G1 X133.645 Y99.176 E804.588
G1 X133.848 Y98.568 E804.609
G1 X133.972 Y97.94 E804.631
G1 X134.012 Y97.3 E804.652
G1 X133.972 Y96.66 E804.673
G1 X133.848 Y96.032 E804.695
G1 X133.645 Y95.424 E804.716
G1 X133.364 Y94.848 E804.737
G1 X133.013 Y94.312 E804.758
G1 X132.595 Y93.827 E804.78
G1 X132.118 Y93.398 E804.801
G1 X131.59 Y93.036 E804.822
G1 X131.018 Y92.744 E804.844
G1 X130.415 Y92.528 E804.865
G1 X129.789 Y92.393 E804.886
G1 X129.15 Y92.338 E804.908
G1 X128.51 Y92.367 E804.929
G1 X127.879 Y92.477 E804.95
G1 X127.267 Y92.668 E804.972
G1 X126.685 Y92.937 E804.993
G1 X126.143 Y93.277 E805.014
G1 X125.373 Y93.907 E805.047
G1 X125.069 Y94.086 E805.059
G1 X124.741 Y94.216 E805.071
G1 X124.398 Y94.295 E805.083
G1 X124.038 Y94.322 E805.094
G1 X116.342 E805.35
G1 X115.86 Y94.362 E805.367
G1 X115.383 Y94.482 E805.383
G1 X114.932 Y94.681 E805.399
G1 X114.521 Y94.95 E805.416
G1 X114.158 Y95.282 E805.432
G1 X113.856 Y95.671 E805.448
G1 X113.622 Y96.103 E805.465
G1 X113.462 Y96.569 E805.481
G1 F1800 E795.481
;rapid-dry
G1 F236
G0 X114.227 Y97.3
G1 F1800 E805.481
;bead-support-structure
G1 X133.165 F4200 E805.953
G1 F1800 E795.953
G1 F236
G0 X132.365
G0 X133.165
;rapid-dry
G1 F236
G0 X119.076 Y118.127
G1 F1800 E805.953
;bead-perimeter_inner
G1 X118.464 Y117.813 F1560 E805.976
G1 X117.817 Y117.582 E805.999
G1 X117.144 Y117.435 E806.022
G1 X116.46 Y117.377 E806.045
G1 X115.774 Y117.407 E806.068
G1 X115.096 Y117.526 E806.091
G1 X114.441 Y117.73 E806.114
G1 X113.817 Y118.017 E806.136
G1 X113.236 Y118.382 E806.159
G1 X112.471 Y119.007 E806.192
G1 X112.215 Y119.156 E806.202
G1 X111.939 Y119.266 E806.212
G1 X111.649 Y119.333 E806.222
G1 X111.331 Y119.357 E806.232
G1 X103.627 E806.489
G1 X103.1 Y119.401 E806.506
G1 X102.564 Y119.536 E806.524
G1 X102.058 Y119.759 E806.543
G1 X101.596 Y120.06 E806.561
G1 X101.189 Y120.434 E806.58
G1 X100.849 Y120.871 E806.598
G1 X100.587 Y121.356 E806.616
G1 X100.408 Y121.879 E806.635
G1 X100.316 Y122.424 E806.653
G1 Y122.976 E806.672
G1 X100.407 Y123.521 E806.69
G1 X100.587 Y124.044 E806.708
G1 X100.849 Y124.529 E806.727
G1 X101.189 Y124.966 E806.745
G1 X101.596 Y125.34 E806.763
G1 X102.058 Y125.641 E806.782
G1 X102.564 Y125.864 E806.8
G1 X103.1 Y125.999 E806.819
G1 X103.627 Y126.043 E806.836
G1 X111.331 E807.092
G1 X111.649 Y126.067 E807.103
G1 X111.939 Y126.134 E807.113
G1 X112.215 Y126.244 E807.123
G1 X112.471 Y126.393 E807.133
G1 X113.236 Y127.018 E807.165
G1 X113.817 Y127.383 E807.188
G1 X114.441 Y127.67 E807.211
G1 X115.096 Y127.874 E807.234
G1 X115.774 Y127.993 E807.257
G1 X116.46 Y128.023 E807.28
G1 X117.144 Y127.965 E807.302
G1 X117.817 Y127.818 E807.325
G1 X118.464 Y127.587 E807.348
G1 X119.076 Y127.273 E807.371
G1 X119.642 Y126.884 E807.394
G1 X120.153 Y126.425 E807.417
G1 X120.602 Y125.905 E807.44
G1 X120.979 Y125.329 E807.463
G1 X121.279 Y124.712 E807.485
G1 X121.497 Y124.061 E807.508
G1 X121.629 Y123.386 E807.531
G1 X121.674 Y122.7 E807.554
G1 X121.629 Y122.014 E807.577
G1 X121.497 Y121.339 E807.6
G1 X121.279 Y120.688 E807.623
G1 X120.979 Y120.071 E807.645
G1 X120.602 Y119.495 E807.668
G1 X120.153 Y118.975 E807.691
G1 X119.642 Y118.516 E807.714
G1 X119.076 Y118.127 E807.737
;rapid-leaky
G1 F236
G0 X118.889 Y118.441
;bead-perimeter_outer
G1 X118.319 Y118.149 F1080 E807.758
G1 X117.716 Y117.933 E807.779
G1 X117.09 Y117.797 E807.801
G1 X116.452 Y117.743 E807.822
G1 X115.813 Y117.771 E807.843
G1 X115.183 Y117.881 E807.865
G1 X114.572 Y118.072 E807.886
G1 X113.991 Y118.339 E807.907
G1 X113.449 Y118.679 E807.928
G1 X112.68 Y119.308 E807.961
G1 X112.375 Y119.486 E807.973
G1 X112.047 Y119.616 E807.985
G1 X111.704 Y119.695 E807.997
G1 X111.344 Y119.722 E808.009
G1 X103.642 E808.265
G1 X103.16 Y119.762 E808.281
G1 X102.683 Y119.882 E808.297
G1 X102.232 Y120.081 E808.314
G1 X101.821 Y120.35 E808.33
G1 X101.458 Y120.682 E808.346
G1 X101.156 Y121.071 E808.363
G1 X100.922 Y121.503 E808.379
G1 X100.762 Y121.969 E808.395
G1 X100.681 Y122.454 E808.412
G1 Y122.946 E808.428
G1 X100.762 Y123.431 E808.445
G1 X100.922 Y123.897 E808.461
G1 X101.156 Y124.329 E808.477
G1 X101.458 Y124.718 E808.494
G1 X101.821 Y125.05 E808.51
G1 X102.232 Y125.319 E808.526
G1 X102.683 Y125.518 E808.543
G1 X103.16 Y125.638 E808.559
G1 X103.642 Y125.678 E808.575
G1 X111.344 E808.831
G1 X111.704 Y125.705 E808.843
G1 X112.047 Y125.785 E808.855
G1 X112.375 Y125.914 E808.867
G1 X112.68 Y126.092 E808.878
G1 X113.449 Y126.721 E808.912
G1 X113.991 Y127.061 E808.933
G1 X114.572 Y127.328 E808.954
G1 X115.183 Y127.519 E808.975
G1 X115.813 Y127.629 E808.997
G1 X116.452 Y127.657 E809.018
G1 X117.09 Y127.603 E809.039
G1 X117.716 Y127.467 E809.061
G1 X118.319 Y127.251 E809.082
G1 X118.889 Y126.959 E809.103
G1 X119.416 Y126.596 E809.124
G1 X119.892 Y126.169 E809.146
G1 X120.31 Y125.685 E809.167
G1 X120.661 Y125.149 E809.188
G1 X120.941 Y124.574 E809.21
G1 X121.144 Y123.967 E809.231
G1 X121.267 Y123.339 E809.252
G1 X121.308 Y122.7 E809.273
G1 X121.267 Y122.061 E809.295
G1 X121.144 Y121.433 E809.316
G1 X120.941 Y120.826 E809.337
G1 X120.661 Y120.251 E809.359
G1 X120.31 Y119.715 E809.38
G1 X119.892 Y119.231 E809.401
G1 X119.416 Y118.804 E809.422
G1 X118.889 Y118.441 E809.444
G1 F1800 E799.444
;rapid-dry
G1 F236
G0 X120.46 Y122.7
G1 F1800 E809.444
;bead-support-structure
G1 X101.527 F4200 E809.916
G1 F1800 E799.916
G1 F236
G0 X102.327
G0 X101.527
;rapid-dry
G1 F236
G0 X102.337 Y119.286
G1 F1800 E809.916
;bead-solid_infill
G1 X120.66 Y100.963 F2400 E810.778
G1 X121.226 E810.797
G1 X103.11 Y119.079 E811.649
G1 X103.613 Y119.037 E811.666
G1 X103.718 E811.669
G1 X121.792 Y100.963 E812.519
G1 X122.357 E812.538
G1 X104.283 Y119.037 E813.388
G1 X104.849 E813.407
G1 X122.923 Y100.963 E814.257
G1 X123.489 E814.276
G1 X105.415 Y119.037 E815.126
G1 X105.98 E815.145
G1 X124.051 Y100.966 E815.995
G1 X124.294 Y100.984 E816.003
G1 X124.416 Y101.012 E816.007
G1 X124.537 Y101.04 E816.011
G1 X124.541 Y101.042
G1 X106.546 Y119.037 E816.858
G1 X107.112 E816.877
G1 X124.925 Y101.224 E817.715
G1 X124.981 Y101.257 E817.717
G1 X125.243 Y101.471 E817.728
G1 X107.677 Y119.037 E818.554
G1 X108.243 E818.573
G1 X125.554 Y101.726 E819.387
G1 X125.742 Y101.88 E819.395
G1 X125.88 Y101.966 E819.401
G1 X108.809 Y119.037 E820.204
G1 X109.374 E820.223
G1 X126.227 Y102.184 E821.015
G1 X126.358 Y102.267 E821.02
G1 X126.599 Y102.378 E821.029
G1 X109.94 Y119.037 E821.813
G1 X110.506 E821.832
G1 X126.986 Y102.557 E822.607
G1 X127.02 Y102.573 E822.608
G1 X127.413 Y102.695 E822.622
G1 X111.071 Y119.037 E823.39
G1 X111.318 E823.399
G1 X111.6 Y119.016 E823.408
G1 X111.676 Y118.998 E823.411
G1 X127.859 Y102.815 E824.172
G1 X128.341 Y102.899 E824.188
G1 X113.235 Y118.005 E824.899
G1 X113.664 Y117.735 E824.915
G1 X114.326 Y117.431 E824.94
G1 X114.396 Y117.409 E824.942
G1 X128.87 Y102.935 E825.623
G1 X129.164 Y102.949 E825.633
G1 X129.447 Y102.924 E825.642
G1 X115.186 Y117.185 E826.313
G1 X115.739 Y117.088 E826.332
G1 X115.854 Y117.083 E826.335
G1 X130.095 Y102.842 E827.005
G1 X130.268 Y102.804 E827.011
G1 X130.604 Y102.732 E827.023
G1 X130.864 Y102.639 E827.032
G1 X116.445 Y117.057 E827.71
G1 X116.466 Y117.056 E827.711
G1 X116.969 Y117.099 E827.728
G1 X131.887 Y102.182 E828.429
G1 F1800 E818.429
;rapid-dry
G1 F236
G0 X121.996 Y85.485
G1 F1800 E828.429
;bead-solid_infill
G1 X79.135 Y128.346 F2400 E830.445
G1 Y128.912 E830.464
G1 X122.562 Y85.485 E832.507
G1 X123.127 E832.526
G1 X114.406 Y94.206 E832.936
G1 X114.605 Y94.076 E832.944
G1 X114.867 Y93.961 E832.953
G1 X115.16 Y93.832 E832.964
G1 X115.409 Y93.769 E832.972
G1 X123.693 Y85.485 E833.362
G1 X124.259 E833.381
G1 X116.088 Y93.656 E833.765
G1 X116.313 Y93.637 E833.773
G1 X116.672 E833.785
G1 X124.824 Y85.485 E834.168
G1 X125.39 E834.187
G1 X117.238 Y93.637 E834.57
G1 X117.804 E834.589
G1 X125.956 Y85.485 E834.973
G1 X126.521 E834.991
G1 X118.369 Y93.637 E835.375
G1 X118.935 E835.394
G1 X127.087 Y85.485 E835.777
G1 X127.653 E835.796
G1 X119.501 Y93.637 E836.179
G1 X120.067 E836.198
G1 X128.219 Y85.485 E836.582
G1 X128.784 E836.6
G1 X120.632 Y93.637 E836.984
G1 X121.198 E837.003
G1 X129.35 Y85.485 E837.386
G1 X129.916 E837.405
G1 X121.764 Y93.637 E837.788
G1 X122.329 E837.807
G1 X130.481 Y85.485 E838.191
G1 X131.047 E838.209
G1 X122.895 Y93.637 E838.593
G1 X123.461 E838.612
G1 X131.613 Y85.485 E838.995
G1 X132.178 E839.014
G1 X124.027 Y93.636 E839.397
G1 X124.294 Y93.616 E839.406
G1 X124.537 Y93.56 E839.415
G1 X124.756 Y93.473 E839.422
G1 X132.744 Y85.485 E839.798
G1 X133.31 E839.817
G1 X126.55 Y92.245 E840.135
G1 X127.02 Y92.027 E840.152
G1 X127.475 Y91.886 E840.168
G1 X133.875 Y85.485 E840.469
G1 X134.441 E840.488
G1 X128.201 Y91.726 E840.781
G1 X128.435 Y91.684 E840.789
G1 X128.825 Y91.667 E840.802
G1 X135.007 Y85.485 E841.093
G1 X135.572 E841.112
G1 X129.387 Y91.671 E841.403
G1 X129.891 Y91.714 E841.42
G1 X129.906 Y91.717
G1 X136.138 Y85.485 E841.713
G1 X136.704 E841.732
G1 X130.371 Y91.818 E842.03
G1 X130.604 Y91.868 E842.038
G1 X130.812 Y91.943 E842.045
G1 X137.27 Y85.485 E842.349
G1 X137.835 E842.368
G1 X131.229 Y92.092 E842.679
G1 X131.291 Y92.114 E842.681
G1 X131.609 Y92.277 E842.693
G1 X138.401 Y85.485 E843.012
G1 X138.967 E843.031
G1 X131.979 Y92.472 E843.36
G1 X132.315 Y92.703 E843.373
G1 X139.532 Y85.485 E843.713
G1 X140.098 E843.732
G1 X132.638 Y92.945 E844.082
G1 X132.936 Y93.212 E844.096
G1 X140.664 Y85.485 E844.459
G1 X140.865 E844.466
G1 Y85.849 E844.478
G1 X133.216 Y93.498 E844.838
G1 X133.478 Y93.802 E844.851
G1 X140.865 Y86.415 E845.199
G1 Y86.981 E845.217
G1 X133.714 Y94.132 E845.554
G1 X133.938 Y94.474 E845.567
G1 X140.865 Y87.546 E845.893
G1 Y88.112 E845.912
G1 X134.127 Y94.85 E846.229
G1 X134.28 Y95.165 E846.241
G1 X134.305 Y95.238 E846.243
G1 X140.865 Y88.678 E846.552
G1 Y89.243 E846.571
G1 X134.446 Y95.662 E846.872
G1 X134.511 Y95.856 E846.879
G1 X134.562 Y96.112 E846.888
G1 X140.865 Y89.809 E847.184
G1 Y90.375 E847.203
G1 X134.653 Y96.586 E847.495
G1 X134.687 Y97.118 E847.513
G1 X140.865 Y90.94 E847.804
G1 Y91.506 E847.823
G1 X134.674 Y97.698 E848.114
G1 X134.653 Y98.028 E848.125
G1 X134.59 Y98.347 E848.136
G1 X140.865 Y92.072 E848.431
G1 Y92.638 E848.45
G1 X134.387 Y99.116 E848.754
G1 X134.28 Y99.435 E848.766
G1 X133.961 Y100.091 E848.79
G1 X133.93 Y100.138 E848.792
G1 X140.865 Y93.203 E849.118
G1 Y93.769 E849.137
G1 X117.458 Y117.176 E850.238
G1 X117.905 Y117.274 E850.253
G1 X117.921 Y117.279
G1 X140.865 Y94.335 E851.333
G1 Y94.9 E851.351
G1 X118.337 Y117.428 E852.411
G1 X118.591 Y117.519 E852.42
G1 X118.737 Y117.594 E852.426
G1 X140.865 Y95.466 E853.466
G1 Y96.032 E853.485
G1 X119.111 Y117.785 E854.508
G1 X119.24 Y117.851 E854.513
G1 X119.46 Y118.002 E854.522
G1 X140.865 Y96.597 E855.529
G1 Y97.163 E855.548
G1 X119.795 Y118.233 E856.539
G1 X119.841 Y118.264 E856.541
G1 X120.098 Y118.495 E856.552
G1 X140.865 Y97.729 E857.529
G1 Y98.294 E857.548
G1 X120.395 Y118.765 E858.511
G1 X120.657 Y119.068 E858.524
G1 X140.865 Y98.86 E859.474
G1 Y99.426 E859.493
G1 X120.91 Y119.381 E860.432
G1 X121.134 Y119.723 E860.445
G1 X140.865 Y99.991 E861.374
G1 Y100.557 E861.392
G1 X121.34 Y120.082 E862.311
G1 X121.525 Y120.462 E862.325
G1 X140.865 Y101.123 E863.235
G1 Y101.689 E863.253
G1 X121.679 Y120.874 E864.156
G1 X121.692 Y120.912 E864.157
G1 X121.807 Y121.257 E864.169
G1 X121.816 Y121.303 E864.171
G1 X140.865 Y102.254 E865.067
G1 Y102.82 E865.086
G1 X121.909 Y121.776 E865.977
G1 X121.947 Y121.973 E865.984
G1 X121.968 Y122.283 E865.994
G1 X140.865 Y103.386 E866.883
G1 Y103.951 E866.902
G1 X121.986 Y122.83 E867.79
G1 X121.947 Y123.427 E867.81
G1 X121.946 Y123.436
G1 X140.865 Y104.517 E868.7
G1 Y105.083 E868.719
G1 X121.808 Y124.14 E869.615
G1 X121.807 Y124.143
G1 X121.708 Y124.44 E869.626
G1 X121.576 Y124.833 E869.64
G1 X121.478 Y125.035 E869.647
G1 X140.865 Y105.648 E870.559
G1 Y106.214 E870.578
G1 X112.564 Y134.515 E871.909
G1 X113.13 E871.928
G1 X140.865 Y106.78 E873.232
G1 Y107.345 E873.251
G1 X113.695 Y134.515 E874.529
G1 X114.261 E874.548
G1 X140.865 Y107.911 E875.799
G1 Y108.477 E875.818
G1 X114.827 Y134.515 E877.043
G1 X115.392 E877.062
G1 X140.865 Y109.042 E878.26
G1 Y109.608 E878.279
G1 X115.958 Y134.515 E879.45
G1 X116.524 E879.469
G1 X140.865 Y110.174 E880.614
G1 Y110.739 E880.633
G1 X117.089 Y134.515 E881.751
G1 X117.655 E881.77
G1 X140.865 Y111.305 E882.862
G1 Y111.871 E882.88
G1 X118.221 Y134.515 E883.946
G1 X118.787 E883.964
G1 X140.865 Y112.437 E885.003
G1 Y113.002 E885.022
G1 X119.352 Y134.515 E886.034
G1 X119.918 E886.052
G1 X140.865 Y113.568 E887.038
G1 Y114.134 E887.057
G1 X120.484 Y134.515 E888.015
G1 X121.049 E888.034
G1 X140.865 Y114.699 E888.966
G1 Y115.265 E888.985
G1 X121.615 Y134.515 E889.89
G1 X122.181 E889.909
G1 X140.865 Y115.831 E890.788
G1 Y116.396 E890.807
G1 X122.746 Y134.515 E891.659
G1 X123.312 E891.678
G1 X140.865 Y116.962 E892.504
G1 Y117.528 E892.522
G1 X123.878 Y134.515 E893.321
G1 X124.443 E893.34
G1 X140.865 Y118.093 E894.113
G1 Y118.659 E894.131
G1 X125.009 Y134.515 E894.877
G1 X125.575 E894.896
G1 X140.865 Y119.225 E895.615
G1 Y119.79 E895.634
G1 X126.14 Y134.515 E896.327
G1 X126.706 E896.346
G1 X140.865 Y120.356 E897.012
G1 Y120.922 E897.03
G1 X127.272 Y134.515 E897.67
G1 X127.837 E897.689
G1 X140.865 Y121.487 E898.301
G1 Y122.053 E898.32
G1 X128.403 Y134.515 E898.906
G1 X128.969 E898.925
G1 X140.865 Y122.619 E899.485
G1 Y123.185 E899.503
G1 X129.535 Y134.515 E900.036
G1 X130.1 E900.055
G1 X140.865 Y123.75 E900.562
G1 Y124.316 E900.58
G1 X130.666 Y134.515 E901.06
G1 X131.232 E901.079
G1 X140.865 Y124.882 E901.532
G1 Y125.447 E901.551
G1 X131.797 Y134.515 E901.977
G1 X132.363 E901.996
G1 X140.865 Y126.013 E902.396
G1 Y126.579 E902.415
G1 X132.929 Y134.515 E902.788
G1 X133.494 E902.807
G1 X140.865 Y127.144 E903.154
G1 Y127.71 E903.173
G1 X134.06 Y134.515 E903.493
G1 X134.626 E903.511
G1 X140.865 Y128.276 E903.805
G1 Y128.841 E903.824
G1 X135.191 Y134.515 E904.091
G1 X135.757 E904.109
G1 X140.865 Y129.407 E904.35
G1 Y129.973 E904.369
G1 X136.323 Y134.515 E904.582
G1 X136.888 E904.601
G1 X140.865 Y130.538 E904.788
G1 Y131.104 E904.807
G1 X137.454 Y134.515 E904.967
G1 X138.02 E904.986
G1 X140.865 Y131.67 E905.12
G1 Y132.236 E905.139
G1 X138.586 Y134.515 E905.246
G1 X139.151 E905.265
G1 X140.865 Y132.801 E905.345
G1 Y133.367 E905.364
G1 X139.717 Y134.515 E905.418
G1 X140.283 E905.437
G1 X140.865 Y133.933 E905.464
G1 Y134.498 E905.483
G1 X140.848 Y134.515 E905.484
G1 F1800 E895.484
;rapid-dry
G1 F236
G0 X118.676 Y127.838
G1 F1800 E905.484
;bead-solid_infill
G1 X111.998 Y134.515 F2400 E905.798
G1 X111.433 E905.817
G1 X117.798 Y128.15 E906.116
G1 X117.192 Y128.282 E906.137
G1 X117.091 Y128.291 E906.14
G1 X110.867 Y134.515 E906.433
G1 X110.301 E906.452
G1 X116.473 Y128.343 E906.742
G1 X116.466 Y128.344
G1 X116.105 Y128.328 E906.754
G1 X115.93 Y128.32 E906.76
G1 X109.736 Y134.515 E907.052
G1 X109.17 E907.07
G1 X115.428 Y128.257 E907.365
G1 X115.319 Y128.238 E907.368
G1 X115.021 Y128.186 E907.379
G1 X114.954 Y128.165 E907.381
G1 X108.604 Y134.515 E907.68
G1 X108.038 E907.698
G1 X114.523 Y128.03 E908.003
G1 X114.326 Y127.969 E908.01
G1 X114.116 Y127.872 E908.018
G1 X107.473 Y134.515 E908.33
G1 X106.907 E908.349
G1 X113.728 Y127.694 E908.67
G1 X113.664 Y127.665 E908.672
G1 X113.374 Y127.483 E908.684
G1 X106.341 Y134.515 E909.015
G1 X105.776 E909.033
G1 X113.029 Y127.262 E909.375
G1 X112.718 Y127.008 E909.388
G1 X105.21 Y134.515 E909.741
G1 X104.644 E909.76
G1 X112.406 Y126.753 E910.125
G1 X112.288 Y126.656 E910.13
G1 X112.075 Y126.532 E910.138
G1 X112.065 Y126.528 E910.139
G1 X104.079 Y134.515 E910.514
G1 X103.513 E910.533
G1 X111.636 Y126.393 E910.915
G1 X111.6 Y126.384 E910.916
G1 X111.318 Y126.363 E910.926
G1 X111.099 E910.933
G1 X102.947 Y134.515 E911.316
G1 X102.382 E911.335
G1 X110.534 Y126.363 E911.719
G1 X109.968 E911.738
G1 X101.816 Y134.515 E912.121
G1 X101.25 E912.14
G1 X109.402 Y126.363 E912.523
G1 X108.837 E912.542
G1 X100.685 Y134.515 E912.925
G1 X100.119 E912.944
G1 X108.271 Y126.363 E913.328
G1 X107.705 E913.347
G1 X99.553 Y134.515 E913.73
G1 X98.988 E913.749
G1 X107.14 Y126.363 E914.132
G1 X106.574 E914.151
G1 X98.422 Y134.515 E914.535
G1 X97.856 E914.553
G1 X106.008 Y126.363 E914.937
G1 X105.442 E914.956
G1 X97.29 Y134.515 E915.339
G1 X96.725 E915.358
G1 X104.877 Y126.363 E915.741
G1 X104.311 E915.76
G1 X96.159 Y134.515 E916.144
G1 X95.593 E916.162
G1 X103.745 Y126.363 E916.546
G1 X103.613 E916.55
G1 X103.213 Y126.33 E916.564
G1 X95.028 Y134.515 E916.949
G1 X94.462 E916.967
G1 X102.739 Y126.238 E917.357
G1 X102.46 Y126.168 E917.366
G1 X102.309 Y126.102 E917.372
G1 X93.896 Y134.515 E917.767
G1 X93.331 E917.786
G1 X101.917 Y125.929 E918.19
G1 X101.905 Y125.924 E918.191
G1 X101.573 Y125.707 E918.204
G1 X92.765 Y134.515 E918.618
G1 X92.199 E918.637
G1 X101.254 Y125.46 E919.063
G1 X100.959 Y125.19 E919.076
G1 X91.634 Y134.515 E919.515
G1 X91.068 E919.534
G1 X100.711 Y124.872 E919.987
G1 X100.58 Y124.704 E919.994
G1 X100.486 Y124.531 E920.001
G1 X90.502 Y134.515 E920.47
G1 X89.937 E920.489
G1 X100.289 Y124.162 E920.976
G1 X100.145 Y123.741 E920.991
G1 X89.371 Y134.515 E921.498
G1 X88.805 E921.517
G1 X100.042 Y123.278 E922.045
G1 X99.996 Y123.003 E922.054
G1 Y122.759 E922.063
