;1001
;Firmware: Marlin
;Printer name: Creality Ender 3 V2
;Print time: 1h:15m:52s
;Extruder 1 material used: 4757mm
;Extruder 1 material name: PVA 1.75mm
;Extruder 1 filament diameter: 1.75mm
;Extruder 1 nozzle diameter: 0.4mm
;Extruder 1 offset x: 0mm
;Extruder 1 offset y: 0mm
;Extruder 1 offset z: 0mm
;Extruder 1 max temp: 220
;Bed temp: 60
;Layer count: 38
;Width: 220mm
;Depth: 220mm
;Height: 250mm
;Count of bodies: 1
;Fusion version: 2.0.9719
;--------------------------------
;Selected Profile: PVA 1.75mm, 0.4mm Nozzle
;Selected Printer: Creality, Ender 3 V2
;--------------------------------
M140 S60
M190 S60
M104 S220 T0
M109 S220 T0
G1 F236
G21
G90
M82
G28 Z0
G1 Z0 F236
G28 X0 Y0
G92 E0
G0 X0 Y0 Z0
G92 E0
;--------------------------------
;Layer : 1 of 38
M107
;rapid-leaky
G0 X20 Y20.8 Z0.3
G1 F1800 E10
;bead-prime
G1 X200 F270 E45.921
G1 F1800 E35.921
;rapid-dry
G1 F236
G0 X136.025 Y17.3
G1 F1800 E45.921
;bead-skirt/brim
G1 Y202.7 F780 E55.171
G1 X83.975 E57.767
G1 Y17.3 E67.017
G1 X136.025 E69.614
;rapid-leaky
G1 F236
G0 X135.625 Y17.7
;bead-skirt/brim
G1 Y202.3 F780 E78.824
G1 X84.375 E81.38
G1 Y17.7 E90.59
G1 X135.625 E93.147
;rapid-leaky
G1 F236
G0 X135.225 Y18.1
;bead-skirt/brim
G1 Y201.9 F780 E102.317
G1 X84.775 E104.834
G1 Y18.1 E114.004
G1 X135.225 E116.521
;rapid-leaky
G1 F236
G0 X134.825 Y18.5
;bead-skirt/brim
G1 Y201.5 F780 E125.65
G1 X85.175 E128.128
G1 Y18.5 E137.257
G1 X134.825 E139.734
;rapid-leaky
G1 F236
G0 X134.425 Y18.9
;bead-skirt/brim
G1 Y201.1 F780 E148.824
G1 X85.575 E151.262
G1 Y18.9 E160.352
G1 X134.425 E162.789
;rapid-leaky
G1 F236
G0 X134.025 Y19.3
;bead-skirt/brim
G1 Y200.7 F780 E171.839
G1 X85.975 E174.236
G1 Y19.3 E183.286
G1 X134.025 E185.683
;rapid-leaky
G1 F236
G0 X133.625 Y19.7
;bead-skirt/brim
G1 Y200.3 F780 E194.694
G1 X86.375 E197.051
G1 Y19.7 E206.061
G1 X133.625 E208.418
;rapid-leaky
G1 F236
G0 X133.225 Y20.1
;bead-skirt/brim
G1 Y199.9 F780 E217.389
G1 X86.775 E219.706
G1 Y20.1 E228.676
G1 X133.225 E230.994
;rapid-leaky
G1 F236
G0 X132.825 Y20.5
;bead-skirt/brim
G1 Y199.5 F780 E239.924
G1 X87.175 E242.201
G1 Y20.5 E251.132
G1 X132.825 E253.409
;rapid-leaky
G1 F236
G0 X132.425 Y20.9
;bead-skirt/brim
G1 Y199.1 F780 E262.3
G1 X87.575 E264.537
G1 Y20.9 E273.428
G1 X132.425 E275.665
G1 F1800 E265.665
;rapid-dry
G1 F236
G0 X131.66 Y21.665
G1 F1800 E275.665
;bead-perimeter_inner
G1 Y198.335 F780 E284.479
G1 X88.34 E286.641
G1 Y21.665 E295.455
G1 X131.66 E297.616
;rapid-leaky
G1 F236
G0 X132.025 Y21.3
;bead-perimeter_outer
G1 Y198.7 F540 E306.467
G1 X87.975 E308.664
G1 Y21.3 E317.515
G1 X132.025 E319.712
;rapid-leaky
G1 F236
G0 X131.34 Y197.788
;bead-solid_infill
G1 X131.113 Y198.015 F1200 E319.728
G1 X130.547 E319.757
G1 X131.34 Y197.222 E319.813
G1 Y196.656 E319.841
G1 X129.981 Y198.015 E319.937
G1 X129.416 E319.965
G1 X131.34 Y196.091 E320.101
G1 Y195.525 E320.129
G1 X128.85 Y198.015 E320.305
G1 X128.284 E320.333
G1 X131.34 Y194.959 E320.548
G1 Y194.394 E320.577
G1 X127.719 Y198.015 E320.832
G1 X127.153 E320.86
G1 X131.34 Y193.828 E321.156
G1 Y193.262 E321.184
G1 X126.587 Y198.015 E321.519
G1 X126.022 E321.548
G1 X131.34 Y192.697 E321.923
G1 Y192.131 E321.951
G1 X125.456 Y198.015 E322.366
G1 X124.89 E322.394
G1 X131.34 Y191.565 E322.849
G1 Y191 E322.878
G1 X124.325 Y198.015 E323.373
G1 X123.759 E323.401
G1 X131.34 Y190.434 E323.936
G1 Y189.868 E323.964
G1 X123.193 Y198.015 E324.539
G1 X122.628 E324.567
G1 X131.34 Y189.303 E325.182
G1 Y188.737 E325.21
G1 X122.062 Y198.015 E325.865
G1 X121.496 E325.893
G1 X131.34 Y188.171 E326.587
G1 Y187.605 E326.615
G1 X120.93 Y198.015 E327.35
G1 X120.365 E327.378
G1 X131.34 Y187.04 E328.153
G1 Y186.474 E328.181
G1 X119.799 Y198.015 E328.995
G1 X119.233 E329.023
G1 X131.34 Y185.908 E329.877
G1 Y185.343 E329.906
G1 X118.668 Y198.015 E330.8
G1 X118.102 E330.828
G1 X131.34 Y184.777 E331.762
G1 Y184.211 E331.79
G1 X117.536 Y198.015 E332.764
G1 X116.971 E332.792
G1 X131.34 Y183.646 E333.806
G1 Y183.08 E333.834
G1 X116.405 Y198.015 E334.888
G1 X115.839 E334.916
G1 X131.34 Y182.514 E336.01
G1 Y181.949 E336.038
G1 X115.274 Y198.015 E337.172
G1 X114.708 E337.2
G1 X131.34 Y181.383 E338.374
G1 Y180.817 E338.402
G1 X114.142 Y198.015 E339.615
G1 X113.577 E339.643
G1 X131.34 Y180.252 E340.897
G1 Y179.686 E340.925
G1 X113.011 Y198.015 E342.218
G1 X112.445 E342.246
G1 X131.34 Y179.12 E343.579
G1 Y178.555 E343.608
G1 X111.88 Y198.015 E344.981
G1 X111.314 E345.009
G1 X131.34 Y177.989 E346.422
G1 Y177.423 E346.45
G1 X110.748 Y198.015 E347.903
G1 X110.182 E347.931
G1 X131.34 Y176.857 E349.424
G1 Y176.292 E349.452
G1 X109.617 Y198.015 E350.985
G1 X109.051 E351.013
G1 X131.34 Y175.726 E352.586
G1 Y175.16 E352.614
G1 X108.485 Y198.015 E354.226
G1 X107.92 E354.255
G1 X131.34 Y174.595 E355.907
G1 Y174.029 E355.935
G1 X107.354 Y198.015 E357.628
G1 X106.788 E357.656
G1 X131.34 Y173.463 E359.388
G1 Y172.898 E359.416
G1 X106.223 Y198.015 E361.189
G1 X105.657 E361.217
G1 X131.34 Y172.332 E363.029
G1 Y171.766 E363.057
G1 X105.091 Y198.015 E364.909
G1 X104.526 E364.937
G1 X131.34 Y171.201 E366.829
G1 Y170.635 E366.857
G1 X103.96 Y198.015 E368.789
G1 X103.394 E368.817
G1 X131.34 Y170.069 E370.789
G1 Y169.504 E370.817
G1 X102.829 Y198.015 E372.829
G1 X102.263 E372.857
G1 X131.34 Y168.938 E374.909
G1 Y168.372 E374.937
G1 X101.697 Y198.015 E377.028
G1 X101.132 E377.057
G1 X131.34 Y167.807 E379.188
G1 Y167.241 E379.216
G1 X100.566 Y198.015 E381.388
G1 X100 E381.416
G1 X131.34 Y166.675 E383.627
G1 Y166.109 E383.655
G1 X99.434 Y198.015 E385.906
G1 X98.869 E385.935
G1 X131.34 Y165.544 E388.226
G1 Y164.978 E388.254
G1 X98.303 Y198.015 E390.585
G1 X97.737 E390.613
G1 X131.34 Y164.412 E392.984
G1 Y163.847 E393.012
G1 X97.172 Y198.015 E395.423
G1 X96.606 E395.451
G1 X131.34 Y163.281 E397.902
G1 Y162.715 E397.93
G1 X96.04 Y198.015 E400.42
G1 X95.475 E400.449
G1 X131.34 Y162.15 E402.979
G1 Y161.584 E403.007
G1 X94.909 Y198.015 E405.578
G1 X94.343 E405.606
G1 X131.34 Y161.018 E408.216
G1 Y160.453 E408.245
G1 X93.778 Y198.015 E410.895
G1 X93.212 E410.923
G1 X131.34 Y159.887 E413.613
G1 Y159.321 E413.641
G1 X92.646 Y198.015 E416.371
G1 X92.081 E416.4
G1 X131.34 Y158.756 E419.17
G1 Y158.19 E419.198
G1 X91.515 Y198.015 E422.008
G1 X90.949 E422.036
G1 X131.34 Y157.624 E424.886
G1 Y157.058 E424.914
G1 X90.383 Y198.015 E427.804
G1 X89.818 E427.832
G1 X131.34 Y156.493 E430.762
G1 Y155.927 E430.79
G1 X89.252 Y198.015 E433.759
G1 X88.686 E433.788
G1 X131.34 Y155.361 E436.797
G1 Y154.796 E436.825
G1 X88.66 Y197.476 E439.836
G1 Y196.91 E439.865
G1 X131.34 Y154.23 E442.876
G1 Y153.664 E442.904
G1 X88.66 Y196.344 E445.916
G1 Y195.779 E445.944
G1 X131.34 Y153.099 E448.955
G1 Y152.533 E448.983
G1 X88.66 Y195.213 E451.995
G1 Y194.647 E452.023
G1 X131.34 Y151.967 E455.034
G1 Y151.402 E455.062
G1 X88.66 Y194.082 E458.074
G1 Y193.516 E458.102
G1 X131.34 Y150.836 E461.113
G1 Y150.27 E461.141
G1 X88.66 Y192.95 E464.153
G1 Y192.385 E464.181
G1 X131.34 Y149.705 E467.192
G1 Y149.139 E467.22
G1 X88.66 Y191.819 E470.232
G1 Y191.253 E470.26
G1 X131.34 Y148.573 E473.271
G1 Y148.008 E473.299
G1 X88.66 Y190.688 E476.311
G1 Y190.122 E476.339
G1 X131.34 Y147.442 E479.35
G1 Y146.876 E479.379
G1 X88.66 Y189.556 E482.39
G1 Y188.99 E482.418
G1 X131.34 Y146.31 E485.429
G1 Y145.745 E485.458
G1 X88.66 Y188.425 E488.469
G1 Y187.859 E488.497
G1 X131.34 Y145.179 E491.508
G1 Y144.613 E491.537
G1 X88.66 Y187.293 E494.548
G1 Y186.728 E494.576
G1 X131.34 Y144.048 E497.587
G1 Y143.482 E497.616
G1 X88.66 Y186.162 E500.627
G1 Y185.596 E500.655
G1 X131.34 Y142.916 E503.667
G1 Y142.351 E503.695
G1 X88.66 Y185.031 E506.706
G1 Y184.465 E506.734
G1 X131.34 Y141.785 E509.746
G1 Y141.219 E509.774
G1 X88.66 Y183.899 E512.785
G1 Y183.334 E512.813
G1 X131.34 Y140.654 E515.825
G1 Y140.088 E515.853
G1 X88.66 Y182.768 E518.864
G1 Y182.202 E518.892
G1 X131.34 Y139.522 E521.904
G1 Y138.957 E521.932
G1 X88.66 Y181.637 E524.943
G1 Y181.071 E524.971
G1 X131.34 Y138.391 E527.983
G1 Y137.825 E528.011
G1 X88.66 Y180.505 E531.022
G1 Y179.939 E531.051
G1 X131.34 Y137.259 E534.062
G1 Y136.694 E534.09
G1 X88.66 Y179.374 E537.101
G1 Y178.808 E537.13
G1 X131.34 Y136.128 E540.141
G1 Y135.562 E540.169
G1 X88.66 Y178.242 E543.18
G1 Y177.677 E543.209
G1 X131.34 Y134.997 E546.22
G1 Y134.431 E546.248
G1 X88.66 Y177.111 E549.259
G1 Y176.545 E549.288
G1 X131.34 Y133.865 E552.299
G1 Y133.3 E552.327
G1 X88.66 Y175.98 E555.339
G1 Y175.414 E555.367
G1 X131.34 Y132.734 E558.378
G1 Y132.168 E558.406
G1 X88.66 Y174.848 E561.418
G1 Y174.283 E561.446
G1 X131.34 Y131.603 E564.457
G1 Y131.037 E564.485
G1 X88.66 Y173.717 E567.497
G1 Y173.151 E567.525
G1 X131.34 Y130.471 E570.536
G1 Y129.906 E570.564
G1 X88.66 Y172.586 E573.576
G1 Y172.02 E573.604
G1 X131.34 Y129.34 E576.615
G1 Y128.774 E576.643
G1 X88.66 Y171.454 E579.655
G1 Y170.889 E579.683
G1 X131.34 Y128.209 E582.694
G1 Y127.643 E582.722
G1 X88.66 Y170.323 E585.734
G1 Y169.757 E585.762
G1 X131.34 Y127.077 E588.773
G1 Y126.511 E588.802
G1 X88.66 Y169.191 E591.813
G1 Y168.626 E591.841
G1 X131.34 Y125.946 E594.852
G1 Y125.38 E594.881
G1 X88.66 Y168.06 E597.892
G1 Y167.494 E597.92
G1 X131.34 Y124.814 E600.931
G1 Y124.249 E600.96
G1 X88.66 Y166.929 E603.971
G1 Y166.363 E603.999
G1 X131.34 Y123.683 E607.01
G1 Y123.117 E607.039
G1 X88.66 Y165.797 E610.05
G1 Y165.232 E610.078
G1 X131.34 Y122.552 E613.09
G1 Y121.986 E613.118
G1 X88.66 Y164.666 E616.129
G1 Y164.1 E616.157
G1 X131.34 Y121.42 E619.169
G1 Y120.855 E619.197
G1 X88.66 Y163.535 E622.208
G1 Y162.969 E622.236
G1 X131.34 Y120.289 E625.248
G1 Y119.723 E625.276
G1 X88.66 Y162.403 E628.287
G1 Y161.838 E628.315
G1 X131.34 Y119.158 E631.327
G1 Y118.592 E631.355
G1 X88.66 Y161.272 E634.366
G1 Y160.706 E634.394
G1 X131.34 Y118.026 E637.406
G1 Y117.46 E637.434
G1 X88.66 Y160.141 E640.445
G1 Y159.575 E640.474
G1 X131.34 Y116.895 E643.485
G1 Y116.329 E643.513
G1 X88.66 Y159.009 E646.524
G1 Y158.443 E646.553
G1 X131.34 Y115.763 E649.564
G1 Y115.198 E649.592
G1 X88.66 Y157.878 E652.603
G1 Y157.312 E652.632
G1 X131.34 Y114.632 E655.643
G1 Y114.066 E655.671
G1 X88.66 Y156.746 E658.682
G1 Y156.181 E658.711
G1 X131.34 Y113.501 E661.722
G1 Y112.935 E661.75
G1 X88.66 Y155.615 E664.761
G1 Y155.049 E664.79
G1 X131.34 Y112.369 E667.801
G1 Y111.804 E667.829
G1 X88.66 Y154.484 E670.841
G1 Y153.918 E670.869
G1 X131.34 Y111.238 E673.88
G1 Y110.672 E673.908
G1 X88.66 Y153.352 E676.92
G1 Y152.787 E676.948
G1 X131.34 Y110.107 E679.959
G1 Y109.541 E679.987
G1 X88.66 Y152.221 E682.999
G1 Y151.655 E683.027
G1 X131.34 Y108.975 E686.038
G1 Y108.41 E686.066
G1 X88.66 Y151.09 E689.078
G1 Y150.524 E689.106
G1 X131.34 Y107.844 E692.117
G1 Y107.278 E692.145
G1 X88.66 Y149.958 E695.157
G1 Y149.392 E695.185
G1 X131.34 Y106.712 E698.196
G1 Y106.147 E698.224
G1 X88.66 Y148.827 E701.236
G1 Y148.261 E701.264
G1 X131.34 Y105.581 E704.275
G1 Y105.015 E704.304
G1 X88.66 Y147.695 E707.315
G1 Y147.13 E707.343
G1 X131.34 Y104.45 E710.354
G1 Y103.884 E710.383
G1 X88.66 Y146.564 E713.394
G1 Y145.998 E713.422
G1 X131.34 Y103.318 E716.433
G1 Y102.753 E716.462
G1 X88.66 Y145.433 E719.473
G1 Y144.867 E719.501
G1 X131.34 Y102.187 E722.513
G1 Y101.621 E722.541
G1 X88.66 Y144.301 E725.552
G1 Y143.736 E725.58
G1 X131.34 Y101.056 E728.592
G1 Y100.49 E728.62
G1 X88.66 Y143.17 E731.631
G1 Y142.604 E731.659
G1 X131.34 Y99.924 E734.671
G1 Y99.359 E734.699
G1 X88.66 Y142.039 E737.71
G1 Y141.473 E737.738
G1 X131.34 Y98.793 E740.75
G1 Y98.227 E740.778
G1 X88.66 Y140.907 E743.789
G1 Y140.342 E743.817
G1 X131.34 Y97.662 E746.829
G1 Y97.096 E746.857
G1 X88.66 Y139.776 E749.868
G1 Y139.21 E749.896
G1 X131.34 Y96.53 E752.908
G1 Y95.964 E752.936
G1 X88.66 Y138.644 E755.947
G1 Y138.079 E755.976
G1 X131.34 Y95.399 E758.987
G1 Y94.833 E759.015
G1 X88.66 Y137.513 E762.026
G1 Y136.947 E762.055
G1 X131.34 Y94.267 E765.066
G1 Y93.702 E765.094
G1 X88.66 Y136.382 E768.105
G1 Y135.816 E768.134
G1 X131.34 Y93.136 E771.145
G1 Y92.57 E771.173
G1 X88.66 Y135.25 E774.184
G1 Y134.685 E774.213
G1 X131.34 Y92.005 E777.224
G1 Y91.439 E777.252
G1 X88.66 Y134.119 E780.264
G1 Y133.553 E780.292
G1 X131.34 Y90.873 E783.303
G1 Y90.308 E783.331
G1 X88.66 Y132.988 E786.343
G1 Y132.422 E786.371
G1 X131.34 Y89.742 E789.382
G1 Y89.176 E789.41
G1 X88.66 Y131.856 E792.422
G1 Y131.291 E792.45
G1 X131.34 Y88.611 E795.461
G1 Y88.045 E795.489
G1 X88.66 Y130.725 E798.501
G1 Y130.159 E798.529
G1 X131.34 Y87.479 E801.54
G1 Y86.913 E801.568
G1 X88.66 Y129.593 E804.58
G1 Y129.028 E804.608
G1 X131.34 Y86.348 E807.619
G1 Y85.782 E807.648
G1 X88.66 Y128.462 E810.659
G1 Y127.896 E810.687
G1 X131.34 Y85.216 E813.698
G1 Y84.651 E813.727
G1 X88.66 Y127.331 E816.738
G1 Y126.765 E816.766
G1 X131.34 Y84.085 E819.777
G1 Y83.519 E819.806
G1 X88.66 Y126.199 E822.817
G1 Y125.634 E822.845
G1 X131.34 Y82.954 E825.856
G1 Y82.388 E825.885
G1 X88.66 Y125.068 E828.896
G1 Y124.502 E828.924
G1 X131.34 Y81.822 E831.935
G1 Y81.257 E831.964
G1 X88.66 Y123.937 E834.975
G1 Y123.371 E835.003
G1 X131.34 Y80.691 E838.015
G1 Y80.125 E838.043
G1 X88.66 Y122.805 E841.054
G1 Y122.24 E841.082
G1 X131.34 Y79.56 E844.094
G1 Y78.994 E844.122
G1 X88.66 Y121.674 E847.133
G1 Y121.108 E847.161
G1 X131.34 Y78.428 E850.173
G1 Y77.863 E850.201
G1 X88.66 Y120.543 E853.212
G1 Y119.977 E853.24
G1 X131.34 Y77.297 E856.252
G1 Y76.731 E856.28
G1 X88.66 Y119.411 E859.291
G1 Y118.845 E859.319
G1 X131.34 Y76.165 E862.331
G1 Y75.6 E862.359
G1 X88.66 Y118.28 E865.37
G1 Y117.714 E865.398
G1 X131.34 Y75.034 E868.41
G1 Y74.468 E868.438
G1 X88.66 Y117.148 E871.449
G1 Y116.583 E871.478
G1 X131.34 Y73.903 E874.489
G1 Y73.337 E874.517
G1 X88.66 Y116.017 E877.528
G1 Y115.451 E877.557
G1 X131.34 Y72.771 E880.568
G1 Y72.206 E880.596
G1 X88.66 Y114.886 E883.607
G1 Y114.32 E883.636
G1 X131.34 Y71.64 E886.647
G1 Y71.074 E886.675
G1 X88.66 Y113.754 E889.687
G1 Y113.189 E889.715
G1 X131.34 Y70.509 E892.726
G1 Y69.943 E892.754
G1 X88.66 Y112.623 E895.766
G1 Y112.057 E895.794
G1 X131.34 Y69.377 E898.805
G1 Y68.812 E898.833
G1 X88.66 Y111.492 E901.845
G1 Y110.926 E901.873
G1 X131.34 Y68.246 E904.884
G1 Y67.68 E904.912
G1 X88.66 Y110.36 E907.924
G1 Y109.795 E907.952
G1 X131.34 Y67.114 E910.963
G1 Y66.549 E910.991
G1 X88.66 Y109.229 E914.003
G1 Y108.663 E914.031
G1 X131.34 Y65.983 E917.042
G1 Y65.417 E917.07
G1 X88.66 Y108.097 E920.082
G1 Y107.532 E920.11
G1 X131.34 Y64.852 E923.121
G1 Y64.286 E923.15
G1 X88.66 Y106.966 E926.161
G1 Y106.4 E926.189
G1 X131.34 Y63.72 E929.2
G1 Y63.155 E929.229
G1 X88.66 Y105.835 E932.24
G1 Y105.269 E932.268
G1 X131.34 Y62.589 E935.279
G1 Y62.023 E935.308
G1 X88.66 Y104.703 E938.319
G1 Y104.138 E938.347
G1 X131.34 Y61.458 E941.358
G1 Y60.892 E941.387
G1 X88.66 Y103.572 E944.398
G1 Y103.006 E944.426
G1 X131.34 Y60.326 E947.438
G1 Y59.761 E947.466
G1 X88.66 Y102.441 E950.477
G1 Y101.875 E950.505
G1 X131.34 Y59.195 E953.517
G1 Y58.629 E953.545
G1 X88.66 Y101.309 E956.556
G1 Y100.744 E956.584
G1 X131.34 Y58.064 E959.596
G1 Y57.498 E959.624
G1 X88.66 Y100.178 E962.635
G1 Y99.612 E962.663
G1 X131.34 Y56.932 E965.675
G1 Y56.366 E965.703
G1 X88.66 Y99.046 E968.714
G1 Y98.481 E968.742
G1 X131.34 Y55.801 E971.754
G1 Y55.235 E971.782
G1 X88.66 Y97.915 E974.793
G1 Y97.349 E974.822
G1 X131.34 Y54.669 E977.833
G1 Y54.104 E977.861
G1 X88.66 Y96.784 E980.872
G1 Y96.218 E980.901
G1 X131.34 Y53.538 E983.912
G1 Y52.972 E983.94
G1 X88.66 Y95.652 E986.951
G1 Y95.087 E986.98
G1 X131.34 Y52.407 E989.991
G1 Y51.841 E990.019
G1 X88.66 Y94.521 E993.03
G1 Y93.955 E993.059
G1 X131.34 Y51.275 E996.07
G1 Y50.71 E996.098
G1 X88.66 Y93.39 E999.109
G1 Y92.824 E999.138
G1 X131.34 Y50.144 E1002.149
G1 Y49.578 E1002.177
G1 X88.66 Y92.258 E1005.189
G1 Y91.693 E1005.217
G1 X131.34 Y49.013 E1008.228
G1 Y48.447 E1008.256
G1 X88.66 Y91.127 E1011.268
G1 Y90.561 E1011.296
G1 X131.34 Y47.881 E1014.307
G1 Y47.316 E1014.335
G1 X88.66 Y89.996 E1017.347
G1 Y89.43 E1017.375
G1 X131.34 Y46.75 E1020.386
G1 Y46.184 E1020.414
G1 X88.66 Y88.864 E1023.426
G1 Y88.298 E1023.454
G1 X131.34 Y45.618 E1026.465
G1 Y45.053 E1026.494
G1 X88.66 Y87.733 E1029.505
G1 Y87.167 E1029.533
G1 X131.34 Y44.487 E1032.544
G1 Y43.921 E1032.573
G1 X88.66 Y86.601 E1035.584
G1 Y86.036 E1035.612
G1 X131.34 Y43.356 E1038.623
G1 Y42.79 E1038.652
G1 X88.66 Y85.47 E1041.663
G1 Y84.904 E1041.691
G1 X131.34 Y42.224 E1044.702
G1 Y41.659 E1044.731
G1 X88.66 Y84.339 E1047.742
G1 Y83.773 E1047.77
G1 X131.34 Y41.093 E1050.781
G1 Y40.527 E1050.81
G1 X88.66 Y83.207 E1053.821
G1 Y82.642 E1053.849
G1 X131.34 Y39.962 E1056.86
G1 Y39.396 E1056.889
G1 X88.66 Y82.076 E1059.9
G1 Y81.51 E1059.928
G1 X131.34 Y38.83 E1062.94
G1 Y38.265 E1062.968
G1 X88.66 Y80.945 E1065.979
G1 Y80.379 E1066.007
G1 X131.34 Y37.699 E1069.019
G1 Y37.133 E1069.047
G1 X88.66 Y79.813 E1072.058
G1 Y79.247 E1072.086
G1 X131.34 Y36.567 E1075.098
G1 Y36.002 E1075.126
G1 X88.66 Y78.682 E1078.137
G1 Y78.116 E1078.165
G1 X131.34 Y35.436 E1081.177
G1 Y34.87 E1081.205
G1 X88.66 Y77.55 E1084.216
G1 Y76.985 E1084.245
G1 X131.34 Y34.305 E1087.256
G1 Y33.739 E1087.284
G1 X88.66 Y76.419 E1090.295
G1 Y75.853 E1090.324
G1 X131.34 Y33.173 E1093.335
G1 Y32.608 E1093.363
G1 X88.66 Y75.288 E1096.374
G1 Y74.722 E1096.403
G1 X131.34 Y32.042 E1099.414
G1 Y31.476 E1099.442
G1 X88.66 Y74.156 E1102.453
G1 Y73.591 E1102.482
G1 X131.34 Y30.911 E1105.493
G1 Y30.345 E1105.521
G1 X88.66 Y73.025 E1108.532
G1 Y72.459 E1108.561
G1 X131.34 Y29.779 E1111.572
G1 Y29.214 E1111.6
G1 X88.66 Y71.894 E1114.612
G1 Y71.328 E1114.64
G1 X131.34 Y28.648 E1117.651
G1 Y28.082 E1117.679
G1 X88.66 Y70.762 E1120.691
G1 Y70.197 E1120.719
G1 X131.34 Y27.517 E1123.73
G1 Y26.951 E1123.758
G1 X88.66 Y69.631 E1126.77
G1 Y69.065 E1126.798
G1 X131.34 Y26.385 E1129.809
G1 Y25.819 E1129.837
G1 X88.66 Y68.499 E1132.849
G1 Y67.934 E1132.877
G1 X131.34 Y25.254 E1135.888
G1 Y24.688 E1135.917
G1 X88.66 Y67.368 E1138.928
G1 Y66.802 E1138.956
G1 X131.34 Y24.122 E1141.967
G1 Y23.557 E1141.995
G1 X88.66 Y66.237 E1145.007
G1 Y65.671 E1145.035
G1 X131.34 Y22.991 E1148.046
G1 Y22.425 E1148.075
G1 X88.66 Y65.105 E1151.086
G1 Y64.54 E1151.114
G1 X131.215 Y21.985 E1154.117
G1 X130.649 E1154.145
G1 X88.66 Y63.974 E1157.107
G1 Y63.408 E1157.135
G1 X130.083 Y21.985 E1160.058
G1 X129.518 E1160.086
G1 X88.66 Y62.843 E1162.969
G1 Y62.277 E1162.997
G1 X128.952 Y21.985 E1165.84
G1 X128.386 E1165.868
G1 X88.66 Y61.711 E1168.671
G1 Y61.146 E1168.699
G1 X127.821 Y21.985 E1171.463
G1 X127.255 E1171.491
G1 X88.66 Y60.58 E1174.214
G1 Y60.014 E1174.242
G1 X126.689 Y21.985 E1176.925
G1 X126.123 E1176.953
G1 X88.66 Y59.449 E1179.597
G1 Y58.883 E1179.625
G1 X125.558 Y21.985 E1182.228
G1 X124.992 E1182.256
G1 X88.66 Y58.317 E1184.82
G1 Y57.751 E1184.848
G1 X124.426 Y21.985 E1187.372
G1 X123.861 E1187.4
G1 X88.66 Y57.186 E1189.883
G1 Y56.62 E1189.912
G1 X123.295 Y21.985 E1192.355
G1 X122.729 E1192.384
G1 X88.66 Y56.054 E1194.787
G1 Y55.489 E1194.816
G1 X122.164 Y21.985 E1197.179
G1 X121.598 E1197.208
G1 X88.66 Y54.923 E1199.532
G1 Y54.357 E1199.56
G1 X121.032 Y21.985 E1201.844
G1 X120.467 E1201.872
G1 X88.66 Y53.792 E1204.116
G1 Y53.226 E1204.144
G1 X119.901 Y21.985 E1206.349
G1 X119.335 E1206.377
G1 X88.66 Y52.66 E1208.541
G1 Y52.095 E1208.569
G1 X118.77 Y21.985 E1210.694
G1 X118.204 E1210.722
G1 X88.66 Y51.529 E1212.807
G1 Y50.963 E1212.835
G1 X117.638 Y21.985 E1214.879
G1 X117.073 E1214.908
G1 X88.66 Y50.398 E1216.912
G1 Y49.832 E1216.94
G1 X116.507 Y21.985 E1218.905
G1 X115.941 E1218.933
G1 X88.66 Y49.266 E1220.858
G1 Y48.7 E1220.886
G1 X115.375 Y21.985 E1222.771
G1 X114.81 E1222.8
G1 X88.66 Y48.135 E1224.645
G1 Y47.569 E1224.673
G1 X114.244 Y21.985 E1226.478
G1 X113.678 E1226.506
G1 X88.66 Y47.003 E1228.271
G1 Y46.438 E1228.3
G1 X113.113 Y21.985 E1230.025
G1 X112.547 E1230.053
G1 X88.66 Y45.872 E1231.738
G1 Y45.306 E1231.767
G1 X111.981 Y21.985 E1233.412
G1 X111.416 E1233.44
G1 X88.66 Y44.741 E1235.046
G1 Y44.175 E1235.074
G1 X110.85 Y21.985 E1236.64
G1 X110.284 E1236.668
G1 X88.66 Y43.609 E1238.194
G1 Y43.044 E1238.222
G1 X109.719 Y21.985 E1239.708
G1 X109.153 E1239.736
G1 X88.66 Y42.478 E1241.182
G1 Y41.912 E1241.21
G1 X108.587 Y21.985 E1242.616
G1 X108.022 E1242.644
G1 X88.66 Y41.347 E1244.01
G1 Y40.781 E1244.038
G1 X107.456 Y21.985 E1245.365
G1 X106.89 E1245.393
G1 X88.66 Y40.215 E1246.679
G1 Y39.65 E1246.707
G1 X106.325 Y21.985 E1247.954
G1 X105.759 E1247.982
G1 X88.66 Y39.084 E1249.188
G1 Y38.518 E1249.216
G1 X105.193 Y21.985 E1250.383
G1 X104.627 E1250.411
G1 X88.66 Y37.952 E1251.538
G1 Y37.387 E1251.566
G1 X104.062 Y21.985 E1252.653
G1 X103.496 E1252.681
G1 X88.66 Y36.821 E1253.728
G1 Y36.255 E1253.756
G1 X102.93 Y21.985 E1254.763
G1 X102.365 E1254.791
G1 X88.66 Y35.69 E1255.758
G1 Y35.124 E1255.786
G1 X101.799 Y21.985 E1256.713
G1 X101.233 E1256.741
G1 X88.66 Y34.558 E1257.629
G1 Y33.993 E1257.657
G1 X100.668 Y21.985 E1258.504
G1 X100.102 E1258.532
G1 X88.66 Y33.427 E1259.339
G1 Y32.861 E1259.368
G1 X99.536 Y21.985 E1260.135
G1 X98.971 E1260.163
G1 X88.66 Y32.296 E1260.891
G1 Y31.73 E1260.919
G1 X98.405 Y21.985 E1261.607
G1 X97.839 E1261.635
G1 X88.66 Y31.164 E1262.282
G1 Y30.599 E1262.311
G1 X97.274 Y21.985 E1262.918
G1 X96.708 E1262.947
G1 X88.66 Y30.033 E1263.514
G1 Y29.467 E1263.543
G1 X96.142 Y21.985 E1264.071
G1 X95.576 E1264.099
G1 X88.66 Y28.901 E1264.587
G1 Y28.336 E1264.615
G1 X95.011 Y21.985 E1265.063
G1 X94.445 E1265.091
G1 X88.66 Y27.77 E1265.499
G1 Y27.204 E1265.528
G1 X93.879 Y21.985 E1265.896
G1 X93.314 E1265.924
G1 X88.66 Y26.639 E1266.252
G1 Y26.073 E1266.281
G1 X92.748 Y21.985 E1266.569
G1 X92.182 E1266.597
G1 X88.66 Y25.507 E1266.846
G1 Y24.942 E1266.874
G1 X91.617 Y21.985 E1267.083
G1 X91.051 E1267.111
G1 X88.66 Y24.376 E1267.28
G1 Y23.81 E1267.308
G1 X90.485 Y21.985 E1267.437
G1 X89.92 E1267.465
G1 X88.66 Y23.245 E1267.554
G1 Y22.679 E1267.582
G1 X89.354 Y21.985 E1267.631
G1 X88.788 E1267.659
G1 X88.66 Y22.113 E1267.668
G1 F1800 E1257.668
;Layer : 2 of 38
M106 S255
;rapid-dry
G1 F236
G0 X88.34 Y21.665 Z0.5
G1 F1800 E1267.668
;bead-perimeter_inner
G1 X131.66 F1560 E1269.109
G1 Y198.335 E1274.985
G1 X88.34 E1276.426
G1 Y21.665 E1282.302
;rapid-leaky
G1 F236
G0 X87.975 Y21.3
;bead-perimeter_outer
G1 X132.025 F1080 E1283.767
G1 Y198.7 E1289.667
G1 X87.975 E1291.133
G1 Y21.3 E1297.033
;rapid-leaky
G1 F236
G0 X131.113 Y21.985
;bead-solid_infill
G1 X131.34 Y22.212 F2400 E1297.044
G1 Y22.778 E1297.062
G1 X130.547 Y21.985 E1297.1
G1 X129.981 E1297.119
G1 X131.34 Y23.344 E1297.182
G1 Y23.909 E1297.201
G1 X129.416 Y21.985 E1297.292
G1 X128.85 E1297.311
G1 X131.34 Y24.475 E1297.428
G1 Y25.041 E1297.447
G1 X128.284 Y21.985 E1297.59
G1 X127.719 E1297.609
G1 X131.34 Y25.606 E1297.779
G1 Y26.172 E1297.798
G1 X127.153 Y21.985 E1297.995
G1 X126.587 E1298.014
G1 X131.34 Y26.738 E1298.237
G1 Y27.303 E1298.256
G1 X126.022 Y21.985 E1298.506
G1 X125.456 E1298.525
G1 X131.34 Y27.869 E1298.802
G1 Y28.435 E1298.821
G1 X124.89 Y21.985 E1299.124
G1 X124.325 E1299.143
G1 X131.34 Y29 E1299.473
G1 Y29.566 E1299.492
G1 X123.759 Y21.985 E1299.848
G1 X123.193 E1299.867
G1 X131.34 Y30.132 E1300.25
G1 Y30.697 E1300.269
G1 X122.628 Y21.985 E1300.679
G1 X122.062 E1300.698
G1 X131.34 Y31.263 E1301.134
G1 Y31.829 E1301.153
G1 X121.496 Y21.985 E1301.616
G1 X120.93 E1301.635
G1 X131.34 Y32.395 E1302.125
G1 Y32.96 E1302.143
G1 X120.365 Y21.985 E1302.66
G1 X119.799 E1302.678
G1 X131.34 Y33.526 E1303.221
G1 Y34.092 E1303.24
G1 X119.233 Y21.985 E1303.81
G1 X118.668 E1303.828
G1 X131.34 Y34.657 E1304.424
G1 Y35.223 E1304.443
G1 X118.102 Y21.985 E1305.066
G1 X117.536 E1305.085
G1 X131.34 Y35.789 E1305.734
G1 Y36.354 E1305.753
G1 X116.971 Y21.985 E1306.429
G1 X116.405 E1306.448
G1 X131.34 Y36.92 E1307.15
G1 Y37.486 E1307.169
G1 X115.839 Y21.985 E1307.898
G1 X115.274 E1307.917
G1 X131.34 Y38.051 E1308.672
G1 Y38.617 E1308.691
G1 X114.708 Y21.985 E1309.474
G1 X114.142 E1309.492
G1 X131.34 Y39.183 E1310.301
G1 Y39.748 E1310.32
G1 X113.577 Y21.985 E1311.156
G1 X113.011 E1311.175
G1 X131.34 Y40.314 E1312.037
G1 Y40.88 E1312.056
G1 X112.445 Y21.985 E1312.944
G1 X111.88 E1312.963
G1 X131.34 Y41.445 E1313.878
G1 Y42.011 E1313.897
G1 X111.314 Y21.985 E1314.839
G1 X110.748 E1314.858
G1 X131.34 Y42.577 E1315.827
G1 Y43.143 E1315.845
G1 X110.182 Y21.985 E1316.841
G1 X109.617 E1316.859
G1 X131.34 Y43.708 E1317.881
G1 Y44.274 E1317.9
G1 X109.051 Y21.985 E1318.948
G1 X108.485 E1318.967
G1 X131.34 Y44.84 E1320.042
G1 Y45.405 E1320.061
G1 X107.92 Y21.985 E1321.163
G1 X107.354 E1321.182
G1 X131.34 Y45.971 E1322.31
G1 Y46.537 E1322.329
G1 X106.788 Y21.985 E1323.483
G1 X106.223 E1323.502
G1 X131.34 Y47.102 E1324.684
G1 Y47.668 E1324.703
G1 X105.657 Y21.985 E1325.911
G1 X105.091 E1325.929
G1 X131.34 Y48.234 E1327.164
G1 Y48.799 E1327.183
G1 X104.526 Y21.985 E1328.444
G1 X103.96 E1328.463
G1 X131.34 Y49.365 E1329.751
G1 Y49.931 E1329.77
G1 X103.394 Y21.985 E1331.084
G1 X102.829 E1331.103
G1 X131.34 Y50.496 E1332.444
G1 Y51.062 E1332.463
G1 X102.263 Y21.985 E1333.83
G1 X101.697 E1333.849
G1 X131.34 Y51.628 E1335.244
G1 Y52.194 E1335.262
G1 X101.131 Y21.985 E1336.683
G1 X100.566 E1336.702
G1 X131.34 Y52.759 E1338.15
G1 Y53.325 E1338.168
G1 X100 Y21.985 E1339.643
G1 X99.434 E1339.661
G1 X131.34 Y53.891 E1341.162
G1 Y54.456 E1341.181
G1 X98.869 Y21.985 E1342.708
G1 X98.303 E1342.727
G1 X131.34 Y55.022 E1344.281
G1 Y55.588 E1344.3
G1 X97.737 Y21.985 E1345.88
G1 X97.172 E1345.899
G1 X131.34 Y56.153 E1347.506
G1 Y56.719 E1347.525
G1 X96.606 Y21.985 E1349.159
G1 X96.04 E1349.178
G1 X131.34 Y57.285 E1350.838
G1 Y57.85 E1350.857
G1 X95.475 Y21.985 E1352.544
G1 X94.909 E1352.563
G1 X131.34 Y58.416 E1354.276
G1 Y58.982 E1354.295
G1 X94.343 Y21.985 E1356.036
G1 X93.778 E1356.054
G1 X131.34 Y59.547 E1357.821
G1 Y60.113 E1357.84
G1 X93.212 Y21.985 E1359.633
G1 X92.646 E1359.652
G1 X131.34 Y60.679 E1361.472
G1 Y61.244 E1361.491
G1 X92.081 Y21.985 E1363.338
G1 X91.515 E1363.357
G1 X131.34 Y61.81 E1365.23
G1 Y62.376 E1365.249
G1 X90.949 Y21.985 E1367.148
G1 X90.383 E1367.167
G1 X131.34 Y62.942 E1369.094
G1 Y63.507 E1369.113
G1 X89.818 Y21.985 E1371.066
G1 X89.252 E1371.084
G1 X131.34 Y64.073 E1373.064
G1 Y64.639 E1373.083
G1 X88.686 Y21.985 E1375.089
G1 X88.66 E1375.09
G1 Y22.524 E1375.108
G1 X131.34 Y65.204 E1377.116
G1 Y65.77 E1377.134
G1 X88.66 Y23.09 E1379.142
G1 Y23.656 E1379.161
G1 X131.34 Y66.336 E1381.168
G1 Y66.901 E1381.187
G1 X88.66 Y24.221 E1383.195
G1 Y24.787 E1383.214
G1 X131.34 Y67.467 E1385.221
G1 Y68.033 E1385.24
G1 X88.66 Y25.353 E1387.247
G1 Y25.918 E1387.266
G1 X131.34 Y68.598 E1389.274
G1 Y69.164 E1389.292
G1 X88.66 Y26.484 E1391.3
G1 Y27.05 E1391.319
G1 X131.34 Y69.73 E1393.326
G1 Y70.295 E1393.345
G1 X88.66 Y27.615 E1395.353
G1 Y28.181 E1395.372
G1 X131.34 Y70.861 E1397.379
G1 Y71.427 E1397.398
G1 X88.66 Y28.747 E1399.406
G1 Y29.312 E1399.424
G1 X131.34 Y71.993 E1401.432
G1 Y72.558 E1401.451
G1 X88.66 Y29.878 E1403.458
G1 Y30.444 E1403.477
G1 X131.34 Y73.124 E1405.484
G1 Y73.69 E1405.503
G1 X88.66 Y31.01 E1407.511
G1 Y31.575 E1407.53
G1 X131.34 Y74.255 E1409.537
G1 Y74.821 E1409.556
G1 X88.66 Y32.141 E1411.564
G1 Y32.707 E1411.582
G1 X131.34 Y75.387 E1413.59
G1 Y75.952 E1413.609
G1 X88.66 Y33.272 E1415.616
G1 Y33.838 E1415.635
G1 X131.34 Y76.518 E1417.643
G1 Y77.084 E1417.661
G1 X88.66 Y34.404 E1419.669
G1 Y34.969 E1419.688
G1 X131.34 Y77.649 E1421.695
G1 Y78.215 E1421.714
G1 X88.66 Y35.535 E1423.722
G1 Y36.101 E1423.74
G1 X131.34 Y78.781 E1425.748
G1 Y79.346 E1425.767
G1 X88.66 Y36.666 E1427.774
G1 Y37.232 E1427.793
G1 X131.34 Y79.912 E1429.801
G1 Y80.478 E1429.82
G1 X88.66 Y37.798 E1431.827
G1 Y38.363 E1431.846
G1 X131.34 Y81.043 E1433.853
G1 Y81.609 E1433.872
G1 X88.66 Y38.929 E1435.88
G1 Y39.495 E1435.899
G1 X131.34 Y82.175 E1437.906
G1 Y82.741 E1437.925
G1 X88.66 Y40.061 E1439.932
G1 Y40.626 E1439.951
G1 X131.34 Y83.306 E1441.959
G1 Y83.872 E1441.978
G1 X88.66 Y41.192 E1443.985
G1 Y41.758 E1444.004
G1 X131.34 Y84.438 E1446.012
G1 Y85.003 E1446.03
G1 X88.66 Y42.323 E1448.038
G1 Y42.889 E1448.057
G1 X131.34 Y85.569 E1450.064
G1 Y86.135 E1450.083
G1 X88.66 Y43.455 E1452.091
G1 Y44.02 E1452.109
G1 X131.34 Y86.7 E1454.117
G1 Y87.266 E1454.136
G1 X88.66 Y44.586 E1456.143
G1 Y45.152 E1456.162
G1 X131.34 Y87.832 E1458.17
G1 Y88.397 E1458.188
G1 X88.66 Y45.717 E1460.196
G1 Y46.283 E1460.215
G1 X131.34 Y88.963 E1462.222
G1 Y89.529 E1462.241
G1 X88.66 Y46.849 E1464.249
G1 Y47.414 E1464.268
G1 X131.34 Y90.094 E1466.275
G1 Y90.66 E1466.294
G1 X88.66 Y47.98 E1468.301
G1 Y48.546 E1468.32
G1 X131.34 Y91.226 E1470.328
G1 Y91.791 E1470.347
G1 X88.66 Y49.111 E1472.354
G1 Y49.677 E1472.373
G1 X131.34 Y92.357 E1474.38
G1 Y92.923 E1474.399
G1 X88.66 Y50.243 E1476.407
G1 Y50.809 E1476.426
G1 X131.34 Y93.489 E1478.433
G1 Y94.054 E1478.452
G1 X88.66 Y51.374 E1480.46
G1 Y51.94 E1480.478
G1 X131.34 Y94.62 E1482.486
G1 Y95.186 E1482.505
G1 X88.66 Y52.506 E1484.512
G1 Y53.071 E1484.531
G1 X131.34 Y95.751 E1486.539
G1 Y96.317 E1486.557
G1 X88.66 Y53.637 E1488.565
G1 Y54.203 E1488.584
G1 X131.34 Y96.883 E1490.591
G1 Y97.448 E1490.61
G1 X88.66 Y54.768 E1492.618
G1 Y55.334 E1492.636
G1 X131.34 Y98.014 E1494.644
G1 Y98.58 E1494.663
G1 X88.66 Y55.9 E1496.67
G1 Y56.465 E1496.689
G1 X131.34 Y99.145 E1498.697
G1 Y99.711 E1498.716
G1 X88.66 Y57.031 E1500.723
G1 Y57.597 E1500.742
G1 X131.34 Y100.277 E1502.749
G1 Y100.842 E1502.768
G1 X88.66 Y58.162 E1504.776
G1 Y58.728 E1504.795
G1 X131.34 Y101.408 E1506.802
G1 Y101.974 E1506.821
G1 X88.66 Y59.294 E1508.828
G1 Y59.86 E1508.847
G1 X131.34 Y102.54 E1510.855
G1 Y103.105 E1510.874
G1 X88.66 Y60.425 E1512.881
G1 Y60.991 E1512.9
G1 X131.34 Y103.671 E1514.907
G1 Y104.237 E1514.926
G1 X88.66 Y61.557 E1516.934
G1 Y62.122 E1516.953
G1 X131.34 Y104.802 E1518.96
G1 Y105.368 E1518.979
G1 X88.66 Y62.688 E1520.987
G1 Y63.254 E1521.005
G1 X131.34 Y105.934 E1523.013
G1 Y106.499 E1523.032
G1 X88.66 Y63.819 E1525.039
G1 Y64.385 E1525.058
G1 X131.34 Y107.065 E1527.066
G1 Y107.631 E1527.084
G1 X88.66 Y64.951 E1529.092
G1 Y65.516 E1529.111
G1 X131.34 Y108.196 E1531.118
G1 Y108.762 E1531.137
G1 X88.66 Y66.082 E1533.145
G1 Y66.648 E1533.163
G1 X131.34 Y109.328 E1535.171
G1 Y109.893 E1535.19
G1 X88.66 Y67.213 E1537.197
G1 Y67.779 E1537.216
G1 X131.34 Y110.459 E1539.224
G1 Y111.025 E1539.243
G1 X88.66 Y68.345 E1541.25
G1 Y68.91 E1541.269
G1 X131.34 Y111.59 E1543.276
G1 Y112.156 E1543.295
G1 X88.66 Y69.476 E1545.303
G1 Y70.042 E1545.322
G1 X131.34 Y112.722 E1547.329
G1 Y113.288 E1547.348
G1 X88.66 Y70.608 E1549.355
G1 Y71.173 E1549.374
G1 X131.34 Y113.853 E1551.382
G1 Y114.419 E1551.401
G1 X88.66 Y71.739 E1553.408
G1 Y72.305 E1553.427
G1 X131.34 Y114.985 E1555.435
G1 Y115.55 E1555.453
G1 X88.66 Y72.87 E1557.461
G1 Y73.436 E1557.48
G1 X131.34 Y116.116 E1559.487
G1 Y116.682 E1559.506
G1 X88.66 Y74.002 E1561.514
G1 Y74.567 E1561.532
G1 X131.34 Y117.247 E1563.54
G1 Y117.813 E1563.559
G1 X88.66 Y75.133 E1565.566
G1 Y75.699 E1565.585
G1 X131.34 Y118.379 E1567.593
G1 Y118.944 E1567.611
G1 X88.66 Y76.264 E1569.619
G1 Y76.83 E1569.638
G1 X131.34 Y119.51 E1571.645
G1 Y120.076 E1571.664
G1 X88.66 Y77.396 E1573.672
G1 Y77.961 E1573.691
G1 X131.34 Y120.641 E1575.698
G1 Y121.207 E1575.717
G1 X88.66 Y78.527 E1577.724
G1 Y79.093 E1577.743
G1 X131.34 Y121.773 E1579.751
G1 Y122.339 E1579.77
G1 X88.66 Y79.658 E1581.777
G1 Y80.224 E1581.796
G1 X131.34 Y122.904 E1583.803
G1 Y123.47 E1583.822
G1 X88.66 Y80.79 E1585.83
G1 Y81.356 E1585.849
G1 X131.34 Y124.036 E1587.856
G1 Y124.601 E1587.875
G1 X88.66 Y81.921 E1589.883
G1 Y82.487 E1589.901
G1 X131.34 Y125.167 E1591.909
G1 Y125.733 E1591.928
G1 X88.66 Y83.053 E1593.935
G1 Y83.618 E1593.954
G1 X131.34 Y126.298 E1595.962
G1 Y126.864 E1595.98
G1 X88.66 Y84.184 E1597.988
G1 Y84.75 E1598.007
G1 X131.34 Y127.43 E1600.014
G1 Y127.995 E1600.033
G1 X88.66 Y85.315 E1602.041
G1 Y85.881 E1602.059
G1 X131.34 Y128.561 E1604.067
G1 Y129.127 E1604.086
G1 X88.66 Y86.447 E1606.093
G1 Y87.012 E1606.112
G1 X131.34 Y129.692 E1608.12
G1 Y130.258 E1608.139
G1 X88.66 Y87.578 E1610.146
G1 Y88.144 E1610.165
G1 X131.34 Y130.824 E1612.172
G1 Y131.389 E1612.191
G1 X88.66 Y88.709 E1614.199
G1 Y89.275 E1614.218
G1 X131.34 Y131.955 E1616.225
G1 Y132.521 E1616.244
G1 X88.66 Y89.841 E1618.251
G1 Y90.407 E1618.27
G1 X131.34 Y133.087 E1620.278
G1 Y133.652 E1620.297
G1 X88.66 Y90.972 E1622.304
G1 Y91.538 E1622.323
G1 X131.34 Y134.218 E1624.33
G1 Y134.784 E1624.349
G1 X88.66 Y92.104 E1626.357
G1 Y92.669 E1626.376
G1 X131.34 Y135.349 E1628.383
G1 Y135.915 E1628.402
G1 X88.66 Y93.235 E1630.41
G1 Y93.801 E1630.428
G1 X131.34 Y136.481 E1632.436
G1 Y137.046 E1632.455
G1 X88.66 Y94.366 E1634.462
G1 Y94.932 E1634.481
G1 X131.34 Y137.612 E1636.489
G1 Y138.178 E1636.507
G1 X88.66 Y95.498 E1638.515
G1 Y96.063 E1638.534
G1 X131.34 Y138.743 E1640.541
G1 Y139.309 E1640.56
G1 X88.66 Y96.629 E1642.568
G1 Y97.195 E1642.586
G1 X131.34 Y139.875 E1644.594
G1 Y140.44 E1644.613
G1 X88.66 Y97.76 E1646.62
G1 Y98.326 E1646.639
G1 X131.34 Y141.006 E1648.647
G1 Y141.572 E1648.666
G1 X88.66 Y98.892 E1650.673
G1 Y99.457 E1650.692
G1 X131.34 Y142.137 E1652.699
G1 Y142.703 E1652.718
G1 X88.66 Y100.023 E1654.726
G1 Y100.589 E1654.745
G1 X131.34 Y143.269 E1656.752
G1 Y143.835 E1656.771
G1 X88.66 Y101.155 E1658.778
G1 Y101.72 E1658.797
G1 X131.34 Y144.4 E1660.805
G1 Y144.966 E1660.824
G1 X88.66 Y102.286 E1662.831
G1 Y102.852 E1662.85
G1 X131.34 Y145.532 E1664.858
G1 Y146.097 E1664.876
G1 X88.66 Y103.417 E1666.884
G1 Y103.983 E1666.903
G1 X131.34 Y146.663 E1668.91
G1 Y147.229 E1668.929
G1 X88.66 Y104.549 E1670.937
G1 Y105.114 E1670.955
G1 X131.34 Y147.794 E1672.963
G1 Y148.36 E1672.982
G1 X88.66 Y105.68 E1674.989
G1 Y106.246 E1675.008
G1 X131.34 Y148.926 E1677.016
G1 Y149.491 E1677.034
G1 X88.66 Y106.811 E1679.042
G1 Y107.377 E1679.061
G1 X131.34 Y150.057 E1681.068
G1 Y150.623 E1681.087
G1 X88.66 Y107.943 E1683.095
G1 Y108.508 E1683.114
G1 X131.34 Y151.188 E1685.121
G1 Y151.754 E1685.14
G1 X88.66 Y109.074 E1687.147
G1 Y109.64 E1687.166
G1 X131.34 Y152.32 E1689.174
G1 Y152.886 E1689.193
G1 X88.66 Y110.206 E1691.2
G1 Y110.771 E1691.219
G1 X131.34 Y153.451 E1693.226
G1 Y154.017 E1693.245
G1 X88.66 Y111.337 E1695.253
G1 Y111.903 E1695.272
G1 X131.34 Y154.583 E1697.279
G1 Y155.148 E1697.298
G1 X88.66 Y112.468 E1699.306
G1 Y113.034 E1699.324
G1 X131.34 Y155.714 E1701.332
G1 Y156.28 E1701.351
G1 X88.66 Y113.6 E1703.358
G1 Y114.165 E1703.377
G1 X131.34 Y156.845 E1705.385
G1 Y157.411 E1705.403
G1 X88.66 Y114.731 E1707.411
G1 Y115.297 E1707.43
G1 X131.34 Y157.977 E1709.437
G1 Y158.542 E1709.456
G1 X88.66 Y115.862 E1711.464
G1 Y116.428 E1711.482
G1 X131.34 Y159.108 E1713.49
G1 Y159.674 E1713.509
G1 X88.66 Y116.994 E1715.516
G1 Y117.559 E1715.535
G1 X131.34 Y160.239 E1717.543
G1 Y160.805 E1717.562
G1 X88.66 Y118.125 E1719.569
G1 Y118.691 E1719.588
G1 X131.34 Y161.371 E1721.595
G1 Y161.936 E1721.614
G1 X88.66 Y119.256 E1723.622
G1 Y119.822 E1723.641
G1 X131.34 Y162.502 E1725.648
G1 Y163.068 E1725.667
G1 X88.66 Y120.388 E1727.674
G1 Y120.954 E1727.693
G1 X131.34 Y163.634 E1729.701
G1 Y164.199 E1729.72
G1 X88.66 Y121.519 E1731.727
G1 Y122.085 E1731.746
G1 X131.34 Y164.765 E1733.754
G1 Y165.331 E1733.772
G1 X88.66 Y122.651 E1735.78
G1 Y123.216 E1735.799
G1 X131.34 Y165.896 E1737.806
G1 Y166.462 E1737.825
G1 X88.66 Y123.782 E1739.833
G1 Y124.348 E1739.851
G1 X131.34 Y167.028 E1741.859
G1 Y167.593 E1741.878
G1 X88.66 Y124.913 E1743.885
G1 Y125.479 E1743.904
G1 X131.34 Y168.159 E1745.912
G1 Y168.725 E1745.93
G1 X88.66 Y126.045 E1747.938
G1 Y126.61 E1747.957
G1 X131.34 Y169.29 E1749.964
G1 Y169.856 E1749.983
G1 X88.66 Y127.176 E1751.991
G1 Y127.742 E1752.009
G1 X131.34 Y170.422 E1754.017
G1 Y170.987 E1754.036
G1 X88.66 Y128.307 E1756.043
G1 Y128.873 E1756.062
G1 X131.34 Y171.553 E1758.07
G1 Y172.119 E1758.089
G1 X88.66 Y129.439 E1760.096
G1 Y130.005 E1760.115
G1 X131.34 Y172.685 E1762.122
G1 Y173.25 E1762.141
G1 X88.66 Y130.57 E1764.149
G1 Y131.136 E1764.168
G1 X131.34 Y173.816 E1766.175
G1 Y174.382 E1766.194
G1 X88.66 Y131.702 E1768.201
G1 Y132.267 E1768.22
G1 X131.34 Y174.947 E1770.228
G1 Y175.513 E1770.247
G1 X88.66 Y132.833 E1772.254
G1 Y133.399 E1772.273
G1 X131.34 Y176.079 E1774.281
G1 Y176.644 E1774.299
G1 X88.66 Y133.964 E1776.307
G1 Y134.53 E1776.326
G1 X131.34 Y177.21 E1778.333
G1 Y177.776 E1778.352
G1 X88.66 Y135.096 E1780.36
G1 Y135.661 E1780.378
G1 X131.34 Y178.341 E1782.386
G1 Y178.907 E1782.405
G1 X88.66 Y136.227 E1784.412
G1 Y136.793 E1784.431
G1 X131.34 Y179.473 E1786.439
G1 Y180.038 E1786.457
G1 X88.66 Y137.358 E1788.465
G1 Y137.924 E1788.484
G1 X131.34 Y180.604 E1790.491
G1 Y181.17 E1790.51
G1 X88.66 Y138.49 E1792.518
G1 Y139.055 E1792.536
G1 X131.34 Y181.735 E1794.544
G1 Y182.301 E1794.563
G1 X88.66 Y139.621 E1796.57
G1 Y140.187 E1796.589
G1 X131.34 Y182.867 E1798.597
G1 Y183.433 E1798.616
G1 X88.66 Y140.753 E1800.623
G1 Y141.318 E1800.642
G1 X131.34 Y183.998 E1802.649
G1 Y184.564 E1802.668
G1 X88.66 Y141.884 E1804.676
G1 Y142.45 E1804.695
G1 X131.34 Y185.13 E1806.702
G1 Y185.695 E1806.721
G1 X88.66 Y143.015 E1808.729
G1 Y143.581 E1808.747
G1 X131.34 Y186.261 E1810.755
G1 Y186.827 E1810.774
G1 X88.66 Y144.147 E1812.781
G1 Y144.712 E1812.8
G1 X131.34 Y187.392 E1814.807
G1 Y187.958 E1814.826
G1 X88.66 Y145.278 E1816.834
G1 Y145.844 E1816.853
G1 X131.34 Y188.524 E1818.86
G1 Y189.089 E1818.879
G1 X88.66 Y146.409 E1820.887
G1 Y146.975 E1820.905
G1 X131.34 Y189.655 E1822.913
G1 Y190.221 E1822.932
G1 X88.66 Y147.541 E1824.939
G1 Y148.106 E1824.958
G1 X131.34 Y190.786 E1826.966
G1 Y191.352 E1826.984
G1 X88.66 Y148.672 E1828.992
G1 Y149.238 E1829.011
G1 X131.34 Y191.918 E1831.018
G1 Y192.483 E1831.037
G1 X88.66 Y149.803 E1833.045
G1 Y150.369 E1833.063
G1 X131.34 Y193.049 E1835.071
G1 Y193.615 E1835.09
G1 X88.66 Y150.935 E1837.097
G1 Y151.501 E1837.116
G1 X131.34 Y194.181 E1839.124
G1 Y194.746 E1839.143
G1 X88.66 Y152.066 E1841.15
G1 Y152.632 E1841.169
G1 X131.34 Y195.312 E1843.177
G1 Y195.878 E1843.195
G1 X88.66 Y153.198 E1845.203
G1 Y153.763 E1845.222
G1 X131.34 Y196.443 E1847.229
G1 Y197.009 E1847.248
G1 X88.66 Y154.329 E1849.255
G1 Y154.895 E1849.274
G1 X131.34 Y197.575 E1851.282
G1 Y198.015 E1851.297
G1 X131.215 E1851.301
G1 X88.66 Y155.46 E1853.302
G1 Y156.026 E1853.321
G1 X130.649 Y198.015 E1855.296
G1 X130.083 E1855.315
G1 X88.66 Y156.592 E1857.263
G1 Y157.157 E1857.282
G1 X129.518 Y198.015 E1859.204
G1 X128.952 E1859.223
G1 X88.66 Y157.723 E1861.118
G1 Y158.289 E1861.137
G1 X128.386 Y198.015 E1863.005
G1 X127.821 E1863.024
G1 X88.66 Y158.854 E1864.866
G1 Y159.42 E1864.885
G1 X127.255 Y198.015 E1866.7
G1 X126.689 E1866.719
G1 X88.66 Y159.986 E1868.508
G1 Y160.552 E1868.527
G1 X126.124 Y198.015 E1870.289
G1 X125.558 E1870.308
G1 X88.66 Y161.117 E1872.043
G1 Y161.683 E1872.062
G1 X124.992 Y198.015 E1873.771
G1 X124.426 E1873.79
G1 X88.66 Y162.249 E1875.472
G1 Y162.814 E1875.491
G1 X123.861 Y198.015 E1877.147
G1 X123.295 E1877.166
G1 X88.66 Y163.38 E1878.795
G1 Y163.946 E1878.814
G1 X122.729 Y198.015 E1880.416
G1 X122.164 E1880.435
G1 X88.66 Y164.511 E1882.011
G1 Y165.077 E1882.03
G1 X121.598 Y198.015 E1883.579
G1 X121.032 E1883.598
G1 X88.66 Y165.643 E1885.121
G1 Y166.208 E1885.139
G1 X120.467 Y198.015 E1886.635
G1 X119.901 E1886.654
G1 X88.66 Y166.774 E1888.124
G1 Y167.34 E1888.143
G1 X119.335 Y198.015 E1889.585
G1 X118.77 E1889.604
G1 X88.66 Y167.905 E1891.021
G1 Y168.471 E1891.039
G1 X118.204 Y198.015 E1892.429
G1 X117.638 E1892.448
G1 X88.66 Y169.037 E1893.811
G1 Y169.602 E1893.83
G1 X117.073 Y198.015 E1895.166
G1 X116.507 E1895.185
G1 X88.66 Y170.168 E1896.495
G1 Y170.734 E1896.514
G1 X115.941 Y198.015 E1897.797
G1 X115.375 E1897.816
G1 X88.66 Y171.3 E1899.072
G1 Y171.865 E1899.091
G1 X114.81 Y198.015 E1900.321
G1 X114.244 E1900.34
G1 X88.66 Y172.431 E1901.543
G1 Y172.997 E1901.562
G1 X113.678 Y198.015 E1902.739
G1 X113.113 E1902.758
G1 X88.66 Y173.562 E1903.908
G1 Y174.128 E1903.927
G1 X112.547 Y198.015 E1905.05
G1 X111.981 E1905.069
G1 X88.66 Y174.694 E1906.166
G1 Y175.259 E1906.185
G1 X111.416 Y198.015 E1907.255
G1 X110.85 E1907.274
G1 X88.66 Y175.825 E1908.318
G1 Y176.391 E1908.337
G1 X110.284 Y198.015 E1909.354
G1 X109.719 E1909.373
G1 X88.66 Y176.956 E1910.363
G1 Y177.522 E1910.382
G1 X109.153 Y198.015 E1911.346
G1 X108.587 E1911.365
G1 X88.66 Y178.088 E1912.302
G1 Y178.653 E1912.321
G1 X108.022 Y198.015 E1913.231
G1 X107.456 E1913.25
G1 X88.66 Y179.219 E1914.134
G1 Y179.785 E1914.153
G1 X106.89 Y198.015 E1915.011
G1 X106.325 E1915.029
G1 X88.66 Y180.35 E1915.86
G1 Y180.916 E1915.879
G1 X105.759 Y198.015 E1916.683
G1 X105.193 E1916.702
G1 X88.66 Y181.482 E1917.48
G1 Y182.048 E1917.499
G1 X104.627 Y198.015 E1918.25
G1 X104.062 E1918.269
G1 X88.66 Y182.613 E1918.993
G1 Y183.179 E1919.012
G1 X103.496 Y198.015 E1919.71
G1 X102.93 E1919.729
G1 X88.66 Y183.745 E1920.4
G1 Y184.31 E1920.419
G1 X102.365 Y198.015 E1921.063
G1 X101.799 E1921.082
G1 X88.66 Y184.876 E1921.7
G1 Y185.442 E1921.719
G1 X101.233 Y198.015 E1922.31
G1 X100.668 E1922.329
G1 X88.66 Y186.007 E1922.894
G1 Y186.573 E1922.913
G1 X100.102 Y198.015 E1923.451
G1 X99.536 E1923.47
G1 X88.66 Y187.139 E1923.981
G1 Y187.704 E1924
G1 X98.971 Y198.015 E1924.485
G1 X98.405 E1924.504
G1 X88.66 Y188.27 E1924.962
G1 Y188.836 E1924.981
G1 X97.839 Y198.015 E1925.413
G1 X97.274 E1925.432
G1 X88.66 Y189.401 E1925.837
G1 Y189.967 E1925.856
G1 X96.708 Y198.015 E1926.234
G1 X96.142 E1926.253
G1 X88.66 Y190.533 E1926.605
G1 Y191.099 E1926.624
G1 X95.576 Y198.015 E1926.949
G1 X95.011 E1926.968
G1 X88.66 Y191.664 E1927.267
G1 Y192.23 E1927.285
G1 X94.445 Y198.015 E1927.558
G1 X93.879 E1927.576
G1 X88.66 Y192.796 E1927.822
G1 Y193.361 E1927.841
G1 X93.314 Y198.015 E1928.06
G1 X92.748 E1928.078
G1 X88.66 Y193.927 E1928.271
G1 Y194.493 E1928.29
G1 X92.182 Y198.015 E1928.455
G1 X91.617 E1928.474
G1 X88.66 Y195.058 E1928.613
G1 Y195.624 E1928.632
G1 X91.051 Y198.015 E1928.744
G1 X90.485 E1928.763
G1 X88.66 Y196.19 E1928.849
G1 Y196.755 E1928.868
G1 X89.92 Y198.015 E1928.927
G1 X89.354 E1928.946
G1 X88.66 Y197.321 E1928.979
G1 Y197.887 E1928.997
G1 X88.788 Y198.015 E1929.003
G1 F1800 E1919.003
;Layer : 3 of 38
;rapid-dry
G1 F236
G0 X88.34 Y198.335 Z0.7
G1 F1800 E1929.003
;bead-perimeter_inner
G1 Y21.665 F1560 E1934.88
G1 X131.66 E1936.32
G1 Y198.335 E1942.196
G1 X88.34 E1943.637
;rapid-leaky
G1 F236
G0 X87.975 Y198.7
;bead-perimeter_outer
G1 Y21.3 F1080 E1949.538
G1 X132.025 E1951.003
G1 Y198.7 E1956.903
G1 X87.975 E1958.368
;rapid-leaky
G1 F236
G0 X88.66 Y22.113
;bead-solid_infill
G1 X88.788 Y21.985 F2400 E1958.374
G1 X89.354 E1958.393
G1 X88.66 Y22.679 E1958.426
G1 Y23.245 E1958.444
G1 X89.92 Y21.985 E1958.504
G1 X90.485 E1958.522
G1 X88.66 Y23.81 E1958.608
G1 Y24.376 E1958.627
G1 X91.051 Y21.985 E1958.74
G1 X91.617 E1958.758
G1 X88.66 Y24.942 E1958.897
G1 Y25.507 E1958.916
G1 X92.182 Y21.985 E1959.082
G1 X92.748 E1959.101
G1 X88.66 Y26.073 E1959.293
G1 Y26.639 E1959.312
G1 X93.314 Y21.985 E1959.531
G1 X93.879 E1959.55
G1 X88.66 Y27.204 E1959.795
G1 Y27.77 E1959.814
G1 X94.445 Y21.985 E1960.086
G1 X95.011 E1960.105
G1 X88.66 Y28.336 E1960.404
G1 Y28.901 E1960.422
G1 X95.576 Y21.985 E1960.748
G1 X96.142 E1960.767
G1 X88.66 Y29.467 E1961.119
G1 Y30.033 E1961.137
G1 X96.708 Y21.985 E1961.516
G1 X97.274 E1961.535
G1 X88.66 Y30.599 E1961.94
G1 Y31.164 E1961.959
G1 X97.839 Y21.985 E1962.39
G1 X98.405 E1962.409
G1 X88.66 Y31.73 E1962.868
G1 Y32.296 E1962.886
G1 X98.971 Y21.985 E1963.371
G1 X99.536 E1963.39
G1 X88.66 Y32.861 E1963.902
G1 Y33.427 E1963.921
G1 X100.102 Y21.985 E1964.459
G1 X100.668 E1964.478
G1 X88.66 Y33.993 E1965.042
G1 Y34.558 E1965.061
G1 X101.233 Y21.985 E1965.653
G1 X101.799 E1965.672
G1 X88.66 Y35.124 E1966.29
G1 Y35.69 E1966.308
G1 X102.365 Y21.985 E1966.953
G1 X102.93 E1966.972
G1 X88.66 Y36.255 E1967.643
G1 Y36.821 E1967.662
G1 X103.496 Y21.985 E1968.36
G1 X104.062 E1968.378
G1 X88.66 Y37.387 E1969.103
G1 Y37.952 E1969.122
G1 X104.627 Y21.985 E1969.873
G1 X105.193 E1969.892
G1 X88.66 Y38.518 E1970.669
G1 Y39.084 E1970.688
G1 X105.759 Y21.985 E1971.492
G1 X106.325 E1971.511
G1 X88.66 Y39.65 E1972.342
G1 Y40.215 E1972.361
G1 X106.89 Y21.985 E1973.218
G1 X107.456 E1973.237
G1 X88.66 Y40.781 E1974.121
G1 Y41.347 E1974.14
G1 X108.022 Y21.985 E1975.051
G1 X108.587 E1975.07
G1 X88.66 Y41.912 E1976.007
G1 Y42.478 E1976.026
G1 X109.153 Y21.985 E1976.99
G1 X109.719 E1977.009
G1 X88.66 Y43.044 E1977.999
G1 Y43.609 E1978.018
G1 X110.284 Y21.985 E1979.035
G1 X110.85 E1979.054
G1 X88.66 Y44.175 E1980.098
G1 Y44.741 E1980.116
G1 X111.416 Y21.985 E1981.187
G1 X111.981 E1981.206
G1 X88.66 Y45.306 E1982.302
G1 Y45.872 E1982.321
G1 X112.547 Y21.985 E1983.445
G1 X113.113 E1983.464
G1 X88.66 Y46.438 E1984.614
G1 Y47.003 E1984.633
G1 X113.678 Y21.985 E1985.809
G1 X114.244 E1985.828
G1 X88.66 Y47.569 E1987.032
G1 Y48.135 E1987.051
G1 X114.81 Y21.985 E1988.281
G1 X115.375 E1988.299
G1 X88.66 Y48.7 E1989.556
G1 Y49.266 E1989.575
G1 X115.941 Y21.985 E1990.858
G1 X116.507 E1990.877
G1 X88.66 Y49.832 E1992.187
G1 Y50.398 E1992.205
G1 X117.073 Y21.985 E1993.542
G1 X117.638 E1993.561
G1 X88.66 Y50.963 E1994.924
G1 Y51.529 E1994.943
G1 X118.204 Y21.985 E1996.332
G1 X118.77 E1996.351
G1 X88.66 Y52.095 E1997.767
G1 Y52.66 E1997.786
G1 X119.335 Y21.985 E1999.229
G1 X119.901 E1999.248
G1 X88.66 Y53.226 E2000.717
G1 Y53.792 E2000.736
G1 X120.467 Y21.985 E2002.232
G1 X121.032 E2002.251
G1 X88.66 Y54.357 E2003.774
G1 Y54.923 E2003.792
G1 X121.598 Y21.985 E2005.342
G1 X122.164 E2005.361
G1 X88.66 Y55.489 E2006.937
G1 Y56.054 E2006.955
G1 X122.729 Y21.985 E2008.558
G1 X123.295 E2008.577
G1 X88.66 Y56.62 E2010.206
G1 Y57.186 E2010.225
G1 X123.861 Y21.985 E2011.88
G1 X124.426 E2011.899
G1 X88.66 Y57.751 E2013.582
G1 Y58.317 E2013.6
G1 X124.992 Y21.985 E2015.309
G1 X125.558 E2015.328
G1 X88.66 Y58.883 E2017.064
G1 Y59.449 E2017.083
G1 X126.123 Y21.985 E2018.845
G1 X126.689 E2018.863
G1 X88.66 Y60.014 E2020.652
G1 Y60.58 E2020.671
G1 X127.255 Y21.985 E2022.486
G1 X127.821 E2022.505
G1 X88.66 Y61.146 E2024.347
G1 Y61.711 E2024.366
G1 X128.386 Y21.985 E2026.235
G1 X128.952 E2026.253
G1 X88.66 Y62.277 E2028.149
G1 Y62.843 E2028.167
G1 X129.518 Y21.985 E2030.089
G1 X130.083 E2030.108
G1 X88.66 Y63.408 E2032.057
G1 Y63.974 E2032.075
G1 X130.649 Y21.985 E2034.05
G1 X131.215 E2034.069
G1 X88.66 Y64.54 E2036.071
G1 Y65.105 E2036.09
G1 X131.34 Y22.425 E2038.097
G1 Y22.991 E2038.116
G1 X88.66 Y65.671 E2040.124
G1 Y66.237 E2040.142
G1 X131.34 Y23.557 E2042.15
G1 Y24.122 E2042.169
G1 X88.66 Y66.802 E2044.176
G1 Y67.368 E2044.195
G1 X131.34 Y24.688 E2046.203
G1 Y25.254 E2046.221
G1 X88.66 Y67.934 E2048.229
G1 Y68.499 E2048.248
G1 X131.34 Y25.819 E2050.255
G1 Y26.385 E2050.274
G1 X88.66 Y69.065 E2052.282
G1 Y69.631 E2052.301
G1 X131.34 Y26.951 E2054.308
G1 Y27.517 E2054.327
G1 X88.66 Y70.197 E2056.334
G1 Y70.762 E2056.353
G1 X131.34 Y28.082 E2058.361
G1 Y28.648 E2058.38
G1 X88.66 Y71.328 E2060.387
G1 Y71.894 E2060.406
G1 X131.34 Y29.214 E2062.413
G1 Y29.779 E2062.432
G1 X88.66 Y72.459 E2064.44
G1 Y73.025 E2064.458
G1 X131.34 Y30.345 E2066.466
G1 Y30.911 E2066.485
G1 X88.66 Y73.591 E2068.492
G1 Y74.156 E2068.511
G1 X131.34 Y31.476 E2070.519
G1 Y32.042 E2070.538
G1 X88.66 Y74.722 E2072.545
G1 Y75.288 E2072.564
G1 X131.34 Y32.608 E2074.572
G1 Y33.173 E2074.59
G1 X88.66 Y75.853 E2076.598
G1 Y76.419 E2076.617
G1 X131.34 Y33.739 E2078.624
G1 Y34.305 E2078.643
G1 X88.66 Y76.985 E2080.651
G1 Y77.55 E2080.669
G1 X131.34 Y34.87 E2082.677
G1 Y35.436 E2082.696
G1 X88.66 Y78.116 E2084.703
G1 Y78.682 E2084.722
G1 X131.34 Y36.002 E2086.73
G1 Y36.567 E2086.749
G1 X88.66 Y79.247 E2088.756
G1 Y79.813 E2088.775
G1 X131.34 Y37.133 E2090.782
G1 Y37.699 E2090.801
G1 X88.66 Y80.379 E2092.809
G1 Y80.945 E2092.827
G1 X131.34 Y38.265 E2094.835
G1 Y38.83 E2094.854
G1 X88.66 Y81.51 E2096.861
G1 Y82.076 E2096.88
G1 X131.34 Y39.396 E2098.888
G1 Y39.962 E2098.906
G1 X88.66 Y82.642 E2100.914
G1 Y83.207 E2100.933
G1 X131.34 Y40.527 E2102.94
G1 Y41.093 E2102.959
G1 X88.66 Y83.773 E2104.967
G1 Y84.339 E2104.986
G1 X131.34 Y41.659 E2106.993
G1 Y42.224 E2107.012
G1 X88.66 Y84.904 E2109.02
G1 Y85.47 E2109.038
G1 X131.34 Y42.79 E2111.046
G1 Y43.356 E2111.065
G1 X88.66 Y86.036 E2113.072
G1 Y86.601 E2113.091
G1 X131.34 Y43.921 E2115.099
G1 Y44.487 E2115.117
G1 X88.66 Y87.167 E2117.125
G1 Y87.733 E2117.144
G1 X131.34 Y45.053 E2119.151
G1 Y45.618 E2119.17
G1 X88.66 Y88.298 E2121.177
G1 Y88.864 E2121.197
G1 X131.34 Y46.184 E2123.204
G1 Y46.75 E2123.223
G1 X88.66 Y89.43 E2125.23
G1 Y89.996 E2125.249
G1 X131.34 Y47.316 E2127.257
G1 Y47.881 E2127.275
G1 X88.66 Y90.561 E2129.283
G1 Y91.127 E2129.302
G1 X131.34 Y48.447 E2131.309
G1 Y49.013 E2131.328
G1 X88.66 Y91.693 E2133.336
G1 Y92.258 E2133.354
G1 X131.34 Y49.578 E2135.362
G1 Y50.144 E2135.381
G1 X88.66 Y92.824 E2137.388
G1 Y93.39 E2137.407
G1 X131.34 Y50.71 E2139.415
G1 Y51.275 E2139.434
G1 X88.66 Y93.955 E2141.441
G1 Y94.521 E2141.46
G1 X131.34 Y51.841 E2143.468
G1 Y52.407 E2143.486
G1 X88.66 Y95.087 E2145.494
G1 Y95.652 E2145.513
G1 X131.34 Y52.972 E2147.52
G1 Y53.538 E2147.539
G1 X88.66 Y96.218 E2149.547
G1 Y96.784 E2149.565
G1 X131.34 Y54.104 E2151.573
G1 Y54.669 E2151.592
G1 X88.66 Y97.349 E2153.599
G1 Y97.915 E2153.618
G1 X131.34 Y55.235 E2155.625
G1 Y55.801 E2155.644
G1 X88.66 Y98.481 E2157.652
G1 Y99.046 E2157.671
G1 X131.34 Y56.366 E2159.678
G1 Y56.932 E2159.697
G1 X88.66 Y99.612 E2161.705
G1 Y100.178 E2161.723
G1 X131.34 Y57.498 E2163.731
G1 Y58.064 E2163.75
G1 X88.66 Y100.744 E2165.757
G1 Y101.309 E2165.776
G1 X131.34 Y58.629 E2167.784
G1 Y59.195 E2167.802
G1 X88.66 Y101.875 E2169.81
G1 Y102.441 E2169.829
G1 X131.34 Y59.761 E2171.836
G1 Y60.326 E2171.855
G1 X88.66 Y103.006 E2173.863
G1 Y103.572 E2173.882
G1 X131.34 Y60.892 E2175.889
G1 Y61.458 E2175.908
G1 X88.66 Y104.138 E2177.916
G1 Y104.703 E2177.934
G1 X131.34 Y62.023 E2179.942
G1 Y62.589 E2179.961
G1 X88.66 Y105.269 E2181.968
G1 Y105.835 E2181.987
G1 X131.34 Y63.155 E2183.995
G1 Y63.72 E2184.013
G1 X88.66 Y106.4 E2186.021
G1 Y106.966 E2186.04
G1 X131.34 Y64.286 E2188.047
G1 Y64.852 E2188.066
G1 X88.66 Y107.532 E2190.073
G1 Y108.097 E2190.092
G1 X131.34 Y65.417 E2192.1
G1 Y65.983 E2192.119
G1 X88.66 Y108.663 E2194.126
G1 Y109.229 E2194.145
G1 X131.34 Y66.549 E2196.153
G1 Y67.114 E2196.171
G1 X88.66 Y109.795 E2198.179
G1 Y110.36 E2198.198
G1 X131.34 Y67.68 E2200.205
G1 Y68.246 E2200.224
G1 X88.66 Y110.926 E2202.232
G1 Y111.492 E2202.25
G1 X131.34 Y68.812 E2204.258
G1 Y69.377 E2204.277
G1 X88.66 Y112.057 E2206.284
G1 Y112.623 E2206.303
G1 X131.34 Y69.943 E2208.311
G1 Y70.509 E2208.33
G1 X88.66 Y113.189 E2210.337
G1 Y113.754 E2210.356
G1 X131.34 Y71.074 E2212.364
G1 Y71.64 E2212.382
G1 X88.66 Y114.32 E2214.39
G1 Y114.886 E2214.409
G1 X131.34 Y72.206 E2216.416
G1 Y72.771 E2216.435
G1 X88.66 Y115.451 E2218.442
G1 Y116.017 E2218.461
G1 X131.34 Y73.337 E2220.469
G1 Y73.903 E2220.488
G1 X88.66 Y116.583 E2222.495
G1 Y117.148 E2222.514
G1 X131.34 Y74.468 E2224.521
G1 Y75.034 E2224.54
G1 X88.66 Y117.714 E2226.548
G1 Y118.28 E2226.567
G1 X131.34 Y75.6 E2228.574
G1 Y76.165 E2228.593
G1 X88.66 Y118.845 E2230.601
G1 Y119.411 E2230.619
G1 X131.34 Y76.731 E2232.627
G1 Y77.297 E2232.646
G1 X88.66 Y119.977 E2234.653
G1 Y120.543 E2234.672
G1 X131.34 Y77.863 E2236.68
G1 Y78.428 E2236.698
G1 X88.66 Y121.108 E2238.706
G1 Y121.674 E2238.725
G1 X131.34 Y78.994 E2240.732
G1 Y79.56 E2240.751
G1 X88.66 Y122.24 E2242.759
G1 Y122.805 E2242.778
G1 X131.34 Y80.125 E2244.785
G1 Y80.691 E2244.804
G1 X88.66 Y123.371 E2246.812
G1 Y123.937 E2246.83
G1 X131.34 Y81.257 E2248.838
G1 Y81.822 E2248.857
G1 X88.66 Y124.502 E2250.864
G1 Y125.068 E2250.883
G1 X131.34 Y82.388 E2252.89
G1 Y82.954 E2252.909
G1 X88.66 Y125.634 E2254.917
G1 Y126.199 E2254.936
G1 X131.34 Y83.519 E2256.943
G1 Y84.085 E2256.962
G1 X88.66 Y126.765 E2258.969
G1 Y127.331 E2258.988
G1 X131.34 Y84.651 E2260.996
G1 Y85.216 E2261.015
G1 X88.66 Y127.896 E2263.022
G1 Y128.462 E2263.041
G1 X131.34 Y85.782 E2265.049
G1 Y86.348 E2265.067
G1 X88.66 Y129.028 E2267.075
G1 Y129.593 E2267.094
G1 X131.34 Y86.913 E2269.101
G1 Y87.479 E2269.12
G1 X88.66 Y130.159 E2271.128
G1 Y130.725 E2271.146
G1 X131.34 Y88.045 E2273.154
G1 Y88.611 E2273.173
G1 X88.66 Y131.291 E2275.18
G1 Y131.856 E2275.199
G1 X131.34 Y89.176 E2277.207
G1 Y89.742 E2277.226
G1 X88.66 Y132.422 E2279.233
G1 Y132.988 E2279.252
G1 X131.34 Y90.308 E2281.259
G1 Y90.873 E2281.278
G1 X88.66 Y133.553 E2283.286
G1 Y134.119 E2283.304
G1 X131.34 Y91.439 E2285.312
G1 Y92.005 E2285.331
G1 X88.66 Y134.685 E2287.338
G1 Y135.25 E2287.357
G1 X131.34 Y92.57 E2289.365
G1 Y93.136 E2289.384
G1 X88.66 Y135.816 E2291.391
G1 Y136.382 E2291.41
G1 X131.34 Y93.702 E2293.417
G1 Y94.267 E2293.436
G1 X88.66 Y136.947 E2295.444
G1 Y137.513 E2295.463
G1 X131.34 Y94.833 E2297.47
G1 Y95.399 E2297.489
G1 X88.66 Y138.079 E2299.497
G1 Y138.644 E2299.515
G1 X131.34 Y95.964 E2301.523
G1 Y96.53 E2301.542
G1 X88.66 Y139.21 E2303.549
G1 Y139.776 E2303.568
G1 X131.34 Y97.096 E2305.576
G1 Y97.662 E2305.594
G1 X88.66 Y140.342 E2307.602
G1 Y140.907 E2307.621
G1 X131.34 Y98.227 E2309.628
G1 Y98.793 E2309.647
G1 X88.66 Y141.473 E2311.655
G1 Y142.039 E2311.674
G1 X131.34 Y99.359 E2313.681
G1 Y99.924 E2313.7
G1 X88.66 Y142.604 E2315.707
G1 Y143.17 E2315.726
G1 X131.34 Y100.49 E2317.734
G1 Y101.056 E2317.752
G1 X88.66 Y143.736 E2319.76
G1 Y144.301 E2319.779
G1 X131.34 Y101.621 E2321.786
G1 Y102.187 E2321.805
G1 X88.66 Y144.867 E2323.813
G1 Y145.433 E2323.832
G1 X131.34 Y102.753 E2325.839
G1 Y103.318 E2325.858
G1 X88.66 Y145.998 E2327.865
G1 Y146.564 E2327.884
G1 X131.34 Y103.884 E2329.892
G1 Y104.45 E2329.911
G1 X88.66 Y147.13 E2331.918
G1 Y147.695 E2331.937
G1 X131.34 Y105.015 E2333.945
G1 Y105.581 E2333.963
G1 X88.66 Y148.261 E2335.971
G1 Y148.827 E2335.99
G1 X131.34 Y106.147 E2337.997
G1 Y106.712 E2338.016
G1 X88.66 Y149.392 E2340.024
G1 Y149.958 E2340.042
G1 X131.34 Y107.278 E2342.05
G1 Y107.844 E2342.069
G1 X88.66 Y150.524 E2344.076
G1 Y151.09 E2344.095
G1 X131.34 Y108.41 E2346.103
G1 Y108.975 E2346.121
G1 X88.66 Y151.655 E2348.129
G1 Y152.221 E2348.148
G1 X131.34 Y109.541 E2350.155
G1 Y110.107 E2350.174
G1 X88.66 Y152.787 E2352.182
G1 Y153.352 E2352.2
G1 X131.34 Y110.672 E2354.208
G1 Y111.238 E2354.227
G1 X88.66 Y153.918 E2356.234
G1 Y154.484 E2356.253
G1 X131.34 Y111.804 E2358.261
G1 Y112.369 E2358.28
G1 X88.66 Y155.049 E2360.287
G1 Y155.615 E2360.306
G1 X131.34 Y112.935 E2362.313
G1 Y113.501 E2362.332
G1 X88.66 Y156.181 E2364.34
G1 Y156.746 E2364.359
G1 X131.34 Y114.066 E2366.366
G1 Y114.632 E2366.385
G1 X88.66 Y157.312 E2368.393
G1 Y157.878 E2368.411
G1 X131.34 Y115.198 E2370.419
G1 Y115.763 E2370.438
G1 X88.66 Y158.443 E2372.445
G1 Y159.009 E2372.464
G1 X131.34 Y116.329 E2374.472
G1 Y116.895 E2374.49
G1 X88.66 Y159.575 E2376.498
G1 Y160.141 E2376.517
G1 X131.34 Y117.46 E2378.524
G1 Y118.026 E2378.543
G1 X88.66 Y160.706 E2380.551
G1 Y161.272 E2380.569
G1 X131.34 Y118.592 E2382.577
G1 Y119.158 E2382.596
G1 X88.66 Y161.838 E2384.603
G1 Y162.403 E2384.622
G1 X131.34 Y119.723 E2386.63
G1 Y120.289 E2386.648
G1 X88.66 Y162.969 E2388.656
G1 Y163.535 E2388.675
G1 X131.34 Y120.855 E2390.682
G1 Y121.42 E2390.701
G1 X88.66 Y164.1 E2392.709
G1 Y164.666 E2392.728
G1 X131.34 Y121.986 E2394.735
G1 Y122.552 E2394.754
G1 X88.66 Y165.232 E2396.761
G1 Y165.797 E2396.78
G1 X131.34 Y123.117 E2398.788
G1 Y123.683 E2398.807
G1 X88.66 Y166.363 E2400.814
G1 Y166.929 E2400.833
G1 X131.34 Y124.249 E2402.841
G1 Y124.814 E2402.859
G1 X88.66 Y167.494 E2404.867
G1 Y168.06 E2404.886
G1 X131.34 Y125.38 E2406.893
G1 Y125.946 E2406.912
G1 X88.66 Y168.626 E2408.919
G1 Y169.191 E2408.938
G1 X131.34 Y126.511 E2410.946
G1 Y127.077 E2410.965
G1 X88.66 Y169.757 E2412.972
G1 Y170.323 E2412.991
G1 X131.34 Y127.643 E2414.999
G1 Y128.209 E2415.017
G1 X88.66 Y170.889 E2417.025
G1 Y171.454 E2417.044
G1 X131.34 Y128.774 E2419.051
G1 Y129.34 E2419.07
G1 X88.66 Y172.02 E2421.078
G1 Y172.586 E2421.096
G1 X131.34 Y129.906 E2423.104
G1 Y130.471 E2423.123
G1 X88.66 Y173.151 E2425.13
G1 Y173.717 E2425.149
G1 X131.34 Y131.037 E2427.157
G1 Y131.603 E2427.176
G1 X88.66 Y174.283 E2429.183
G1 Y174.848 E2429.202
G1 X131.34 Y132.168 E2431.209
G1 Y132.734 E2431.228
G1 X88.66 Y175.414 E2433.236
G1 Y175.98 E2433.255
G1 X131.34 Y133.3 E2435.262
G1 Y133.865 E2435.281
G1 X88.66 Y176.545 E2437.289
G1 Y177.111 E2437.307
G1 X131.34 Y134.431 E2439.315
G1 Y134.997 E2439.334
G1 X88.66 Y177.677 E2441.341
G1 Y178.242 E2441.36
G1 X131.34 Y135.562 E2443.367
G1 Y136.128 E2443.386
G1 X88.66 Y178.808 E2445.394
G1 Y179.374 E2445.413
G1 X131.34 Y136.694 E2447.42
G1 Y137.259 E2447.439
G1 X88.66 Y179.939 E2449.447
G1 Y180.505 E2449.465
G1 X131.34 Y137.825 E2451.473
G1 Y138.391 E2451.492
G1 X88.66 Y181.071 E2453.499
G1 Y181.637 E2453.518
G1 X131.34 Y138.957 E2455.526
G1 Y139.522 E2455.544
G1 X88.66 Y182.202 E2457.552
G1 Y182.768 E2457.571
G1 X131.34 Y140.088 E2459.578
G1 Y140.654 E2459.597
G1 X88.66 Y183.334 E2461.605
G1 Y183.899 E2461.624
G1 X131.34 Y141.219 E2463.631
G1 Y141.785 E2463.65
G1 X88.66 Y184.465 E2465.657
G1 Y185.031 E2465.676
G1 X131.34 Y142.351 E2467.684
G1 Y142.916 E2467.703
G1 X88.66 Y185.596 E2469.71
G1 Y186.162 E2469.729
G1 X131.34 Y143.482 E2471.736
G1 Y144.048 E2471.755
G1 X88.66 Y186.728 E2473.763
G1 Y187.293 E2473.781
G1 X131.34 Y144.613 E2475.789
G1 Y145.179 E2475.808
G1 X88.66 Y187.859 E2477.815
G1 Y188.425 E2477.834
G1 X131.34 Y145.745 E2479.842
G1 Y146.31 E2479.861
G1 X88.66 Y188.99 E2481.868
G1 Y189.556 E2481.887
G1 X131.34 Y146.876 E2483.895
G1 Y147.442 E2483.913
G1 X88.66 Y190.122 E2485.921
G1 Y190.688 E2485.94
G1 X131.34 Y148.008 E2487.947
G1 Y148.573 E2487.966
G1 X88.66 Y191.253 E2489.974
G1 Y191.819 E2489.992
G1 X131.34 Y149.139 E2492
G1 Y149.705 E2492.019
G1 X88.66 Y192.385 E2494.026
G1 Y192.95 E2494.045
G1 X131.34 Y150.27 E2496.053
G1 Y150.836 E2496.072
G1 X88.66 Y193.516 E2498.079
G1 Y194.082 E2498.098
G1 X131.34 Y151.402 E2500.105
G1 Y151.967 E2500.124
G1 X88.66 Y194.647 E2502.132
G1 Y195.213 E2502.151
G1 X131.34 Y152.533 E2504.158
G1 Y153.099 E2504.177
G1 X88.66 Y195.779 E2506.184
G1 Y196.344 E2506.203
G1 X131.34 Y153.664 E2508.211
G1 Y154.23 E2508.229
G1 X88.66 Y196.91 E2510.237
G1 Y197.476 E2510.256
G1 X131.34 Y154.796 E2512.263
G1 Y155.361 E2512.282
G1 X88.686 Y198.015 E2514.289
G1 X89.252 E2514.307
G1 X131.34 Y155.927 E2516.287
G1 Y156.493 E2516.306
G1 X89.818 Y198.015 E2518.259
G1 X90.383 E2518.278
G1 X131.34 Y157.058 E2520.204
G1 Y157.624 E2520.223
G1 X90.949 Y198.015 E2522.123
G1 X91.515 E2522.142
G1 X131.34 Y158.19 E2524.015
G1 Y158.756 E2524.034
G1 X92.081 Y198.015 E2525.88
G1 X92.646 E2525.899
G1 X131.34 Y159.321 E2527.719
G1 Y159.887 E2527.738
G1 X93.212 Y198.015 E2529.531
G1 X93.778 E2529.55
G1 X131.34 Y160.453 E2531.317
G1 Y161.018 E2531.336
G1 X94.343 Y198.015 E2533.076
G1 X94.909 E2533.095
G1 X131.34 Y161.584 E2534.809
G1 Y162.15 E2534.827
G1 X95.475 Y198.015 E2536.514
G1 X96.04 E2536.533
G1 X131.34 Y162.715 E2538.194
G1 Y163.281 E2538.212
G1 X96.606 Y198.015 E2539.846
G1 X97.172 E2539.865
G1 X131.34 Y163.847 E2541.472
G1 Y164.412 E2541.491
G1 X97.737 Y198.015 E2543.072
G1 X98.303 E2543.09
G1 X131.34 Y164.978 E2544.644
G1 Y165.544 E2544.663
G1 X98.869 Y198.015 E2546.191
G1 X99.434 E2546.209
G1 X131.34 Y166.109 E2547.71
G1 Y166.675 E2547.729
G1 X100 Y198.015 E2549.203
G1 X100.566 E2549.222
G1 X131.34 Y167.241 E2550.669
G1 Y167.807 E2550.688
G1 X101.132 Y198.015 E2552.109
G1 X101.697 E2552.128
G1 X131.34 Y168.372 E2553.522
G1 Y168.938 E2553.541
G1 X102.263 Y198.015 E2554.909
G1 X102.829 E2554.927
G1 X131.34 Y169.504 E2556.269
G1 Y170.069 E2556.288
G1 X103.394 Y198.015 E2557.602
G1 X103.96 E2557.621
G1 X131.34 Y170.635 E2558.909
G1 Y171.201 E2558.927
G1 X104.526 Y198.015 E2560.189
G1 X105.091 E2560.208
G1 X131.34 Y171.766 E2561.442
G1 Y172.332 E2561.461
G1 X105.657 Y198.015 E2562.669
G1 X106.223 E2562.688
G1 X131.34 Y172.898 E2563.869
G1 Y173.463 E2563.888
G1 X106.788 Y198.015 E2565.043
G1 X107.354 E2565.062
G1 X131.34 Y174.029 E2566.19
G1 Y174.595 E2566.209
G1 X107.92 Y198.015 E2567.311
G1 X108.485 E2567.329
G1 X131.34 Y175.16 E2568.404
G1 Y175.726 E2568.423
G1 X109.051 Y198.015 E2569.471
G1 X109.617 E2569.49
G1 X131.34 Y176.292 E2570.512
G1 Y176.857 E2570.531
G1 X110.182 Y198.015 E2571.526
G1 X110.748 E2571.545
G1 X131.34 Y177.423 E2572.513
G1 Y177.989 E2572.532
G1 X111.314 Y198.015 E2573.474
G1 X111.88 E2573.493
G1 X131.34 Y178.555 E2574.408
G1 Y179.12 E2574.427
G1 X112.445 Y198.015 E2575.316
G1 X113.011 E2575.335
G1 X131.34 Y179.686 E2576.197
G1 Y180.252 E2576.216
G1 X113.577 Y198.015 E2577.051
G1 X114.142 E2577.07
G1 X131.34 Y180.817 E2577.879
G1 Y181.383 E2577.898
G1 X114.708 Y198.015 E2578.68
G1 X115.274 E2578.699
G1 X131.34 Y181.949 E2579.455
G1 Y182.514 E2579.474
G1 X115.839 Y198.015 E2580.203
G1 X116.405 E2580.221
G1 X131.34 Y183.08 E2580.924
G1 Y183.646 E2580.943
G1 X116.971 Y198.015 E2581.619
G1 X117.536 E2581.637
G1 X131.34 Y184.211 E2582.287
G1 Y184.777 E2582.306
G1 X118.102 Y198.015 E2582.928
G1 X118.668 E2582.947
G1 X131.34 Y185.343 E2583.543
G1 Y185.908 E2583.562
G1 X119.233 Y198.015 E2584.131
G1 X119.799 E2584.15
G1 X131.34 Y186.474 E2584.693
G1 Y187.04 E2584.712
G1 X120.365 Y198.015 E2585.228
G1 X120.93 E2585.247
G1 X131.34 Y187.605 E2585.737
G1 Y188.171 E2585.755
G1 X121.496 Y198.015 E2586.219
G1 X122.062 E2586.237
G1 X131.34 Y188.737 E2586.674
G1 Y189.303 E2586.692
G1 X122.628 Y198.015 E2587.102
G1 X123.193 E2587.121
G1 X131.34 Y189.868 E2587.504
G1 Y190.434 E2587.523
G1 X123.759 Y198.015 E2587.88
G1 X124.325 E2587.898
G1 X131.34 Y191 E2588.229
G1 Y191.565 E2588.247
G1 X124.89 Y198.015 E2588.551
G1 X125.456 E2588.57
G1 X131.34 Y192.131 E2588.846
G1 Y192.697 E2588.865
G1 X126.022 Y198.015 E2589.115
G1 X126.587 E2589.134
G1 X131.34 Y193.262 E2589.358
G1 Y193.828 E2589.376
G1 X127.153 Y198.015 E2589.573
G1 X127.719 E2589.592
G1 X131.34 Y194.394 E2589.762
G1 Y194.959 E2589.781
G1 X128.284 Y198.015 E2589.925
G1 X128.85 E2589.944
G1 X131.34 Y195.525 E2590.061
G1 Y196.091 E2590.08
G1 X129.416 Y198.015 E2590.17
G1 X129.981 E2590.189
G1 X131.34 Y196.656 E2590.253
G1 Y197.222 E2590.272
G1 X130.547 Y198.015 E2590.309
G1 X131.113 E2590.328
G1 X131.34 Y197.788 E2590.339
G1 F1800 E2580.339
;Layer : 4 of 38
;rapid-dry
G1 F236
G0 X131.66 Y198.335 Z0.9
G1 F1800 E2590.339
;bead-perimeter_inner
G1 X88.34 F1560 E2591.78
G1 Y21.665 E2597.656
G1 X131.66 E2599.096
G1 Y198.335 E2604.972
;rapid-leaky
G1 F236
G0 X131.34 Y172.119
;bead-solid_infill
G1 X95.787 Y136.566 F2400 E2606.645
G1 X95.836 E2606.646
G1 X96.078 Y136.514 E2606.655
G1 X96.233 Y136.446 E2606.66
G1 X131.34 Y171.553 E2608.312
G1 Y170.987 E2608.33
G1 X96.56 Y136.207 E2609.966
G1 X96.669 Y136.086 E2609.972
G1 X96.791 Y135.873 E2609.98
G1 X131.34 Y170.422 E2611.605
G1 Y169.856 E2611.624
G1 X96.893 Y135.409 E2613.244
G1 X96.895 Y135.39 E2613.245
G1 X96.871 Y135.157 E2613.252
G1 X96.792 Y134.907 E2613.261
G1 X96.669 Y134.694 E2613.269
G1 X96.504 Y134.511 E2613.278
G1 X96.303 Y134.365 E2613.286
G1 X96.078 Y134.265 E2613.294
G1 X95.836 Y134.214 E2613.302
G1 X95.698 E2613.307
G1 X88.66 Y127.176 E2613.638
G1 Y127.742 E2613.657
G1 X95.234 Y134.315 E2613.966
G1 X95.122 Y134.365 E2613.97
G1 X94.921 Y134.511 E2613.978
G1 X94.894 Y134.541 E2613.979
G1 X88.66 Y128.307 E2614.273
G1 Y128.873 E2614.292
G1 X94.656 Y134.869 E2614.574
G1 X94.632 Y134.909 E2614.575
G1 X94.556 Y135.144 E2614.583
G1 X94.538 Y135.317 E2614.589
G1 X88.66 Y129.439 E2614.866
G1 Y130.005 E2614.885
G1 X94.9 Y136.244 E2615.178
G1 X94.923 Y136.27 E2615.179
G1 X94.933 Y136.278 E2615.18
G1 X131.34 Y172.685 E2616.892
G1 Y173.25 E2616.911
G1 X88.66 Y130.57 E2618.918
G1 Y131.136 E2618.937
G1 X131.34 Y173.816 E2620.945
G1 Y174.382 E2620.964
G1 X88.66 Y131.702 E2622.971
G1 Y132.267 E2622.99
G1 X131.34 Y174.947 E2624.998
G1 Y175.513 E2625.016
G1 X88.66 Y132.833 E2627.024
G1 Y133.399 E2627.043
G1 X131.34 Y176.079 E2629.05
G1 Y176.644 E2629.069
G1 X88.66 Y133.964 E2631.076
G1 Y134.53 E2631.095
G1 X131.34 Y177.21 E2633.103
G1 Y177.776 E2633.122
G1 X88.66 Y135.096 E2635.129
G1 Y135.661 E2635.148
G1 X131.34 Y178.341 E2637.156
G1 Y178.907 E2637.174
G1 X88.66 Y136.227 E2639.182
G1 Y136.793 E2639.201
G1 X131.34 Y179.473 E2641.208
G1 Y180.038 E2641.227
G1 X88.66 Y137.358 E2643.235
G1 Y137.924 E2643.253
G1 X131.34 Y180.604 E2645.261
G1 Y181.17 E2645.28
G1 X88.66 Y138.49 E2647.287
G1 Y139.055 E2647.306
G1 X131.34 Y181.735 E2649.314
G1 Y182.301 E2649.333
G1 X88.66 Y139.621 E2651.34
G1 Y140.187 E2651.359
G1 X131.34 Y182.867 E2653.366
G1 Y183.433 E2653.385
G1 X88.66 Y140.753 E2655.393
G1 Y141.318 E2655.412
G1 X131.34 Y183.998 E2657.419
G1 Y184.564 E2657.438
G1 X88.66 Y141.884 E2659.445
G1 Y142.45 E2659.464
G1 X131.34 Y185.13 E2661.472
G1 Y185.695 E2661.49
G1 X88.66 Y143.015 E2663.498
G1 Y143.581 E2663.517
G1 X131.34 Y186.261 E2665.524
G1 Y186.827 E2665.543
G1 X88.66 Y144.147 E2667.551
G1 Y144.712 E2667.57
G1 X131.34 Y187.392 E2669.577
G1 Y187.958 E2669.596
G1 X88.66 Y145.278 E2671.604
G1 Y145.844 E2671.622
G1 X131.34 Y188.524 E2673.63
G1 Y189.089 E2673.649
G1 X88.66 Y146.409 E2675.656
G1 Y146.975 E2675.675
G1 X131.34 Y189.655 E2677.683
G1 Y190.221 E2677.701
G1 X88.66 Y147.541 E2679.709
G1 Y148.106 E2679.728
G1 X131.34 Y190.786 E2681.735
G1 Y191.352 E2681.754
G1 X88.66 Y148.672 E2683.762
G1 Y149.238 E2683.781
G1 X131.34 Y191.918 E2685.788
G1 Y192.483 E2685.807
G1 X88.66 Y149.803 E2687.814
G1 Y150.369 E2687.833
G1 X131.34 Y193.049 E2689.841
G1 Y193.615 E2689.86
G1 X88.66 Y150.935 E2691.867
G1 Y151.501 E2691.886
G1 X131.34 Y194.181 E2693.893
G1 Y194.746 E2693.912
G1 X88.66 Y152.066 E2695.92
G1 Y152.632 E2695.938
G1 X131.34 Y195.312 E2697.946
G1 Y195.878 E2697.965
G1 X88.66 Y153.198 E2699.972
G1 Y153.763 E2699.991
G1 X131.34 Y196.443 E2701.999
G1 Y197.009 E2702.018
G1 X88.66 Y154.329 E2704.025
G1 Y154.895 E2704.044
G1 X131.34 Y197.575 E2706.052
G1 Y198.015 E2706.066
G1 X131.215 E2706.07
G1 X88.66 Y155.46 E2708.072
G1 Y156.026 E2708.091
G1 X130.649 Y198.015 E2710.066
G1 X130.083 E2710.085
G1 X88.66 Y156.592 E2712.033
G1 Y157.157 E2712.052
G1 X129.518 Y198.015 E2713.974
G1 X128.952 E2713.992
G1 X88.66 Y157.723 E2715.888
G1 Y158.289 E2715.906
G1 X128.386 Y198.015 E2717.775
G1 X127.821 E2717.794
G1 X88.66 Y158.854 E2719.636
G1 Y159.42 E2719.655
G1 X127.255 Y198.015 E2721.47
G1 X126.689 E2721.489
G1 X88.66 Y159.986 E2723.278
G1 Y160.552 E2723.297
G1 X126.124 Y198.015 E2725.059
G1 X125.558 E2725.078
G1 X88.66 Y161.117 E2726.813
G1 Y161.683 E2726.832
G1 X124.992 Y198.015 E2728.541
G1 X124.426 E2728.56
G1 X88.66 Y162.249 E2730.242
G1 Y162.814 E2730.261
G1 X123.861 Y198.015 E2731.917
G1 X123.295 E2731.935
G1 X88.66 Y163.38 E2733.564
G1 Y163.946 E2733.583
G1 X122.729 Y198.015 E2735.186
G1 X122.164 E2735.205
G1 X88.66 Y164.511 E2736.781
G1 Y165.077 E2736.799
G1 X121.598 Y198.015 E2738.349
G1 X121.032 E2738.367
G1 X88.66 Y165.643 E2739.89
G1 Y166.208 E2739.909
G1 X120.467 Y198.015 E2741.405
G1 X119.901 E2741.424
G1 X88.66 Y166.774 E2742.893
G1 Y167.34 E2742.912
G1 X119.335 Y198.015 E2744.355
G1 X118.77 E2744.374
G1 X88.66 Y167.905 E2745.79
G1 Y168.471 E2745.809
G1 X118.204 Y198.015 E2747.199
G1 X117.638 E2747.218
G1 X88.66 Y169.037 E2748.581
G1 Y169.602 E2748.599
G1 X117.073 Y198.015 E2749.936
G1 X116.507 E2749.955
G1 X88.66 Y170.168 E2751.264
G1 Y170.734 E2751.283
G1 X115.941 Y198.015 E2752.566
G1 X115.375 E2752.585
G1 X88.66 Y171.3 E2753.842
G1 Y171.865 E2753.861
G1 X114.81 Y198.015 E2755.091
G1 X114.244 E2755.109
G1 X88.66 Y172.431 E2756.313
G1 Y172.997 E2756.332
G1 X113.678 Y198.015 E2757.509
G1 X113.113 E2757.527
G1 X88.66 Y173.562 E2758.677
G1 Y174.128 E2758.696
G1 X112.547 Y198.015 E2759.82
G1 X111.981 E2759.839
G1 X88.66 Y174.694 E2760.936
G1 Y175.259 E2760.954
G1 X111.416 Y198.015 E2762.025
G1 X110.85 E2762.044
G1 X88.66 Y175.825 E2763.087
G1 Y176.391 E2763.106
G1 X110.284 Y198.015 E2764.123
G1 X109.719 E2764.142
G1 X88.66 Y176.956 E2765.133
G1 Y177.522 E2765.152
G1 X109.153 Y198.015 E2766.115
G1 X108.587 E2766.134
G1 X88.66 Y178.088 E2767.072
G1 Y178.653 E2767.09
G1 X108.022 Y198.015 E2768.001
G1 X107.456 E2768.02
G1 X88.66 Y179.219 E2768.904
G1 Y179.785 E2768.923
G1 X106.89 Y198.015 E2769.78
G1 X106.325 E2769.799
G1 X88.66 Y180.35 E2770.63
G1 Y180.916 E2770.649
G1 X105.759 Y198.015 E2771.453
G1 X105.193 E2771.472
G1 X88.66 Y181.482 E2772.25
G1 Y182.048 E2772.268
G1 X104.627 Y198.015 E2773.02
G1 X104.062 E2773.038
G1 X88.66 Y182.613 E2773.763
G1 Y183.179 E2773.781
G1 X103.496 Y198.015 E2774.479
G1 X102.93 E2774.498
G1 X88.66 Y183.745 E2775.169
G1 Y184.31 E2775.188
G1 X102.365 Y198.015 E2775.833
G1 X101.799 E2775.852
G1 X88.66 Y184.876 E2776.47
G1 Y185.442 E2776.489
G1 X101.233 Y198.015 E2777.08
G1 X100.668 E2777.099
G1 X88.66 Y186.007 E2777.664
G1 Y186.573 E2777.682
G1 X100.102 Y198.015 E2778.22
G1 X99.536 E2778.239
G1 X88.66 Y187.139 E2778.751
G1 Y187.704 E2778.77
G1 X98.971 Y198.015 E2779.255
G1 X98.405 E2779.274
G1 X88.66 Y188.27 E2779.732
G1 Y188.836 E2779.751
G1 X97.839 Y198.015 E2780.183
G1 X97.274 E2780.201
G1 X88.66 Y189.401 E2780.606
G1 Y189.967 E2780.625
G1 X96.708 Y198.015 E2781.004
G1 X96.142 E2781.023
G1 X88.66 Y190.533 E2781.375
G1 Y191.099 E2781.393
G1 X95.576 Y198.015 E2781.719
G1 X95.011 E2781.738
G1 X88.66 Y191.664 E2782.036
G1 Y192.23 E2782.055
G1 X94.445 Y198.015 E2782.327
G1 X93.879 E2782.346
G1 X88.66 Y192.796 E2782.592
G1 Y193.361 E2782.61
G1 X93.314 Y198.015 E2782.829
G1 X92.748 E2782.848
G1 X88.66 Y193.927 E2783.04
G1 Y194.493 E2783.059
G1 X92.182 Y198.015 E2783.225
G1 X91.617 E2783.244
G1 X88.66 Y195.058 E2783.383
G1 Y195.624 E2783.402
G1 X91.051 Y198.015 E2783.514
G1 X90.485 E2783.533
G1 X88.66 Y196.19 E2783.619
G1 Y196.755 E2783.637
G1 X89.92 Y198.015 E2783.697
G1 X89.354 E2783.716
G1 X88.66 Y197.321 E2783.748
G1 Y197.887 E2783.767
G1 X88.788 Y198.015 E2783.773
;rapid-leaky
G1 F236
G0 X132.025 Y198.7
;bead-perimeter_outer
G1 X87.975 F1080 E2785.238
G1 Y21.3 E2791.138
G1 X132.025 E2792.604
G1 Y198.7 E2798.504
;rapid-leaky
G1 F236
G0 X131.34 Y169.29
;bead-solid_infill
G1 X88.66 Y126.61 F2400 E2800.511
G1 Y126.045 E2800.53
G1 X131.34 Y168.725 E2802.538
G1 Y168.159 E2802.557
G1 X88.66 Y125.479 E2804.564
G1 Y124.913 E2804.583
G1 X131.34 Y167.593 E2806.591
G1 Y167.028 E2806.609
G1 X88.66 Y124.348 E2808.617
G1 Y123.782 E2808.636
G1 X131.34 Y166.462 E2810.643
G1 Y165.896 E2810.662
G1 X88.66 Y123.216 E2812.67
G1 Y122.651 E2812.688
G1 X131.34 Y165.331 E2814.696
G1 Y164.765 E2814.715
G1 X88.66 Y122.085 E2816.722
G1 Y121.519 E2816.741
G1 X131.34 Y164.199 E2818.749
G1 Y163.634 E2818.768
G1 X88.66 Y120.954 E2820.775
G1 Y120.388 E2820.794
G1 X131.34 Y163.068 E2822.801
G1 Y162.502 E2822.82
G1 X88.66 Y119.822 E2824.828
G1 Y119.256 E2824.846
G1 X131.34 Y161.936 E2826.854
G1 Y161.371 E2826.873
G1 X88.66 Y118.691 E2828.88
G1 Y118.125 E2828.899
G1 X131.34 Y160.805 E2830.907
G1 Y160.239 E2830.926
G1 X88.66 Y117.559 E2832.933
G1 Y116.994 E2832.952
G1 X131.34 Y159.674 E2834.959
G1 Y159.108 E2834.978
G1 X88.66 Y116.428 E2836.986
G1 Y115.862 E2837.005
G1 X131.34 Y158.542 E2839.012
G1 Y157.977 E2839.031
G1 X88.66 Y115.297 E2841.039
G1 Y114.731 E2841.057
G1 X131.34 Y157.411 E2843.065
G1 Y156.845 E2843.084
G1 X88.66 Y114.165 E2845.091
G1 Y113.6 E2845.11
G1 X131.34 Y156.28 E2847.118
G1 Y155.714 E2847.136
G1 X88.66 Y113.034 E2849.144
G1 Y112.468 E2849.163
G1 X131.34 Y155.148 E2851.17
G1 Y154.583 E2851.189
G1 X88.66 Y111.903 E2853.197
G1 Y111.337 E2853.216
G1 X131.34 Y154.017 E2855.223
G1 Y153.451 E2855.242
G1 X88.66 Y110.771 E2857.249
G1 Y110.206 E2857.268
G1 X131.34 Y152.886 E2859.276
G1 Y152.32 E2859.294
G1 X88.66 Y109.64 E2861.302
G1 Y109.074 E2861.321
G1 X131.34 Y151.754 E2863.328
G1 Y151.188 E2863.347
G1 X88.66 Y108.508 E2865.355
G1 Y107.943 E2865.374
G1 X131.34 Y150.623 E2867.381
G1 Y150.057 E2867.4
G1 X88.66 Y107.377 E2869.407
G1 Y106.811 E2869.426
G1 X131.34 Y149.491 E2871.434
G1 Y148.926 E2871.453
G1 X88.66 Y106.246 E2873.46
G1 Y105.68 E2873.479
G1 X131.34 Y148.36 E2875.487
G1 Y147.794 E2875.505
G1 X88.66 Y105.114 E2877.513
G1 Y104.549 E2877.532
G1 X131.34 Y147.229 E2879.539
G1 Y146.663 E2879.558
G1 X88.66 Y103.983 E2881.566
G1 Y103.417 E2881.584
G1 X131.34 Y146.097 E2883.592
G1 Y145.532 E2883.611
G1 X88.66 Y102.852 E2885.618
G1 Y102.286 E2885.637
G1 X131.34 Y144.966 E2887.645
G1 Y144.4 E2887.663
G1 X88.66 Y101.72 E2889.671
G1 Y101.155 E2889.69
G1 X123.13 Y135.625 E2891.311
G1 X123.105 Y135.388 E2891.319
G1 X123.131 Y135.141 E2891.327
G1 X123.151 Y135.08 E2891.33
G1 X88.66 Y100.589 E2892.952
G1 Y100.023 E2892.971
G1 X123.33 Y134.694 E2894.601
G1 X123.331 Y134.693 E2894.602
G1 X123.496 Y134.509 E2894.61
G1 X123.621 Y134.418 E2894.615
G1 X88.66 Y99.457 E2896.259
G1 Y98.892 E2896.278
G1 X124.012 Y134.244 E2897.941
G1 X124.164 Y134.212 E2897.946
G1 X124.411 E2897.954
G1 X124.582 Y134.248 E2897.96
G1 X88.66 Y98.326 E2899.65
G1 Y97.76 E2899.669
G1 X131.34 Y140.44 E2901.676
G1 Y141.006 E2901.695
G1 X125.426 Y135.092 E2901.973
G1 X125.445 Y135.154 E2901.975
G1 X125.47 Y135.388 E2901.983
G1 X125.444 Y135.634 E2901.991
G1 X125.434 Y135.665 E2901.992
G1 X131.34 Y141.572 E2902.27
G1 Y142.137 E2902.289
G1 X125.259 Y136.056 E2902.575
G1 X125.244 Y136.083 E2902.576
G1 X125.079 Y136.267 E2902.584
G1 X124.977 Y136.34 E2902.588
G1 X131.34 Y142.703 E2902.888
G1 Y143.269 E2902.906
G1 X124.596 Y136.524 E2903.224
G1 X124.411 Y136.564 E2903.23
G1 X124.164 E2903.238
G1 X124.044 Y136.538 E2903.242
G1 X131.34 Y143.835 E2903.586
G1 F1800 E2893.586
;rapid-dry
G1 F236
G0 Y139.875
G1 F1800 E2903.586
;bead-solid_infill
G1 X88.66 Y97.195 F2400 E2905.593
G1 Y96.629 E2905.612
G1 X131.34 Y139.309 E2907.619
G1 Y138.743 E2907.638
G1 X88.66 Y96.063 E2909.646
G1 Y95.498 E2909.665
G1 X131.34 Y138.178 E2911.672
G1 Y137.612 E2911.691
G1 X88.66 Y94.932 E2913.698
G1 Y94.366 E2913.717
G1 X131.34 Y137.046 E2915.725
G1 Y136.481 E2915.744
G1 X88.66 Y93.801 E2917.751
G1 Y93.235 E2917.77
G1 X131.34 Y135.915 E2919.778
G1 Y135.349 E2919.796
G1 X88.66 Y92.669 E2921.804
G1 Y92.104 E2921.823
G1 X131.34 Y134.784 E2923.83
G1 Y134.218 E2923.849
G1 X88.66 Y91.538 E2925.857
G1 Y90.972 E2925.875
G1 X131.34 Y133.652 E2927.883
G1 Y133.087 E2927.902
G1 X88.66 Y90.407 E2929.909
G1 Y89.841 E2929.928
G1 X131.34 Y132.521 E2931.936
G1 Y131.955 E2931.955
G1 X88.66 Y89.275 E2933.962
G1 Y88.709 E2933.981
G1 X131.34 Y131.389 E2935.989
G1 Y130.824 E2936.007
G1 X88.66 Y88.144 E2938.015
G1 Y87.578 E2938.034
G1 X131.34 Y130.258 E2940.041
G1 Y129.692 E2940.06
G1 X88.66 Y87.012 E2942.067
G1 Y86.447 E2942.086
G1 X131.34 Y129.127 E2944.094
G1 Y128.561 E2944.113
G1 X88.66 Y85.881 E2946.12
G1 Y85.315 E2946.139
G1 X131.34 Y127.995 E2948.146
G1 Y127.43 E2948.165
G1 X88.66 Y84.75 E2950.173
G1 Y84.184 E2950.192
G1 X131.34 Y126.864 E2952.199
G1 Y126.298 E2952.218
G1 X88.66 Y83.618 E2954.226
G1 Y83.053 E2954.244
G1 X131.34 Y125.733 E2956.252
G1 Y125.167 E2956.271
G1 X88.66 Y82.487 E2958.278
G1 Y81.921 E2958.297
G1 X131.34 Y124.601 E2960.305
G1 Y124.036 E2960.323
G1 X88.66 Y81.356 E2962.331
G1 Y80.79 E2962.35
G1 X131.34 Y123.47 E2964.357
G1 Y122.904 E2964.376
G1 X88.66 Y80.224 E2966.384
G1 Y79.658 E2966.403
G1 X131.34 Y122.339 E2968.41
G1 Y121.773 E2968.429
G1 X88.66 Y79.093 E2970.437
G1 Y78.527 E2970.455
G1 X131.34 Y121.207 E2972.463
G1 Y120.641 E2972.482
G1 X88.66 Y77.961 E2974.489
G1 Y77.396 E2974.508
G1 X131.34 Y120.076 E2976.515
G1 Y119.51 E2976.534
G1 X88.66 Y76.83 E2978.542
G1 Y76.264 E2978.561
G1 X131.34 Y118.944 E2980.568
G1 Y118.379 E2980.587
G1 X88.66 Y75.699 E2982.594
G1 Y75.133 E2982.613
G1 X131.34 Y117.813 E2984.621
G1 Y117.247 E2984.64
G1 X88.66 Y74.567 E2986.647
G1 Y74.002 E2986.666
G1 X131.34 Y116.682 E2988.674
G1 Y116.116 E2988.692
G1 X88.66 Y73.436 E2990.7
G1 Y72.87 E2990.719
G1 X131.34 Y115.55 E2992.726
G1 Y114.985 E2992.745
G1 X88.66 Y72.305 E2994.753
G1 Y71.739 E2994.771
G1 X131.34 Y114.419 E2996.779
G1 Y113.853 E2996.798
G1 X88.66 Y71.173 E2998.805
G1 Y70.608 E2998.824
G1 X131.34 Y113.288 E3000.832
G1 Y112.722 E3000.851
G1 X88.66 Y70.042 E3002.858
G1 Y69.476 E3002.877
G1 X131.34 Y112.156 E3004.884
G1 Y111.59 E3004.903
G1 X88.66 Y68.91 E3006.911
G1 Y68.345 E3006.929
G1 X131.34 Y111.025 E3008.937
G1 Y110.459 E3008.956
G1 X88.66 Y67.779 E3010.963
G1 Y67.213 E3010.982
G1 X131.34 Y109.893 E3012.99
G1 Y109.328 E3013.009
G1 X88.66 Y66.648 E3015.016
G1 Y66.082 E3015.035
G1 X131.34 Y108.762 E3017.042
G1 Y108.196 E3017.061
G1 X88.66 Y65.516 E3019.069
G1 Y64.951 E3019.088
G1 X131.34 Y107.631 E3021.095
G1 Y107.065 E3021.114
G1 X88.66 Y64.385 E3023.122
G1 Y63.819 E3023.14
G1 X131.34 Y106.499 E3025.148
G1 Y105.934 E3025.167
G1 X88.66 Y63.254 E3027.174
G1 Y62.688 E3027.193
G1 X131.34 Y105.368 E3029.201
G1 Y104.802 E3029.219
G1 X88.66 Y62.122 E3031.227
G1 Y61.557 E3031.246
G1 X131.34 Y104.237 E3033.253
G1 Y103.671 E3033.272
G1 X88.66 Y60.991 E3035.28
G1 Y60.425 E3035.299
G1 X131.34 Y103.105 E3037.306
G1 Y102.54 E3037.325
G1 X88.66 Y59.86 E3039.332
G1 Y59.294 E3039.351
G1 X131.34 Y101.974 E3041.359
G1 Y101.408 E3041.377
G1 X88.66 Y58.728 E3043.385
G1 Y58.162 E3043.404
G1 X131.34 Y100.842 E3045.411
G1 Y100.277 E3045.43
G1 X88.66 Y57.597 E3047.438
G1 Y57.031 E3047.457
G1 X131.34 Y99.711 E3049.464
G1 Y99.145 E3049.483
G1 X88.66 Y56.465 E3051.49
G1 Y55.9 E3051.509
G1 X131.34 Y98.58 E3053.517
G1 Y98.014 E3053.536
G1 X88.66 Y55.334 E3055.543
G1 Y54.768 E3055.562
G1 X131.34 Y97.448 E3057.57
G1 Y96.883 E3057.588
G1 X88.66 Y54.203 E3059.596
G1 Y53.637 E3059.615
G1 X131.34 Y96.317 E3061.622
G1 Y95.751 E3061.641
G1 X88.66 Y53.071 E3063.649
G1 Y52.506 E3063.667
G1 X131.34 Y95.186 E3065.675
G1 Y94.62 E3065.694
G1 X88.66 Y51.94 E3067.701
G1 Y51.374 E3067.72
G1 X131.34 Y94.054 E3069.728
G1 Y93.489 E3069.746
G1 X88.66 Y50.809 E3071.754
G1 Y50.243 E3071.773
G1 X131.34 Y92.923 E3073.78
G1 Y92.357 E3073.799
G1 X88.66 Y49.677 E3075.807
G1 Y49.111 E3075.825
G1 X131.34 Y91.791 E3077.833
G1 Y91.226 E3077.852
G1 X88.66 Y48.546 E3079.859
G1 Y47.98 E3079.878
G1 X131.34 Y90.66 E3081.886
G1 Y90.094 E3081.905
G1 X88.66 Y47.414 E3083.912
G1 Y46.849 E3083.931
G1 X131.34 Y89.529 E3085.938
G1 Y88.963 E3085.957
G1 X88.66 Y46.283 E3087.965
G1 Y45.717 E3087.984
G1 X131.34 Y88.397 E3089.991
G1 Y87.832 E3090.01
G1 X88.66 Y45.152 E3092.018
G1 Y44.586 E3092.036
G1 X131.34 Y87.266 E3094.044
G1 Y86.7 E3094.063
G1 X88.66 Y44.02 E3096.07
G1 Y43.455 E3096.089
G1 X131.34 Y86.135 E3098.096
G1 Y85.569 E3098.115
G1 X88.66 Y42.889 E3100.123
G1 Y42.323 E3100.142
G1 X131.34 Y85.003 E3102.149
G1 Y84.438 E3102.168
G1 X88.66 Y41.758 E3104.176
G1 Y41.192 E3104.194
G1 X131.34 Y83.872 E3106.202
G1 Y83.306 E3106.221
G1 X88.66 Y40.626 E3108.228
G1 Y40.061 E3108.247
G1 X131.34 Y82.741 E3110.255
G1 Y82.175 E3110.273
G1 X88.66 Y39.495 E3112.281
G1 Y38.929 E3112.3
G1 X131.34 Y81.609 E3114.307
G1 Y81.043 E3114.326
G1 X88.66 Y38.363 E3116.334
G1 Y37.798 E3116.353
G1 X131.34 Y80.478 E3118.36
G1 Y79.912 E3118.379
G1 X88.66 Y37.232 E3120.386
G1 Y36.666 E3120.405
G1 X131.34 Y79.346 E3122.413
G1 Y78.781 E3122.432
G1 X88.66 Y36.101 E3124.439
G1 Y35.535 E3124.458
G1 X131.34 Y78.215 E3126.466
G1 Y77.649 E3126.484
G1 X88.66 Y34.969 E3128.492
G1 Y34.404 E3128.511
G1 X131.34 Y77.084 E3130.518
G1 Y76.518 E3130.537
G1 X88.66 Y33.838 E3132.544
G1 Y33.272 E3132.563
G1 X131.34 Y75.952 E3134.571
G1 Y75.387 E3134.59
G1 X88.66 Y32.707 E3136.597
G1 Y32.141 E3136.616
G1 X131.34 Y74.821 E3138.624
G1 Y74.255 E3138.642
G1 X88.66 Y31.575 E3140.65
G1 Y31.01 E3140.669
G1 X131.34 Y73.69 E3142.676
G1 Y73.124 E3142.695
G1 X88.66 Y30.444 E3144.703
G1 Y29.878 E3144.721
G1 X131.34 Y72.558 E3146.729
G1 Y71.993 E3146.748
G1 X88.66 Y29.312 E3148.755
G1 Y28.747 E3148.774
G1 X131.34 Y71.427 E3150.782
G1 Y70.861 E3150.801
G1 X95.409 Y34.931 E3152.49
G1 X95.589 Y34.969 E3152.497
G1 X95.836 E3152.505
G1 X95.982 Y34.938 E3152.51
G1 X131.34 Y70.295 E3154.173
G1 Y69.73 E3154.192
G1 X96.375 Y34.765 E3155.836
G1 X96.504 Y34.672 E3155.842
G1 X96.666 Y34.49 E3155.85
G1 X131.34 Y69.164 E3157.481
G1 Y68.598 E3157.5
G1 X96.847 Y34.106 E3159.122
G1 X96.869 Y34.039 E3159.124
G1 X96.895 Y33.792 E3159.133
G1 X96.871 Y33.564 E3159.14
G1 X131.34 Y68.033 E3160.761
G1 Y67.467 E3160.78
G1 X88.66 Y24.787 E3162.788
G1 Y24.221 E3162.807
G1 X131.34 Y66.901 E3164.814
G1 Y66.336 E3164.833
G1 X88.66 Y23.656 E3166.841
G1 Y23.09 E3166.859
G1 X131.34 Y65.77 E3168.867
G1 Y65.204 E3168.886
G1 X88.66 Y22.524 E3170.893
G1 Y21.985 E3170.911
G1 X88.686 E3170.912
G1 X131.34 Y64.639 E3172.918
G1 Y64.073 E3172.937
G1 X89.252 Y21.985 E3174.917
G1 X89.818 E3174.936
G1 X131.34 Y63.507 E3176.889
G1 Y62.942 E3176.908
G1 X90.383 Y21.985 E3178.834
G1 X90.949 E3178.853
G1 X131.34 Y62.376 E3180.753
G1 Y61.81 E3180.771
G1 X91.515 Y21.985 E3182.645
G1 X92.081 E3182.664
G1 X131.34 Y61.244 E3184.51
G1 Y60.679 E3184.529
G1 X92.646 Y21.985 E3186.349
G1 X93.212 E3186.368
G1 X131.34 Y60.113 E3188.161
G1 Y59.547 E3188.18
G1 X93.778 Y21.985 E3189.947
G1 X94.343 E3189.966
G1 X131.34 Y58.982 E3191.706
G1 Y58.416 E3191.725
G1 X94.909 Y21.985 E3193.438
G1 X95.475 E3193.457
G1 X131.34 Y57.85 E3195.144
G1 Y57.285 E3195.163
G1 X96.04 Y21.985 E3196.823
G1 X96.606 E3196.842
G1 X131.34 Y56.719 E3198.476
G1 Y56.153 E3198.495
G1 X97.172 Y21.985 E3200.102
G1 X97.737 E3200.121
G1 X131.34 Y55.588 E3201.701
G1 Y55.022 E3201.72
G1 X98.303 Y21.985 E3203.274
G1 X98.869 E3203.293
G1 X131.34 Y54.456 E3204.82
G1 Y53.891 E3204.839
G1 X99.434 Y21.985 E3206.34
G1 X100 E3206.359
G1 X131.34 Y53.325 E3207.833
G1 Y52.759 E3207.852
G1 X100.566 Y21.985 E3209.299
G1 X101.131 E3209.318
G1 X131.34 Y52.194 E3210.739
G1 Y51.628 E3210.758
G1 X101.697 Y21.985 E3212.152
G1 X102.263 E3212.171
G1 X131.34 Y51.062 E3213.539
G1 Y50.496 E3213.557
G1 X102.829 Y21.985 E3214.898
G1 X103.394 E3214.917
G1 X131.34 Y49.931 E3216.232
G1 Y49.365 E3216.251
G1 X103.96 Y21.985 E3217.539
G1 X104.526 E3217.557
G1 X131.34 Y48.799 E3218.819
G1 Y48.234 E3218.837
G1 X105.091 Y21.985 E3220.072
G1 X105.657 E3220.091
G1 X131.34 Y47.668 E3221.299
G1 Y47.102 E3221.318
G1 X106.223 Y21.985 E3222.499
G1 X106.788 E3222.518
G1 X131.34 Y46.537 E3223.673
G1 Y45.971 E3223.692
G1 X107.354 Y21.985 E3224.82
G1 X107.92 E3224.839
G1 X131.34 Y45.405 E3225.94
G1 Y44.84 E3225.959
G1 X108.485 Y21.985 E3227.034
G1 X109.051 E3227.053
G1 X131.34 Y44.274 E3228.101
G1 Y43.708 E3228.12
G1 X109.617 Y21.985 E3229.142
G1 X110.182 E3229.161
G1 X131.34 Y43.143 E3230.156
G1 Y42.577 E3230.175
G1 X110.748 Y21.985 E3231.143
G1 X111.314 E3231.162
G1 X123.107 Y33.778 E3231.717
G1 X123.131 Y33.544 E3231.725
G1 X123.206 Y33.312 E3231.733
G1 X111.88 Y21.985 E3232.266
G1 X112.445 E3232.284
G1 X123.437 Y32.977 E3232.802
G1 X123.496 Y32.911 E3232.804
G1 X123.696 Y32.767 E3232.813
G1 X123.763 Y32.737 E3232.815
G1 X113.011 Y21.985 E3233.321
G1 X113.577 E3233.34
G1 X124.207 Y32.615 E3233.84
G1 X124.411 E3233.846
G1 X124.653 Y32.666 E3233.854
G1 X124.879 Y32.767 E3233.863
G1 X125.041 Y32.884 E3233.869
G1 X114.142 Y21.985 E3234.382
G1 X114.708 E3234.401
G1 X131.34 Y38.617 E3235.183
G1 Y39.183 E3235.202
G1 X125.169 Y33.012 E3235.492
G1 X125.244 Y33.095 E3235.496
G1 X125.367 Y33.308 E3235.504
G1 X125.446 Y33.557 E3235.513
G1 X125.47 Y33.791 E3235.521
G1 X125.461 Y33.87 E3235.523
G1 X131.34 Y39.748 E3235.8
G1 Y40.314 E3235.819
G1 X125.342 Y34.316 E3236.101
G1 X125.244 Y34.486 E3236.107
G1 X125.103 Y34.643 E3236.114
G1 X131.34 Y40.88 E3236.408
G1 Y41.445 E3236.427
G1 X124.761 Y34.867 E3236.736
G1 X124.652 Y34.915 E3236.74
G1 X124.411 Y34.967 E3236.748
G1 X124.296 E3236.752
G1 X131.34 Y42.011 E3237.083
G1 F1800 E3227.083
;rapid-dry
G1 F236
G0 Y38.051
G1 F1800 E3237.083
;bead-solid_infill
G1 X115.274 Y21.985 F2400 E3237.839
G1 X115.839 E3237.858
G1 X131.34 Y37.486 E3238.587
G1 Y36.92 E3238.606
G1 X116.405 Y21.985 E3239.308
G1 X116.971 E3239.327
G1 X131.34 Y36.354 E3240.003
G1 Y35.789 E3240.022
G1 X117.536 Y21.985 E3240.671
G1 X118.102 E3240.69
G1 X131.34 Y35.223 E3241.313
G1 Y34.657 E3241.331
G1 X118.668 Y21.985 E3241.927
G1 X119.233 E3241.946
G1 X131.34 Y34.092 E3242.516
G1 Y33.526 E3242.534
G1 X119.799 Y21.985 E3243.077
G1 X120.365 E3243.096
G1 X131.34 Y32.96 E3243.612
G1 Y32.395 E3243.631
G1 X120.93 Y21.985 E3244.121
G1 X121.496 E3244.14
G1 X131.34 Y31.829 E3244.603
G1 Y31.263 E3244.622
G1 X122.062 Y21.985 E3245.058
G1 X122.628 E3245.077
G1 X131.34 Y30.697 E3245.487
G1 Y30.132 E3245.505
G1 X123.193 Y21.985 E3245.889
G1 X123.759 E3245.907
G1 X131.34 Y29.566 E3246.264
G1 Y29 E3246.283
G1 X124.325 Y21.985 E3246.613
G1 X124.89 E3246.632
G1 X131.34 Y28.435 E3246.935
G1 Y27.869 E3246.954
G1 X125.456 Y21.985 E3247.23
G1 X126.022 E3247.249
G1 X131.34 Y27.303 E3247.5
G1 Y26.738 E3247.518
G1 X126.587 Y21.985 E3247.742
G1 X127.153 E3247.761
G1 X131.34 Y26.172 E3247.958
G1 Y25.606 E3247.977
G1 X127.719 Y21.985 E3248.147
G1 X128.284 E3248.166
G1 X131.34 Y25.041 E3248.309
G1 Y24.475 E3248.328
G1 X128.85 Y21.985 E3248.445
G1 X129.416 E3248.464
G1 X131.34 Y23.909 E3248.555
G1 Y23.344 E3248.573
G1 X129.981 Y21.985 E3248.637
G1 X130.547 E3248.656
G1 X131.34 Y22.778 E3248.693
G1 Y22.212 E3248.712
G1 X131.113 Y21.985 E3248.723
G1 F1800 E3238.723
;rapid-dry
G1 F236
G0 X96.479 Y33.925
G1 F1800 E3248.723
;bead-sparse_infill
G1 X95.58 Y33.027 F3600 E3248.765
;rapid-leaky
G1 F236
G0 X95.947 Y32.64
;bead-solid_infill
G1 X88.66 Y25.353 F2400 E3249.108
G1 Y25.918 E3249.127
G1 X95.398 Y32.657 E3249.444
G1 X95.348 Y32.668 E3249.446
G1 X95.121 Y32.769 E3249.454
G1 X95.019 Y32.843 E3249.458
G1 X88.66 Y26.484 E3249.757
G1 Y27.05 E3249.776
G1 X94.738 Y33.128 E3250.062
G1 X94.632 Y33.312 E3250.069
G1 X94.565 Y33.52 E3250.076
G1 X88.66 Y27.615 E3250.354
G1 Y28.181 E3250.373
G1 X94.575 Y34.096 E3250.651
;rapid-leaky
G1 F236
G0 X95.406 Y134.677
;bead-sparse_infill
G1 X96.428 Y135.698 F3600 E3250.699
G1 F1800 E3240.699
;Layer : 5 of 38
;rapid-dry
G1 F236
G0 X88.34 Y198.335 Z1.1
G1 F1800 E3250.699
;bead-perimeter_inner
G1 Y21.665 F1560 E3256.575
G1 X131.66 E3258.016
G1 Y198.335 E3263.892
G1 X88.34 E3265.333
;rapid-leaky
G1 F236
G0 X88.66 Y71.894
;bead-solid_infill
G1 X131.34 Y29.214 F2400 E3267.34
G1 Y29.779 E3267.359
G1 X88.66 Y72.459 E3269.366
G1 Y73.025 E3269.385
G1 X131.34 Y30.345 E3271.393
G1 Y30.911 E3271.412
G1 X88.66 Y73.591 E3273.419
G1 Y74.156 E3273.438
G1 X131.34 Y31.476 E3275.446
G1 Y32.042 E3275.464
G1 X88.66 Y74.722 E3277.472
G1 Y75.288 E3277.491
G1 X131.34 Y32.608 E3279.498
G1 Y33.173 E3279.517
G1 X88.66 Y75.853 E3281.525
G1 Y76.419 E3281.543
G1 X131.34 Y33.739 E3283.551
G1 Y34.305 E3283.57
G1 X88.66 Y76.985 E3285.577
G1 Y77.55 E3285.596
G1 X131.34 Y34.87 E3287.604
G1 Y35.436 E3287.623
G1 X88.66 Y78.116 E3289.63
G1 Y78.682 E3289.649
G1 X131.34 Y36.002 E3291.656
G1 Y36.567 E3291.675
G1 X88.66 Y79.247 E3293.683
G1 Y79.813 E3293.702
G1 X131.34 Y37.133 E3295.709
G1 Y37.699 E3295.728
G1 X88.66 Y80.379 E3297.736
G1 Y80.945 E3297.754
G1 X131.34 Y38.265 E3299.762
G1 Y38.83 E3299.781
G1 X88.66 Y81.51 E3301.788
G1 Y82.076 E3301.807
G1 X131.34 Y39.396 E3303.814
G1 Y39.962 E3303.833
G1 X88.66 Y82.642 E3305.841
G1 Y83.207 E3305.86
G1 X131.34 Y40.527 E3307.867
G1 Y41.093 E3307.886
G1 X88.66 Y83.773 E3309.894
G1 Y84.339 E3309.912
G1 X131.34 Y41.659 E3311.92
G1 Y42.224 E3311.939
G1 X88.66 Y84.904 E3313.946
G1 Y85.47 E3313.965
G1 X131.34 Y42.79 E3315.973
G1 Y43.356 E3315.991
G1 X88.66 Y86.036 E3317.999
G1 Y86.601 E3318.018
G1 X131.34 Y43.921 E3320.025
G1 Y44.487 E3320.044
G1 X88.66 Y87.167 E3322.052
G1 Y87.733 E3322.071
G1 X131.34 Y45.053 E3324.078
G1 Y45.618 E3324.097
G1 X88.66 Y88.298 E3326.104
G1 Y88.864 E3326.123
G1 X131.34 Y46.184 E3328.131
G1 Y46.75 E3328.15
G1 X88.66 Y89.43 E3330.157
G1 Y89.996 E3330.176
G1 X131.34 Y47.316 E3332.183
G1 Y47.881 E3332.202
G1 X88.66 Y90.561 E3334.21
G1 Y91.127 E3334.229
G1 X131.34 Y48.447 E3336.236
G1 Y49.013 E3336.255
G1 X88.66 Y91.693 E3338.262
G1 Y92.258 E3338.281
G1 X131.34 Y49.578 E3340.289
G1 Y50.144 E3340.308
G1 X88.66 Y92.824 E3342.315
G1 Y93.39 E3342.334
G1 X131.34 Y50.71 E3344.342
G1 Y51.275 E3344.36
G1 X88.66 Y93.955 E3346.368
G1 Y94.521 E3346.387
G1 X131.34 Y51.841 E3348.394
G1 Y52.407 E3348.413
G1 X88.66 Y95.087 E3350.421
G1 Y95.652 E3350.439
G1 X131.34 Y52.972 E3352.447
G1 Y53.538 E3352.466
G1 X88.66 Y96.218 E3354.473
G1 Y96.784 E3354.492
G1 X131.34 Y54.104 E3356.5
G1 Y54.669 E3356.519
G1 X88.66 Y97.349 E3358.526
G1 Y97.915 E3358.545
G1 X131.34 Y55.235 E3360.552
G1 Y55.801 E3360.571
G1 X88.66 Y98.481 E3362.579
G1 Y99.046 E3362.598
G1 X131.34 Y56.366 E3364.605
G1 Y56.932 E3364.624
G1 X88.66 Y99.612 E3366.631
G1 Y100.178 E3366.65
G1 X131.34 Y57.498 E3368.658
G1 Y58.064 E3368.677
G1 X88.66 Y100.744 E3370.684
G1 Y101.309 E3370.703
G1 X131.34 Y58.629 E3372.71
G1 Y59.195 E3372.729
G1 X88.66 Y101.875 E3374.737
G1 Y102.441 E3374.756
G1 X131.34 Y59.761 E3376.763
G1 Y60.326 E3376.782
G1 X88.66 Y103.006 E3378.79
G1 Y103.572 E3378.808
G1 X131.34 Y60.892 E3380.816
G1 Y61.458 E3380.835
G1 X88.66 Y104.138 E3382.842
G1 Y104.703 E3382.861
G1 X131.34 Y62.023 E3384.869
G1 Y62.589 E3384.887
G1 X88.66 Y105.269 E3386.895
G1 Y105.835 E3386.914
G1 X131.34 Y63.155 E3388.921
G1 Y63.72 E3388.94
G1 X88.66 Y106.4 E3390.948
G1 Y106.966 E3390.967
G1 X131.34 Y64.286 E3392.974
G1 Y64.852 E3392.993
G1 X88.66 Y107.532 E3395
G1 Y108.097 E3395.019
G1 X131.34 Y65.417 E3397.027
G1 Y65.983 E3397.045
G1 X88.66 Y108.663 E3399.053
G1 Y109.229 E3399.072
G1 X131.34 Y66.549 E3401.079
G1 Y67.114 E3401.098
G1 X88.66 Y109.795 E3403.106
G1 Y110.36 E3403.125
G1 X131.34 Y67.68 E3405.132
G1 Y68.246 E3405.151
G1 X88.66 Y110.926 E3407.158
G1 Y111.492 E3407.177
G1 X131.34 Y68.812 E3409.185
G1 Y69.377 E3409.204
G1 X88.66 Y112.057 E3411.211
G1 Y112.623 E3411.23
G1 X131.34 Y69.943 E3413.238
G1 Y70.509 E3413.256
G1 X88.66 Y113.189 E3415.264
G1 Y113.754 E3415.283
G1 X131.34 Y71.074 E3417.29
G1 Y71.64 E3417.309
G1 X88.66 Y114.32 E3419.317
G1 Y114.886 E3419.335
G1 X131.34 Y72.206 E3421.343
G1 Y72.771 E3421.362
G1 X88.66 Y115.451 E3423.369
G1 Y116.017 E3423.388
G1 X131.34 Y73.337 E3425.396
G1 Y73.903 E3425.415
G1 X88.66 Y116.583 E3427.422
G1 Y117.148 E3427.441
G1 X131.34 Y74.468 E3429.448
G1 Y75.034 E3429.467
G1 X88.66 Y117.714 E3431.475
G1 Y118.28 E3431.493
G1 X131.34 Y75.6 E3433.501
G1 Y76.165 E3433.52
G1 X88.66 Y118.845 E3435.527
G1 Y119.411 E3435.546
G1 X131.34 Y76.731 E3437.554
G1 Y77.297 E3437.573
G1 X88.66 Y119.977 E3439.58
G1 Y120.543 E3439.599
G1 X131.34 Y77.863 E3441.606
G1 Y78.428 E3441.625
G1 X88.66 Y121.108 E3443.633
G1 Y121.674 E3443.652
G1 X131.34 Y78.994 E3445.659
G1 Y79.56 E3445.678
G1 X88.66 Y122.24 E3447.686
G1 Y122.805 E3447.704
G1 X131.34 Y80.125 E3449.712
G1 Y80.691 E3449.731
G1 X88.66 Y123.371 E3451.738
G1 Y123.937 E3451.757
G1 X131.34 Y81.257 E3453.765
G1 Y81.822 E3453.783
G1 X88.66 Y124.502 E3455.791
G1 Y125.068 E3455.81
G1 X131.34 Y82.388 E3457.817
G1 Y82.954 E3457.836
G1 X88.66 Y125.634 E3459.844
G1 Y126.199 E3459.863
G1 X131.34 Y83.519 E3461.87
G1 Y84.085 E3461.889
G1 X88.66 Y126.765 E3463.896
G1 Y127.331 E3463.915
G1 X131.34 Y84.651 E3465.923
G1 Y85.216 E3465.941
G1 X88.66 Y127.896 E3467.949
G1 Y128.462 E3467.968
G1 X131.34 Y85.782 E3469.975
G1 Y86.348 E3469.994
G1 X88.66 Y129.028 E3472.002
G1 Y129.593 E3472.021
G1 X131.34 Y86.913 E3474.028
G1 Y87.479 E3474.047
G1 X88.66 Y130.159 E3476.054
G1 Y130.725 E3476.073
G1 X131.34 Y88.045 E3478.081
G1 Y88.611 E3478.1
G1 X88.66 Y131.291 E3480.107
G1 Y131.856 E3480.126
G1 X131.34 Y89.176 E3482.134
G1 Y89.742 E3482.152
G1 X88.66 Y132.422 E3484.16
G1 Y132.988 E3484.179
G1 X131.34 Y90.308 E3486.186
G1 Y90.873 E3486.205
G1 X88.66 Y133.553 E3488.213
G1 Y134.119 E3488.231
G1 X131.34 Y91.439 E3490.239
G1 Y92.005 E3490.258
G1 X88.66 Y134.685 E3492.265
G1 Y135.25 E3492.284
G1 X131.34 Y92.57 E3494.292
G1 Y93.136 E3494.31
G1 X88.66 Y135.816 E3496.318
G1 Y136.382 E3496.337
G1 X131.34 Y93.702 E3498.344
G1 Y94.267 E3498.363
G1 X88.66 Y136.947 E3500.371
G1 Y137.513 E3500.389
G1 X131.34 Y94.833 E3502.397
G1 Y95.399 E3502.416
G1 X88.66 Y138.079 E3504.423
G1 Y138.644 E3504.442
G1 X131.34 Y95.964 E3506.45
G1 Y96.53 E3506.469
G1 X88.66 Y139.21 E3508.476
G1 Y139.776 E3508.495
G1 X131.34 Y97.096 E3510.502
G1 Y97.662 E3510.521
G1 X88.66 Y140.342 E3512.529
G1 Y140.907 E3512.548
G1 X94.62 Y134.947 E3512.828
G1 X94.556 Y135.144 E3512.835
G1 X94.53 Y135.39 E3512.843
G1 X94.551 Y135.582 E3512.849
G1 X88.66 Y141.473 E3513.126
G1 Y142.039 E3513.145
G1 X94.704 Y135.995 E3513.43
G1 X94.75 Y136.075 E3513.433
G1 X94.923 Y136.27 E3513.441
G1 X94.964 Y136.3 E3513.443
G1 X88.66 Y142.604 E3513.74
G1 Y143.17 E3513.758
G1 X95.325 Y136.505 E3514.072
G1 X95.347 Y136.514 E3514.073
G1 X95.589 Y136.566 E3514.081
G1 X95.83 E3514.089
G1 X88.66 Y143.736 E3514.426
G1 Y144.301 E3514.445
G1 X131.34 Y101.621 E3516.453
G1 Y101.056 E3516.471
G1 X96.882 Y135.514 E3518.092
G1 X96.895 Y135.39 E3518.096
G1 X96.871 Y135.157 E3518.104
G1 X96.823 Y135.007 E3518.109
G1 X131.34 Y100.49 E3519.733
G1 Y99.924 E3519.752
G1 X96.622 Y134.642 E3521.385
G1 X96.504 Y134.511 E3521.391
G1 X96.321 Y134.378 E3521.398
G1 X131.34 Y99.359 E3523.045
G1 Y98.793 E3523.064
G1 X95.905 Y134.228 E3524.731
G1 X95.836 Y134.214 E3524.733
G1 X95.589 E3524.741
G1 X95.347 Y134.265 E3524.75
G1 X95.266 Y134.301 E3524.753
G1 X131.34 Y98.227 E3526.449
G1 F1800 E3516.449
;rapid-dry
G1 F236
G0 Y102.187
G1 F1800 E3526.449
;bead-solid_infill
G1 X88.66 Y144.867 F2400 E3528.457
G1 Y145.433 E3528.476
G1 X131.34 Y102.753 E3530.483
G1 Y103.318 E3530.502
G1 X88.66 Y145.998 E3532.51
G1 Y146.564 E3532.529
G1 X131.34 Y103.884 E3534.536
G1 Y104.45 E3534.555
G1 X88.66 Y147.13 E3536.563
G1 Y147.695 E3536.581
G1 X131.34 Y105.015 E3538.589
G1 Y105.581 E3538.608
G1 X88.66 Y148.261 E3540.615
G1 Y148.827 E3540.634
G1 X131.34 Y106.147 E3542.641
G1 Y106.712 E3542.66
G1 X88.66 Y149.392 E3544.668
G1 Y149.958 E3544.687
G1 X131.34 Y107.278 E3546.694
G1 Y107.844 E3546.713
G1 X88.66 Y150.524 E3548.72
G1 Y151.09 E3548.739
G1 X131.34 Y108.41 E3550.747
G1 Y108.975 E3550.766
G1 X88.66 Y151.655 E3552.773
G1 Y152.221 E3552.792
G1 X131.34 Y109.541 E3554.8
G1 Y110.107 E3554.818
G1 X88.66 Y152.787 E3556.826
G1 Y153.352 E3556.845
G1 X131.34 Y110.672 E3558.852
G1 Y111.238 E3558.871
G1 X88.66 Y153.918 E3560.879
G1 Y154.484 E3560.897
G1 X131.34 Y111.804 E3562.905
G1 Y112.369 E3562.924
G1 X88.66 Y155.049 E3564.931
G1 Y155.615 E3564.95
G1 X131.34 Y112.935 E3566.958
G1 Y113.501 E3566.977
G1 X88.66 Y156.181 E3568.984
G1 Y156.746 E3569.003
G1 X131.34 Y114.066 E3571.01
G1 Y114.632 E3571.029
G1 X88.66 Y157.312 E3573.037
G1 Y157.878 E3573.056
G1 X131.34 Y115.198 E3575.063
G1 Y115.763 E3575.082
G1 X88.66 Y158.443 E3577.089
G1 Y159.009 E3577.108
G1 X131.34 Y116.329 E3579.116
G1 Y116.895 E3579.135
G1 X88.66 Y159.575 E3581.142
G1 Y160.141 E3581.161
G1 X131.34 Y117.46 E3583.168
G1 Y118.026 E3583.187
G1 X88.66 Y160.706 E3585.195
G1 Y161.272 E3585.214
G1 X131.34 Y118.592 E3587.221
G1 Y119.158 E3587.24
G1 X88.66 Y161.838 E3589.248
G1 Y162.403 E3589.266
G1 X131.34 Y119.723 E3591.274
G1 Y120.289 E3591.293
G1 X88.66 Y162.969 E3593.3
G1 Y163.535 E3593.319
G1 X131.34 Y120.855 E3595.327
G1 Y121.42 E3595.345
G1 X88.66 Y164.1 E3597.353
G1 Y164.666 E3597.372
G1 X131.34 Y121.986 E3599.379
G1 Y122.552 E3599.398
G1 X88.66 Y165.232 E3601.406
G1 Y165.797 E3601.425
G1 X131.34 Y123.117 E3603.432
G1 Y123.683 E3603.451
G1 X88.66 Y166.363 E3605.458
G1 Y166.929 E3605.477
G1 X131.34 Y124.249 E3607.485
G1 Y124.814 E3607.503
G1 X88.66 Y167.494 E3609.511
G1 Y168.06 E3609.53
G1 X131.34 Y125.38 E3611.537
G1 Y125.946 E3611.556
G1 X88.66 Y168.626 E3613.564
G1 Y169.191 E3613.583
G1 X131.34 Y126.511 E3615.59
G1 Y127.077 E3615.609
G1 X124.205 Y134.212 E3615.945
G1 X124.411 E3615.951
G1 X124.653 Y134.263 E3615.959
G1 X124.699 Y134.284 E3615.961
G1 X131.34 Y127.643 E3616.274
G1 Y128.209 E3616.292
G1 X125.056 Y134.492 E3616.588
G1 X125.079 Y134.509 E3616.589
G1 X125.244 Y134.693 E3616.597
G1 X125.309 Y134.805 E3616.602
G1 X131.34 Y128.774 E3616.885
G1 Y129.34 E3616.904
G1 X125.453 Y135.227 E3617.181
G1 X125.47 Y135.388 E3617.186
G1 X125.444 Y135.634 E3617.195
G1 X125.368 Y135.869 E3617.203
G1 X125.355 Y135.89 E3617.204
G1 X131.34 Y129.906 E3617.485
G1 Y130.471 E3617.504
G1 X88.66 Y173.151 E3619.511
G1 Y173.717 E3619.53
G1 X131.34 Y131.037 E3621.538
G1 Y131.603 E3621.557
G1 X88.66 Y174.283 E3623.564
G1 Y174.848 E3623.583
G1 X131.34 Y132.168 E3625.591
G1 Y132.734 E3625.609
G1 X88.66 Y175.414 E3627.617
G1 Y175.98 E3627.636
G1 X131.34 Y133.3 E3629.643
G1 Y133.865 E3629.662
G1 X88.66 Y176.545 E3631.669
G1 Y177.111 E3631.688
G1 X131.34 Y134.431 E3633.696
G1 Y134.997 E3633.715
G1 X88.66 Y177.677 E3635.722
G1 Y178.242 E3635.741
G1 X131.34 Y135.562 E3637.749
G1 Y136.128 E3637.767
G1 X88.66 Y178.808 E3639.775
G1 Y179.374 E3639.794
G1 X131.34 Y136.694 E3641.801
G1 Y137.259 E3641.82
G1 X88.66 Y179.939 E3643.828
G1 Y180.505 E3643.846
G1 X131.34 Y137.825 E3645.854
G1 Y138.391 E3645.873
G1 X88.66 Y181.071 E3647.88
G1 Y181.637 E3647.899
G1 X131.34 Y138.957 E3649.907
G1 Y139.522 E3649.926
G1 X88.66 Y182.202 E3651.933
G1 Y182.768 E3651.952
G1 X131.34 Y140.088 E3653.959
G1 Y140.654 E3653.978
G1 X88.66 Y183.334 E3655.986
G1 Y183.899 E3656.005
G1 X131.34 Y141.219 E3658.012
G1 Y141.785 E3658.031
G1 X88.66 Y184.465 E3660.039
G1 Y185.031 E3660.057
